MZ1808/GSE303426/exprs_5d.csv
"","WKY_Joint_5d_A","WKY_Joint_5d_B","WKY_Joint_5d_C","SHR_Joint_5d_A","SHR_Joint_5d_B","SHR_Joint_5d_C"
"A2m",8.11970687866674,7.51252035815054,7.14942212335156,7.36041800563124,7.2064648404085,7.95013291807696
"Acaa1a",8.68184879274811,8.8877547638654,8.87744859616949,8.38004866889608,8.38931353474096,8.29203428395579
"Acadm",8.92113846995722,8.98148440657268,8.9161235496235,8.72366672958895,8.83926312174433,8.8166528143081
"Acly",11.8558412243059,11.7433597715722,11.6487777468202,12.0182781680537,12.0213774658973,12.1706505680943
"Acp1",10.1112949527966,9.73727077655606,9.81365977084454,9.83871830778366,9.91413253120516,9.98704851332618
"Acp2",10.4689176775268,10.5948820736459,10.5251078890696,10.5985082570087,10.6047636296614,10.6084279298518
"Ada",8.15461648953648,7.1952206516941,7.42243783811439,7.29213778226839,7.40902831273915,7.60306378000467
"Adcyap1",-1.06467764751266,-1.06464757889197,-1.0437530609055,-1.03566200787738,-1.0084147495155,-1.04294793099326
"Adcyap1r1",-0.100810653937254,-0.015474444314245,-0.0486628948339298,-0.0711448803647668,-0.071558367973343,-0.0808312784608747
"Add1",12.7787834009128,12.6523890289396,12.7170579382963,12.5784931318838,12.6060546853628,12.5908021852532
"Add2",0.0145001142912652,-0.0425395687091902,-0.0469954515879173,-0.0128313616912043,-0.0132477482113884,0.0199361694276584
"Adh1",-0.116001725017514,-0.0870836746797794,-0.101909916377905,-0.0593127581071657,-0.144864869156635,-0.101721597102642
"Adra1b",5.17062621530011,5.53802912508759,5.34196977738285,5.51648165819824,5.65614272544089,5.59867008463057
"Adra2b",0.784104295974119,0.762041167122697,0.698731343902304,0.624752720167167,0.624676482206018,0.699055988832697
"Adrb2",6.22603309880545,6.09223099463596,6.25979847294225,6.9394483845909,6.98415641478175,6.86113597346478
"Agt",3.38556568761774,3.69583313225963,4.099932136108,3.67088811567384,3.52231026879485,3.03736646606503
"Agtr1a",7.65085630509314,8.37749674199396,8.00436073866163,7.11337258366079,7.07929137212274,7.10614776277369
"Agtr2",8.78225891977066,10.4079409862215,9.05425786998908,8.58380826406743,8.53417874111755,9.09983558559948
"Ak1",10.5795410589877,10.0294613919106,10.4005287319603,10.2860793644322,10.3095801422558,10.2018022468328
"Ak2",11.7490819137461,10.9745511347196,11.073680650661,10.9580527494369,11.071117323515,11.3027209100478
"Akt1",13.2132891519963,12.8724747573552,12.8342331142817,12.9039583865078,12.9513387393494,13.1362974033227
"Aldh1a1",-1.97165344256406,-1.96084887309651,-1.96905152882083,-1.97152031324185,-1.97159686073443,-1.9687582159976
"Aldoa",14.6869416484743,14.228161534048,14.3830360113777,14.2464942388037,14.2978531882188,14.3466892933947
"Aldoc",7.60708704756591,8.07598688322872,7.96136982413838,7.9957442639231,8.04201778220298,7.89904816432198
"Akr1b1",11.5429134468332,11.4362601012673,11.6035000954767,11.4980269689048,11.5869993072776,11.4285998166647
"Apc",10.0063647068534,10.3285776415253,10.1590818044176,10.3954515144548,10.250119088363,10.3311746711806
"Apeh",9.85063932073219,9.62425706396182,9.69267339100337,9.59443305291617,9.68728165992803,9.68563215776574
"Apoc3",1.36105726880558,1.38978684037326,1.38740720584519,1.39022959631405,1.4155916093474,1.39092545157495
"Ar",1.88815127347328,1.86141506782029,1.95518828768367,1.89027893229438,1.86086026123669,1.79516447972865
"Ascl2",1.33157356781241,1.48979487044021,1.40448819445074,1.3610426410979,1.4396893296132,1.40656201003113
"Asgr1",0.123931352623644,0.15233303031699,0.117061438534205,0.125251061539016,0.0671676511264498,0.117280109268845
"Atp1a1",13.7218311983537,13.1668304044689,13.3462033099292,13.3237475656582,13.3417827115971,13.4308926301098
"Atp1a2",2.52223471590968,3.53041216255421,2.85513551893152,2.52393359101598,2.56052519261558,2.7134173121162
"Atp1a3",3.17005096678125,2.15297869085354,2.29516679706724,2.11057649382643,2.11009491077111,2.47668373404892
"Atp1b2",3.48049371503141,3.50810651797897,3.57246843316413,3.68182343266973,3.69664586054845,3.61106632995015
"Atp7b",4.25349554865213,4.19786227231867,4.07055233474522,4.17773202375231,4.17382698307737,4.33090607915503
"Avp",-1.96109239742887,-1.97149441658262,-1.96904229304321,-1.97146568874592,-1.97154082890923,-1.96875437279011
"B2m",12.8065696808495,13.0779050037428,13.3824837930855,12.8765470002762,12.9102179948751,12.4531360467863
"Bcl2",5.02128284244798,5.46924141091429,5.20915808205945,5.30583055148848,5.27068604923655,5.3243623449842
"Bdnf",6.92504494790397,7.51478279400687,7.58910522309466,7.9171453336652,7.79117640039453,7.48496951489062
"Tspo",10.0029846945347,9.88534798844856,10.0083598711012,9.85285731901123,9.85059579829384,9.78753302904297
"C2",6.88283240396085,7.9348971790241,7.85377235934845,7.72332464155613,7.75420923814562,7.2938593719949
"C3",8.39936773680827,11.4091852866138,11.6031879765037,9.99651582994136,10.1594308089484,8.37906185465226
"C4a",5.07597885958919,7.50693170839138,6.46300300317114,5.63732146119056,5.9415797131064,5.61790286796762
"C4bpa",2.3138327748994,3.10806121124566,2.53295780744498,2.28142969391163,2.34858814352676,2.49299810434675
"C4bpb",-1.49961860329176,-1.49941873309106,-1.48946360378336,-1.45817848253817,-1.4995097197168,-1.48889916553553
"C6",2.16173934949628,2.53212629230112,2.28790167568427,2.24710013165679,2.07261911284373,2.21889076746469
"Cacna1c",8.45757576195547,8.12529140367283,8.41931813762592,8.43271255395627,8.34070740322205,8.25882542377739
"Cad",10.9046788184135,10.5335334781216,10.5239333404131,10.6813894892585,10.738328548463,10.9050318267152
"Calm1",13.576098367411,12.7923064011058,13.1240612217128,13.1400858586926,13.1435726113382,13.201970397561
"Calm3",9.975637222896,9.76288223066963,9.82995413690262,9.68111012691278,9.6266927423344,9.69320702450378
"Camk2b",4.50012892302905,4.62733614196877,4.61632722149806,4.66652702225638,4.64294404933364,4.60214084679586
"Camk2d",11.2794776420251,11.0701140624609,11.2801418986803,11.1505187606435,11.1145922026919,11.0272094352304
"Cat",10.7221842116513,11.2820204573872,11.3218708950467,11.1552386331409,11.1583627565386,10.8370321343123
"S100g",-1.49210442248509,-1.49189466616746,-1.47604450436788,-1.47022506230057,-1.49199015323608,-1.49706264772672
"Cbs",-0.776202456250379,-0.776160239529365,-0.747226865110083,-0.776148229188555,-0.660130199228137,-0.747093696988135
"Cd53",3.71930492584984,2.32466880549137,2.65768046475466,2.32493901213326,2.37101246237092,2.71228213816803
"Cebpa",8.23254094949915,8.57881016564112,8.33551839325852,8.01207069082002,8.12690113789438,8.13964307866882
"Cebpb",11.0586764997239,11.3821230436514,11.2598812280341,10.8714226766475,11.020671145671,10.9065654548128
"Cel",1.81045912862479,1.81247477688489,1.78007791586969,1.83909423137456,1.72916059422545,1.81551644968516
"Cftr",1.36207749719103,1.36273431719473,1.34478398159645,1.36292113327832,1.36243412052161,1.38029955249639
"Chgb",-1.97162733949945,-1.97152434953511,-1.9690473072226,-1.9714953297627,-1.96096051782674,-1.9687564610894
"Chrm3",-0.984877431490922,-0.984843901178062,-0.946304635232318,-0.954849440867106,-0.984859228238633,-1.00841036565504
"Chrnb1",4.15601847055633,4.37506469579353,4.33717513710002,4.26340752191259,4.235391055789,4.17776573492571
"Ckb",9.32582221893167,9.39775184660622,9.58664371031767,9.92244423627977,9.86723990980794,9.66998539549513
"Ckm",0,0,0,0,0,0
"Comt",10.8519634540575,10.7004464905685,10.7146200724378,10.593340589909,10.6296416503903,10.6730760200249
"Cp",7.11369454275211,9.11418350610316,8.77273985308063,8.49281933472373,8.43796889350019,7.80659328545897
"Cpa1",2.76454727353469,2.80079865147155,2.4739192495675,2.801282496793,2.92670505939088,3.17274749102756
"Cpb1",0,0,0,0,0,0
"Ctrb1",2.81549076358394,2.78855062138803,2.78856405454504,3.01957916582894,3.01614755303966,3.03131999737524
"Cyp11b2",2.54326359640964,1.70701169766171,1.94759618961971,1.70713805264812,1.74713134456921,1.90467615602463
"Cyp1a1",1.73235396567136,1.76590835371842,1.60526584427013,1.73268607762652,1.82793521956769,1.92417596402186
"Cyp21a1",-1.49219607150062,-1.49198195418481,-1.49786205457283,-1.49192162174549,-1.47001962703462,-1.47519758265994
"Cyp2a3",-1.97162733949945,-1.97152434953511,-1.9690473072226,-1.9714953297627,-1.96096051782674,-1.9687564610894
"Cyp2b1",0,0,0,0,0,0
"Cyp4b1",2.67031244346161,2.78474843261374,2.90326637347088,2.70200012169484,2.75664650545307,2.55358737814075
"Dbp",7.71357417641084,8.42604915284509,8.40212516060088,7.85303288438173,8.04781368522533,7.61810978883062
"Ace",4.14353838261772,5.04685460916417,4.42464366727286,3.98109313386991,3.97646877958948,4.14933378534779
"Ddc",3.65530339191574,3.58788126149438,3.52091410536045,3.72787872140942,3.91394144899891,3.92158830654878
"Dhfr",9.56229637108924,8.37542158848989,8.71127668925352,8.27784638321466,8.29837400630909,8.54569248529791
"Nqo1",10.9552363375435,11.0503672694032,11.3553837677735,10.3613188283407,10.3828966436721,10.0195257717062
"Drd1",2.33704377541878,2.6130147389738,2.43919815700104,2.36691707648039,2.25444727231695,2.34651327459391
"Edn1",7.68746568826778,8.88917516899727,8.85875042025405,9.25391446592718,9.25441472627137,8.68373460447775
"Ednra",8.62573121862865,9.24034991428322,9.08146093988777,8.54017576573249,8.41671411642466,8.33002456764675
"Egfr",9.80979821272307,10.0010927501243,9.52742154025703,9.39166288851582,9.31118039497347,9.72944558291131
"Egr1",11.0154304786185,11.9827499115212,11.5293108180519,11.7339157926604,11.5274112147621,11.6004428807291
"Cela1",-0.0883941320137491,-0.0869469592658657,-0.129924449685931,-0.171972279765391,-0.172015574095007,-0.129740022884075
"Eno1",15.0514325210002,14.4149730469798,14.4907297066418,14.5025251226449,14.5606523968314,14.7740618370863
"Eno2",9.71386632579201,10.2157436948145,9.58879547946592,8.47939043071273,9.05491425990954,9.14316187614845
"Epor",2.26569128762963,2.23902454627994,2.34149282909267,2.34801273931954,2.26662499731129,2.21818395617753
"Erbb2",9.6148249444582,9.68217098118895,9.61760676470824,9.64086465895938,9.61807620366085,9.66036162942545
"Ephb1",-0.550196902564843,-0.5496535969926,-0.598107628483259,-0.579260159820161,-0.579292670465169,-0.531094036438127
"Ces1c",-1.97165344256406,-1.96084887309651,-1.96905152882083,-1.97152031324185,-1.97159686073443,-1.9687582159976
"Ets1",10.1142732335417,9.84530267783259,9.94692006148732,9.92384865502417,9.84855654232173,9.91907049287279
"Fancc",6.74188284308932,6.21399022207959,6.4937455892527,6.6187165370983,6.47201240832673,6.52955541604427
"Fbp1",2.62344662443795,2.6512240355427,2.59992073470251,2.74635583492773,2.67425940467796,2.74772221509066
"Fgb",0,0,0,0,0,0
"Fgg",0.188359071757991,0.274246400403368,0.168001297050977,0.218215221649341,0.188399588383566,0.266608844046156
"Fh",10.6014900926686,9.89755432511124,10.1147262483884,9.95826198496434,9.98660931196105,10.1072316089642
"Foxg1",-1.96109239742887,-1.97149441658262,-1.96904229304321,-1.97146568874592,-1.97154082890923,-1.96875437279011
"Fst",11.8166724095466,11.3858741153656,11.8061937259281,11.6269167982211,11.7033206616398,11.4601982664585
"Fuca1",10.3812295389445,11.2034359863701,10.9337891931387,10.8934224430871,10.8871945542564,10.7488520681904
"G6pd",12.2009093203999,11.747737966017,12.0010047778262,11.7626573877902,11.7771811948282,11.7432381566915
"Ganc",7.1896002048634,7.7471987339102,7.54125598847093,7.55714999506172,7.54633711511299,7.47888703600322
"Gapdh",16.5297646046335,15.7324120890779,15.835415510551,15.8647419795033,15.8813750909098,16.1687313715112
"Gc",-0.616034376168736,-0.615495688078247,-0.606841736659899,-0.615342462593051,-0.644961021054995,-0.639075037287615
"Gfap",4.80705767960983,5.29310410831046,5.09041472151173,5.37416526760431,5.15822081658477,5.22585921454296
"Gfi1",0.259664141351271,0.25974080609583,0.301761176212573,0.259762618383586,0.259705762112667,0.217675487759104
"B4galt1",10.5995774289596,10.6044627336342,10.6531364428729,10.434841346533,10.379993024153,10.356300823767
"Gja1",14.3140446581401,14.2070615761994,13.8629097796988,13.7196649774637,13.7430591025004,14.129005377453
"Gls",11.4557394974629,11.1317850772324,11.4821479471778,11.7685102803071,11.7076672559805,11.5497031083136
"Glud1",12.351095278261,12.2453342293397,12.2887039723647,12.0877384963324,12.092281440569,12.0995207498864
"Gnb1",13.3006170193629,13.0095354587748,13.1036354977808,13.1982465498521,13.1987494808632,13.2499387566456
"Got1",9.71467983175299,9.57192915652442,9.49329496126482,9.36966491599309,9.47746137370372,9.57357267772229
"Gpx1",11.071900568606,10.6890645630264,10.7582156769514,10.8167659845855,10.9342050076588,10.997752384987
"Grik4",0.594440441832207,0.595034572327788,0.600376873500006,0.623914207197246,0.594763024669187,0.603699249513208
"Grik5",8.23185091946433,9.14774854108192,8.73303015252793,8.57751017037507,8.74816535217816,8.6196073390218
"Grin1",0.368591208380194,0.368675687608782,0.387230087965197,0.427093814482568,0.453683388181253,0.421791961361201
"Grin2a",-1.97165344256406,-1.96084887309651,-1.96905152882083,-1.97152031324185,-1.97159686073443,-1.9687582159976
"Grin2b",0,0,0,0,0,0
"Grin2c",1.84805826329483,1.8802420416972,1.76966888824699,1.9976688703622,1.93982794126507,2.06322967006266
"Grin2d",7.72367259092952,7.54708050134518,7.62520847228059,7.66186868757176,7.58348216442107,7.63284349985318
"Nr3c1",10.4582340087489,10.8693350528698,10.8323308252798,10.720395793537,10.6318221566532,10.5075626806246
"Grm1",0,0,0,0,0,0
"Grm2",0,0,0,0,0,0
"Grm4",-0.311721907504257,-0.311669339498717,-0.258063276333928,-0.253390106996573,-0.28240598252358,-0.321530391927636
"Gspt1",11.9873452560344,11.4041513695473,11.5752202727701,11.5788189109486,11.5375834751949,11.6787292330925
"Gstm1",8.5570750248575,8.65054855444492,8.91260364251388,8.84980577549264,8.8129857996286,8.52260393469795
"Gstm2",10.1696470777612,11.1994708069852,11.0251008276231,10.9586577040759,11.0426800590959,10.660126996336
"Gstp1",11.8229913705162,11.7011170523839,11.8281442064885,11.8828685061347,11.9141520774943,11.8324202967762
"Gusb",9.79275290036543,9.96660135650852,9.81904147730897,9.81725929849355,9.83865459328971,9.88859259701963
"H1f0",11.5983603917293,11.9719311123668,11.6138668953069,11.6197231575603,11.5762097505684,11.7692453108055
"Hist1h1t",0.261013136199688,0.369306762487783,0.288225469404613,0.261749358333108,0.261324344952807,0.288471331582081
"Hagh",7.31285777371739,7.19062529777342,7.35977119651202,7.29932935250003,7.36779967413015,7.22553485254847
"Hdc",3.34392762080633,4.77216889503365,3.92386206300287,3.69720917008004,3.82567713962436,3.89562934976932
"Hgf",3.4154012058864,3.73673424589006,3.41022045578728,3.17307262274705,3.19607722813411,3.35042219554153
"Hrh1",-1.96754109503237,-1.96742589884747,-1.96168821052579,-1.9673934396939,-1.96747833944204,-1.9732311759821
"Hmgcs2",0.373470245096259,0.542823973720188,0.438494443098344,0.434248745114699,0.404030513974347,0.438792295854403
"Hmox1",11.3335236568171,11.4672856072474,11.1148588221801,10.9481144493472,11.0384779075675,11.2788419883095
"Hoxb8",-0.0883941320137491,-0.0869469592658657,-0.129924449685931,-0.171972279765391,-0.172015574095007,-0.129740022884075
"Hoxc4",7.8714543552439,7.97103770539834,7.95294774928632,7.42248566414026,7.52868094435095,7.44388158528041
"Hoxc8",6.17212046149271,6.59243257176082,6.66680972415491,6.10228647278272,6.40899731315685,5.97110868544165
"Hp",6.95177468586802,10.0247108922068,8.80648979336309,7.7590023913541,7.79841288131943,7.46046063201106
"Hspa8",14.8880071182143,14.7825804524071,14.7956666652651,14.6543310905368,14.6803981561977,14.7069917434128
"Hspb1",11.733815966001,11.3961605272851,11.9941688229998,11.7708190995385,11.811257914096,11.3618579304605
"Hspa1a",4.31158143684202,4.06987743977238,4.07390547977499,4.07138137788147,4.20051681527045,4.25277305510817
"Ibsp",0.0328653813279605,0.0329319940084795,0.0146521994117236,0.0627831471151086,0.0623630331395053,0.0808195783838034
"Idh1",10.4329923283645,10.6708698556062,10.5532286320034,10.7302178242048,10.6622005673959,10.6949116557823
"Igf1",11.3878087892973,11.5331806273291,11.6550011179341,10.4391411374777,10.4223027815094,10.2362155498727
"Igf2",14.8809293985883,14.7207681945264,14.0650453968054,14.0500148956829,13.9511197956133,14.7363707454001
"Igfbp3",12.3839650051169,12.2938030791085,12.4794818715325,11.5227193887698,11.5645405117933,11.4030321208617
"Il1a",5.26940146358118,3.73369145129575,4.54019457422945,3.80075652455471,3.79707818057205,3.7602692357724
"Il1b",5.26098081029482,3.05872507885117,3.72622253836104,3.05983568247104,3.00254555588264,3.4648210253888
"Il6",7.34212645950967,7.04339556712575,7.30003691051307,6.44817213307026,6.39125001204276,6.31243517536116
"Il6r",7.20998559997726,7.12319449984367,6.98027088762924,6.44872204750655,6.48927735702031,6.65531886454466
"Il9r",-1.96754109503237,-1.96742589884747,-1.96168821052579,-1.9673934396939,-1.96747833944204,-1.9732311759821
"Ina",4.09775800071495,4.29132407132715,4.36517416833467,4.56588293261018,4.50460013297506,4.364608400479
"Inha",5.70367667535078,5.96811253108808,6.06028582575196,5.92763998717581,5.99614316083092,5.73750035147085
"Irf1",8.67394268843134,8.8440873569798,8.63373387128904,8.08242655769225,8.15279425525851,8.24289155789192
"Itgb1",14.9684825656359,14.6849467586195,14.8790384111729,15.0358525351288,15.0031127318819,14.9671588844602
"Ivd",9.70965369651929,10.0761736353824,10.0240398154409,9.78937103163443,9.86301604713051,9.6950673898924
"Jak2",10.0048465640991,9.91094229749047,10.0321250335597,9.76001954424097,9.74399762661186,9.67777798266146
"Jun",10.5007144943985,9.86561982406903,10.1741811751473,10.0106986799541,9.98677543957682,10.0077230438519
"Junb",11.7501982817732,11.4740213642546,11.8031769492858,11.2944480714667,11.2651295090635,11.0887216639932
"Jund",10.8551363627797,11.0664638235918,10.9171407422339,10.8764540905293,10.9559149707848,10.9598438816089
"Zfp354a",6.93743747500714,6.96197969618734,6.96792974186148,6.97120713914333,6.98682068840918,6.96079275751201
"Kras",10.252244540439,10.0733982235848,10.2328683115437,10.2009204205632,10.2156360334826,10.1382312974911
"Lcat",6.9254976945039,6.93825288753309,6.75024869181667,6.89009983598144,6.93243809614223,7.09289556526366
"Ldha",14.5081583710791,13.6378129233682,13.7878514226441,13.6753418063304,13.7513213076836,13.9984657815865
"Ldhb",7.43988858374487,7.79828489280114,7.56658768897037,7.36754997824541,7.55684907292508,7.51469857488788
"Lepr",3.94665281003896,4.47259174901954,4.36357746177872,4.43620934150402,4.30064916920839,4.21447407310674
"Lpl",8.06992175291116,9.01255521684066,7.9509754064892,6.84749348564029,6.81579153731897,7.42190558986634
"Slco2a1",11.5343617332614,11.1985021872205,11.6564315903333,11.433030690023,11.4323689809902,11.1427002054143
"Mbp",2.92799929215506,2.90966149590534,2.84707974850969,2.78758430688242,2.83674882263362,2.88391721027854
"Mdh1",11.1905744364547,10.9844908329609,10.9593391284821,11.0273267800577,11.0846649702898,11.1841893813994
"Me1",11.0568810769544,10.8736838260062,10.9648759020661,11.0322100522287,11.0501304577374,11.0415768043973
"Met",9.08395604748135,8.77732261625541,8.89550688587378,8.99764963167305,8.90486314744025,8.98638883555125
"Mog",2.79791676275662,2.9781712064714,3.03151095829821,3.2708125488784,3.08292046176611,3.03339953163805
"Mos",0.440857921490556,0.441442656319403,0.439624444768607,0.441608974194229,0.441175402717844,0.442918032592409
"Cd200",8.27833635019054,8.70859367774274,8.81062229029717,8.65249045605582,8.65643438455093,8.33730514397285
"Mpg",6.79116605038076,6.80560536315346,6.85803203394613,6.65307587913943,6.8138501810579,6.67381670291965
"Mpz",1.68373192837502,1.54725385199117,1.55060571629331,1.57703600559678,1.57653076802573,1.64167056070104
"Abcc1",9.42689006415067,9.61199926185421,9.59918815283392,9.73249216207671,9.63975845567558,9.60638181904467
"Mst1",-1.47912412269024,-1.49928687355319,-1.48944370729688,-1.47887081578968,-1.49937683687326,-1.4888856171563
"Mt1",10.092670859208,10.6830526285428,10.5396408331692,9.53945316263308,9.66002112223644,9.44795805314093
"Muc1",4.35630730300043,4.26995627004797,4.26956296330265,4.24656305538624,4.49980195687009,4.41675132934972
"Muc2",-1.97166970264023,-1.97156529502592,-1.96905415639174,-1.96077910432436,-1.97161282435493,-1.96875930678098
"Mx1",1.38135621659029,1.5651501676172,1.42303408320921,1.35302368751868,1.46462814511181,1.45904502520978
"Myc",11.3517376733301,11.2051951360762,11.2519528879682,11.3124354349818,11.3665389304653,11.3660006994585
"Myh11",7.79597458387895,8.3613269504606,9.16114148775232,9.21694498885068,9.14930305090113,8.10063329929337
"Myh3",2.29571016003218,2.49634349415989,2.40158216751682,2.32505805313263,2.2963892806886,2.30516832648983
"Mylpf",1.89926570573379,2.00606053795925,1.95125085815663,1.9285824038572,1.92737743936647,1.92939218530172
"Myl3",-0.528714730988677,-0.498968510220285,-0.538537357329035,-0.528656567282607,-0.528690148796688,-0.503977621315093
"Ncam1",11.83353762294,11.5184418649809,11.7297677636181,12.4123465706411,12.4223100574137,12.3635502943698
"Nefh",8.49951316223181,7.29416551797999,7.89193590836186,7.4299337612651,7.50467647504913,7.47220854990115
"Nefm",0.553218543496617,0.390855740503876,0.432816312626666,0.359748823980974,0.359678274478015,0.398934378603075
"Mme",9.90144577943484,11.0860153755093,10.3652796216107,10.0977982096425,10.0656568549433,10.2101784881542
"Neu1",8.49787471437346,8.96159351718734,9.06238660103646,8.64638240029834,8.69546205939155,8.33826974458889
"Nf1",8.70167116497728,9.19632276547953,8.89991328038723,9.10988457642743,8.86083196782744,9.03444195696862
"Ngfr",2.76718464591956,2.25042162336262,2.35121047549454,2.2170379053372,2.24999423859525,2.39110873111278
"Nos1",-1.96748674635044,-1.96736539632651,-1.97382348971288,-1.96733120318839,-1.96742063832443,-1.960978502382
"Nos2",2.74138742460021,2.33516487872152,2.78749157658715,2.33530302694412,2.33494280194805,2.0859074895198
"Nos3",1.12529674400538,1.1254350203032,1.17199652245749,1.18413273871178,1.15482058803281,1.12284602306909
"Nppa",-0.547969548360415,-0.54792500534248,-0.525773437684323,-0.547912331785151,-0.518522246643735,-0.555391128381568
"Npr1",4.0774637812358,3.8466102717505,3.88281187692606,3.92588381675106,3.97093878979781,4.02763645284152
"Npy",4.54923607376503,3.67985422228076,4.24746701628416,3.76998200339689,3.84750969277118,3.67582397982277
"Nras",11.4968188999437,11.0429608382447,11.1534034750883,11.1874861198752,11.1429601960913,11.2817095519892
"Odc1",11.8246308970011,11.8977923176444,11.6835129418156,11.9615937364879,11.9793310186549,12.1481610430785
"Odf1",-0.618729589267096,-0.647631621195741,-0.609595373715449,-0.618037904153208,-0.618437209009379,-0.641822788097264
"Gnal",0.0124984915557658,0.0421982350732563,0.0572399470168245,0.0423588358081367,0.0125340327109475,-0.00244514944277132
"Omp",-1.97166970264023,-1.97156529502592,-1.96905415639174,-1.96077910432436,-1.97161282435493,-1.96875930678098
"Oprd1",-1.02647366080933,-1.02595675115386,-1.03372513158324,-1.05467437367527,-1.0261930132039,-1.03292376783794
"Orm1",5.39984743031742,5.9009865280157,6.87532808839674,5.84165017127452,6.02749005911585,4.709659005965
"S100a4",13.7355681417129,12.9850918775817,13.4185396718805,13.0616253855529,13.1474974227831,13.0463517419348
"Serpine1",16.5820472679154,15.6438716187449,16.4273900769088,16.1789092207285,16.1304885188087,15.84026823619
"Pccb",9.69382425993363,9.79570651594819,9.74345058317907,9.78073193808329,9.87441999591355,9.82889077176026
"Pde4b",9.34416466906473,8.8614120182396,9.38506949473025,8.89301315635751,8.77168072971403,8.55006579195768
"Pde4d",9.07243710940898,8.93251970535719,9.05525732535964,9.0048903504932,8.92824011305933,8.91378631379972
"Pdgfb",3.52078585286645,3.21751758621126,3.02109488080721,3.32274922043881,3.3838274558888,3.70134517689545
"Pdgfrb",12.4106381459795,13.0058850664194,13.0365813177933,12.755192535611,12.7840854098759,12.4413192611495
"Rhox5",-0.324056705862369,-0.294513523915795,-0.311848141552465,-0.265773193719763,-0.294764799099383,-0.27770596974619
"Pfkfb1",6.11817971055651,5.75489429946364,5.88063562733504,5.77175757910624,6.03350992352407,5.95853512899019
"Pfkfb2",8.0751695494982,8.71583231932367,8.5389644689925,8.57230009337204,8.51453586700931,8.39995444560912
"Pgam1",13.9680301239813,13.3811665349902,13.3846309873745,13.3467344930973,13.4316335672749,13.6791513722973
"Pgk1",13.7152998070095,12.9742610680184,12.988724251413,12.9443712539454,13.0048755758383,13.3306796009928
"Pgm1",10.4508104587768,10.1034201204014,10.1128849581643,10.0954105263535,10.12674381432,10.2753075017615
"Abcb1b",9.87982008856482,11.4362321953825,11.3513168837558,11.4196824596777,11.4016223551178,10.7173616656156
"Serpina1",3.3051046734252,3.47906494273141,4.06329366495741,3.20872705125898,3.20765170197192,2.53698051973635
"Pim1",7.11159440434426,6.85428380000702,6.70180781970419,6.55783260440832,6.54909444712218,6.83459480823671
"Pkd1",11.679130764931,11.7095755624069,11.7194924705476,11.8323429029134,11.7892452854098,11.7856547872829
"Pla2g4a",9.51783023047802,9.6331241838041,9.49561543383502,9.44440327015538,9.37343987796872,9.48878334736809
"Plcb1",6.38269832438933,6.5435947699725,6.1678721702205,6.68427377056301,6.50286703535192,6.88884477991788
"Plcd1",10.8728316213329,10.7552155028526,10.6505344661524,10.7501919837732,10.7699971991251,10.9235836873895
"Prl6a1",0.35643507579043,0.411460708904253,0.373397112520885,0.299561061576536,0.299501213962892,0.310081917596171
"Pmp22",12.226815872756,11.8257046556032,11.9382960395795,12.0447103959755,12.0372082088609,12.1289235270183
"Pnmt",0.0229519442585513,0.0235162393186016,-0.0333947690426527,-0.00609963959608187,0.023258327185018,0.0652082046256973
"Pomc",3.29708986911256,3.2169007176523,3.34414859692171,3.26212866944608,3.23698645000219,3.16240425618485
"Ppm1a",10.0378374580645,10.076477338997,10.0070674326138,10.0221885806837,10.0083992459956,10.0653838792566
"Ppm1b",9.70605083642691,9.916076764833,9.87610589354571,9.90924604850258,9.83130326856257,9.80523256561682
"Ppp1ca",12.8101627603737,12.3378661903124,12.4031296051134,12.4116445678254,12.4435429241558,12.5984786162202
"Ppp1cc",12.1162049520759,11.8407257603367,11.738245473793,11.7321408151496,11.7743398409898,11.993460210483
"Ppp2ca",11.6894946537399,11.5754460096651,11.5182385973808,11.5454173073722,11.5246553022658,11.6492680391408
"Ppp2cb",11.3736013744396,11.1631725153075,11.177999202242,11.2436410520824,11.2328359663414,11.3286262518435
"Ppp3ca",9.93887747069546,10.1616695936037,10.1125977566079,10.2207625213651,10.1825701655902,10.1393421190193
"Ppp3cb",9.9724211069569,9.92025106350201,9.85051451986951,9.90161470518038,9.81927358102086,9.95626570846057
"Pkib",-1.45909351897128,-1.49915473213435,-1.48942376516156,-1.49909968227218,-1.49924366998967,-1.48887203652218
"Prkar2b",8.5641730161943,8.52406735200067,8.7334082326571,8.64034951164494,8.57806598820872,8.41991970136722
"Prkca",10.2944184718569,10.0179579666726,9.9352175153045,10.0637172045796,9.9992590306273,10.2524588215637
"Prkcg",4.13827766838844,4.19343321835496,4.26391406346499,4.26649785770424,4.19130693666134,4.1308437770895
"Prlr",-0.527148962447031,-0.527103623235163,-0.536937008604594,-0.497244386755642,-0.527124348327183,-0.502373651777916
"Prnp",12.1536779461182,12.5576923431594,12.4169273658052,12.597006969445,12.6523667897302,12.5634446584212
"Prph",3.02470948352473,2.96760188264389,2.8103108656722,2.71776152145777,2.89809283688775,2.99377199658488
"Prps2",9.18162129065587,9.15106706105036,9.17305323763505,9.30453884296175,9.32557645512548,9.30834858726169
"Ptgs1",10.8805849610065,9.43283054782047,10.5471847791254,9.63435818550592,9.68628897249052,9.26984655428632
"Pthlh",-0.588378934620335,-0.615809647280897,-0.640745484914357,-0.645279687134,-0.645310707002176,-0.606644003104347
"Ptpn1",10.221762402113,9.98240748253089,9.92200746884413,9.84371799678918,9.7849850922806,9.99442901801272
"Ptprc",2.20704395062271,1.54706012934326,1.71058617260941,1.54715509786493,1.54690746805473,1.71349715033341
"Pygm",3.89065988899179,4.21156586860304,4.11126057601842,4.40555325222276,4.27642801629295,4.28084293703685
"Raf1",11.3438946330079,11.2655981715771,11.3176325523125,11.3745092326484,11.3829175953607,11.3658272639844
"Rara",10.5189701174518,10.4647689815164,10.231680113494,10.3301445129458,10.4149277169257,10.6327255509259
"Rarb",4.79134785311717,5.04321783995584,4.82892270869976,4.92617108215916,5.15428382677806,5.12858759230535
"Rb1",8.15867372938062,8.34112697419141,8.50777836088886,8.45536842435096,8.42092400957267,8.18026820785897
"Rbp2",1.15220345267574,1.23812670716205,1.19892651783808,1.26540660095264,1.20997607135501,1.23392989823463
"Ret",4.9261803563651,6.58227078094981,5.52452120863025,5.13112877035346,5.06339564727228,5.32696656884008
"Rho",0.711180219987746,0.711288383837597,0.804895840113187,0.874528230087895,0.796087662604824,0.741646408145844
"Reln",5.16670163797177,4.33236327441519,4.86491411516877,4.75734251254774,4.60178959648045,4.5641843955388
"RT1-M3-1",7.18012734694699,7.96699365152931,7.75501728738584,7.36375458972464,7.46187498802522,7.23135800072724
"RT1-N3",8.834592460328,8.18327569992514,8.48228124075946,7.94276798076743,8.02352964337681,8.00980165143924
"RT1-O1",-0.0945715535294449,-0.0366555056652175,-0.0422331982819503,-0.064909599721607,-0.0371222928990309,-0.0743962776256998
"Acsm3",-0.405225049169283,-0.322682158689327,-0.39908274121566,-0.43404045858385,-0.434076470513112,-0.398929327262127
"Scg2",-0.0970953722909684,-0.0687388159460281,-0.111164578924601,-0.153775629506984,-0.124674731099158,-0.110977695496969
"Scn2a",5.82173374016868,6.14812095189326,5.99248141538581,6.19566143400363,5.98035488418246,6.0804540897382
"Sct",0.967579168984558,0.967723546017517,0.879582910362031,0.967764612911105,1.05923873831065,1.10157012274989
"Ccl2",12.6345746831796,12.1103434983256,12.8774919688636,10.5175117748726,10.4742040320244,9.99082502533749
"Sdc4",12.5969973658972,12.7048349114703,12.5148042278203,12.281532184016,12.3014488137969,12.4276024097699
"Cxcl12",13.01148070976,13.9474016317864,14.2175861439316,13.3623696307761,13.3479968480439,12.6170382662516
"Shbg",3.05745429483327,3.10598204942426,3.06048406571833,3.06254970930323,3.03654904278288,3.07078348245349
"Slc2a1",11.4295336691694,11.0208891751323,11.0476190757213,10.8542930853125,10.8703101380475,11.0398939581095
"Slc4a2",11.5209897421131,11.3710417227848,11.4760051762049,11.4218783690012,11.4686038522678,11.4152516668786
"Slc4a3",8.324667972467,8.75396061416722,8.47741309661946,8.76897402248281,8.68329944754126,8.78803793170968
"Slc9a1",10.3231643084582,10.279970946177,10.2924650312212,10.1742734402903,10.2285977968735,10.2105382146783
"Slc9a3",1.10725613292584,1.14129905975654,1.27873639852415,1.1074813659533,1.10735135173586,0.952957556661625
"Slc9a4",0.0205730266904875,0.0206473864084902,-0.055402723866628,0.0524024559054211,0.0206133985670779,0.112520857652366
"Sod1",10.8607665148043,10.4231660878884,10.6594910068503,10.8301965951458,10.8433309562262,10.819239070182
"Sod2",11.8496811195346,12.7650470510311,12.6803595340245,11.982708449123,11.9659949819961,11.6013562668179
"Sord",10.0821916911986,10.1314022082857,10.087731746587,9.68679110155496,9.75034077835791,9.73763114311158
"Sp1",10.4112135029837,10.6769273647681,10.4705665857811,10.5647603213576,10.4392468982737,10.5755074579104
"Sparc",16.6294932035938,17.1433730139383,16.9264790976665,17.1872300265629,17.2449347324337,17.1760363905979
"Serpina3n",6.2238295584423,7.93693217269664,7.37840691677376,5.44235400969187,5.33200676606457,5.08915433667393
"Spn",5.95950695833814,5.59371979830859,5.98393905328437,6.170376149485,6.17610455876731,5.96591467916515
"Eef1a2",2.96345277597766,2.8279407493682,2.90295683191789,3.04106302635109,3.10528580535703,3.0659143466091
"Sts",7.04224050543244,8.45315417830138,8.33172548281683,8.16550319969823,8.21451746102315,7.60598218941077
"Vamp2",10.1962985925627,10.6429900804349,10.5538036465213,10.5479911790545,10.6104062973934,10.4450394282015
"Syp",0.612636520297443,0.585126419716708,0.58997906101817,0.555580476532224,0.613211477369915,0.593298385939975
"Syt2",0,0,0,0,0,0
"Tac1",-1.00663756800716,-1.03537320111053,-1.00623466647738,-1.03536427693348,-1.00635209122919,-1.0356289021628
"Tacr1",2.82789431721751,3.36523015170264,3.23870641244565,2.94593207142532,2.96994659048786,2.81579515297101
"Tacr3",-0.22224055432932,-0.251358536890803,-0.286055870758307,-0.251342909278341,-0.221939260937785,-0.187384759959818
"Tap1",9.12924653611594,9.19164121420709,9.5002869334085,8.66797239745805,8.77696174150486,8.38262401123447
"Tap2",8.57473585447928,8.63643045738041,8.92253942746255,7.82849882765054,7.8117307833596,7.50315853397236
"Tbxa2r",6.30997837154805,7.07919107157117,7.0471026635605,6.82871530498463,6.80345542375853,6.46356742237069
"Hnf1a",-1.47021298245228,-1.49196323342232,-1.4978176470436,-1.49190316454063,-1.49206027994156,-1.47525218313479
"Tcp1",12.6513082269555,11.9363042054282,12.1103919136681,12.1476177857481,12.1131447231105,12.313795556953
"Tmbim6",12.7131129858064,12.8262588631073,12.8416721258228,12.7838429347797,12.7963293026517,12.7180999173497
"Tf",1.81814264366743,1.63984904560711,1.71072875044539,1.66872256055727,1.66786468173788,1.68656071533946
"Tg",4.14658554245596,4.62747220062333,4.57966447607744,4.82435463135866,4.72523833212004,4.58216087720156
"Tgfa",8.29195275345926,7.79786491945678,8.42617221366703,8.47168274194905,8.43549533067067,8.07232565910086
"Thrb",7.67479213071304,8.46480021269973,8.16323437978716,8.72438180731208,8.6249475059473,8.58122644854891
"Thy1",13.0515127965481,12.5679050639676,13.0026249909632,12.9989642414191,13.0561265108411,12.8346293154248
"Tk1",12.411537608153,11.1398779622033,11.4277289843366,11.3241309632819,11.3689701484505,11.6945293567077
"Tnf",-0.621381686080378,-0.56331684883193,-0.575077957150739,-0.62132728116347,-0.621358692702587,-0.638614297238445
"Tnnt2",3.93273471581796,3.98230645319733,3.74606731173728,4.40846206609735,4.46242689896529,4.64689775530169
"Tnnt3",5.04734517105198,5.39374811377843,5.15118332377617,5.29279915522433,5.27309692288028,5.35231135769134
"Tp53",12.2240830757901,12.2033603172067,12.4264473858926,12.2287485426663,12.3284798072565,12.0658884855671
"Tph1",-0.505043851925168,-0.53418895327876,-0.544178259675694,-0.534176128548547,-0.534209557381483,-0.509630985891285
"Tpi1",13.5481060190833,12.6028987361348,12.7914881132255,12.6445857471811,12.682364662986,12.9474894694671
"Tpm1",14.4891293947067,13.9642892855629,14.2834159987677,14.5376625694307,14.521362838913,14.4728060455389
"Tpm4",13.8197997109037,13.0560020765704,13.4179718631441,13.3799513279199,13.3405166414539,13.3801630152799
"Clu",10.8045256579171,12.4977219109227,11.855537457164,10.8062583111341,10.9606803124944,10.6790556390701
"Tsc2",10.54524833156,10.7185167460229,10.6244199600048,10.6194238325071,10.633227709117,10.6337883495987
"Ugt1a1",-0.621381686080378,-0.56331684883193,-0.575077957150739,-0.62132728116347,-0.621358692702587,-0.638614297238445
"Vdr",8.42509805368459,8.11548197276113,8.30804598459058,9.0275239234048,9.03413376679771,8.99307287373354
"Vhl",9.68978244190444,9.9881551687513,9.86673622847614,10.0003309028722,10.0990481176002,10.021922087088
"Vipr1",-1.49219607150062,-1.49198195418481,-1.49786205457283,-1.49192162174549,-1.47001962703462,-1.47519758265994
"Vsnl1",5.40280628300208,5.40972290018165,5.48420904106215,5.87739509556479,5.90514980266807,5.81332799964615
"Wt1",4.34638977838856,4.16398261459712,3.76726888727395,4.05255535174496,4.13507709136362,4.58173353077318
"Yes1",9.7280111084481,9.72487132069548,9.77215512707946,9.97678989673733,9.82871152281497,9.85703679726848
"Tbxas1",2.39215502646697,1.96046302429855,2.05649808628337,1.8307297660496,1.89740770933493,1.98387967679166
"Bax",9.89420726447486,10.0205713327076,9.87861505996888,10.045909180042,10.0944049557704,10.1489313065286
"Bcl2l1",10.8195535984416,10.8327934724209,10.7484542570996,10.7815459180558,10.8174557945021,10.8772201346106
"Esr1",1.98541296673246,2.0628540061783,1.99459061909119,2.01408063237281,1.98652313444164,2.02984475077141
"Abcb4",2.4069890547821,2.22464924104552,2.30199737553556,2.22536852425183,2.16969439463036,2.21135323181935
"Gnas",13.0513920276186,12.8989362022531,12.9095394965517,12.9745761909473,13.0454711758411,13.0756483017783
"Kng2",-0.262064377898558,-0.261512833655353,-0.229628556802893,-0.291064382517954,-0.291103760090382,-0.32324412027823
"Dmd",7.64313673685923,7.81273086019498,8.02054045415569,8.726980056709,8.60891292279439,8.37533983412311
"Dnajb9",8.82046102584906,8.92271166346056,8.96493689640198,9.05740048627382,8.99242344420739,8.93156141349344
"Pla2g16",5.63519446537095,6.3832759781765,6.19229566723351,6.07931397981254,6.03462600051718,5.87390954470508
"Lox",15.2969320525491,15.1769317179298,15.346323662744,15.4818346636413,15.4510248012309,15.3570379549315
"Pdlim4",9.5580955039584,9.7512471770879,9.64045541922848,9.71778647322197,9.7950757003257,9.7706470080685
"Rnf112",2.38993595295737,3.22961593867565,2.62455092448407,2.49138569005292,2.39118162318753,2.62650867795266
"Kpnb1",13.0551427155061,12.4587719257694,12.5269911854598,12.5220354458238,12.5047395598834,12.7433536380315
"Stat5a",8.79357509269267,9.15320715009488,9.01634119425639,8.80646366443066,8.89726451207258,8.80891401538901
"Yy1",9.80531324582494,9.6374658424663,9.72605279091839,9.68825223273758,9.70891399482546,9.69391986700876
"Gabrb3",-0.969616044810612,-0.998974679777561,-0.96078991998658,-0.998965198333875,-0.998989912696884,-1.02248299782289
"Stx1b",5.14882103459092,5.57995132393654,5.13272921953084,5.35507308611661,5.30657232343145,5.56247966450693
"Ptn",8.20772868211295,9.23759760310861,8.20593549897005,7.5852387342657,7.41281590266955,8.01575496210835
"Adrb1",-1.96754109503237,-1.96742589884747,-1.96168821052579,-1.9673934396939,-1.96747833944204,-1.9732311759821
"Ptger3",3.0824169966759,3.44004788122944,3.17156194578012,2.88386906931024,2.91021584854271,2.98671295209903
"Cd8a",1.06374246069125,1.14696589790692,1.14187454328349,1.1733273987044,1.11966374020076,1.10997520546818
"Cd4",2.6118841796134,1.87764303096524,2.06037254298529,1.83923656216844,1.83891874065005,2.02346871371328
"Cd9",10.5850825230757,9.80014924958561,10.1289314473002,9.91887246418163,9.96227220951801,10.0042567758802
"Grpr",2.59038287885676,2.71836379125022,2.74315861616505,2.69546680974875,2.7167316686395,2.61731395808256
"Atp7a",9.31797904299935,9.67116576711873,9.60566167828047,9.82105747074023,9.63890147860937,9.61889020145337
"Chm",8.23355780172878,8.57700326108296,8.533104099318,8.59801490464164,8.47961001732121,8.4109888930693
"Plp1",5.29326123935633,6.00480021486854,5.47362263116239,5.30429384657998,5.45262063877212,5.55386533862609
"Lamp2",11.9951098962666,12.6333699395959,12.4065395188006,12.3559460415066,12.3739188450821,12.272632842425
"Gabra3",-1.97166970264023,-1.97156529502592,-1.96905415639174,-1.96077910432436,-1.97161282435493,-1.96875930678098
"Fmr1",9.99834610466147,9.90508622200237,9.89326887692382,9.92435158263751,9.81138243305924,9.92631429425648
"Syn1",5.72742960324711,5.66826270126449,5.81244952666466,5.78695801968259,5.73228368416743,5.64501747751615
"Srd5a1",6.92134782230602,6.33184936449301,6.66570145827106,6.48696723291796,6.38805741095637,6.39840945706562
"Gcgr",-0.673775196705079,-0.788602339638477,-0.759963166077908,-0.788590469212916,-0.788621411690998,-0.759831542545827
"Insr",8.18228154177314,8.85559026014142,8.32449023859037,8.40043236528627,8.37126464484179,8.58029416743094
"Glul",11.2987559302752,11.3210178991542,11.331119644053,10.6951780741706,10.7111378917051,10.6819252535996
"Pgam2",0.870470309580633,0.870590960297311,0.883441433913381,1.03433567178019,0.955598662876796,0.982056368354083
"Cth",8.69625827366476,8.683588958831,8.48272895601368,8.30952171541711,8.47409850007147,8.59900476797849
"Hspa1l",2.85691754072446,2.81383732481379,2.82352957719928,2.81477038249001,2.88143195253084,2.85994902308027
"Psmb9",7.30070059767422,7.24920038401698,7.35033925722319,6.62834588133885,6.63741769611911,6.55749302235139
"Psmb8",6.05676439395937,6.25794451196531,6.43243267000161,6.48222659932036,6.44010574193339,6.1860879535876
"RT1-A1",10.3509143039517,10.735189442675,10.7593408809231,11.032618808172,11.1426894293726,10.8713651111625
"RT1-A2",10.3527109993132,10.7139201989941,10.7112572113334,10.1962016447524,10.2320667089991,10.036192564696
"RT1-S2",-1.97166970264023,-1.97156529502592,-1.96905415639174,-1.96077910432436,-1.97161282435493,-1.96875930678098
"Tacr2",0,0,0,0,0,0
"Lta",0,0,0,0,0,0
"Vars",12.3546308675907,11.9835461136684,11.9673114137286,12.1054846139182,12.2052480238594,12.3571433957898
"Scgb2a1",-1.96754109503237,-1.96742589884747,-1.96168821052579,-1.9673934396939,-1.96747833944204,-1.9732311759821
"Snap25",-0.374416907339793,-0.318206378075664,-0.367480790268371,-0.373716483858333,-0.403269671163559,-0.367323929950304
"Acat1",9.82645270933626,9.87755903935903,9.79191957025776,10.0100187069731,9.99613357490714,10.06316244503
"Myo5a",9.86268511856825,9.46215182909512,9.47398331481753,9.71483309390514,9.53416013763892,9.81293177478619
"Xrcc6",9.29962522414918,9.17879705472634,9.22756903920194,9.18878354517601,9.14249546294923,9.17728160429843
"Itgam",3.65825673972711,2.21241758791464,2.62043284457261,2.212694994416,2.21197126506613,2.52723744898933
"Fgfr2",11.8746952335887,11.7076394242119,11.9657363320893,12.5250124007323,12.5016386435329,12.3387565189436
"Prkcb",0.410151199645923,0.304450596602537,0.347785010277446,0.275014701853552,0.274955961941611,0.284501219744366
"Gipr",0.0436178258313094,0.0436859370640822,0.0927116023417537,0.155789903401086,0.128183058508171,0.0929267600605705
"Adm",8.72654281711407,9.5309747494615,9.24471934726386,7.98803348652572,8.02256529035349,7.88933882446352
"Slc16a1",10.2738589505709,10.3848603451384,9.97518660653353,9.68708796489438,9.82131715823199,10.1083756028843
"Ampd1",0.404058240776143,0.405103720428768,0.357090182714205,0.376760601994901,0.376330021872246,0.424036109821824
"Calcrl",5.61323680615546,5.61309962104984,5.54263325161742,5.02543037826371,4.90647916963551,5.03648973593484
"Plcb4",8.29728184020544,8.7858619626655,8.84178330537545,8.97125953153526,8.89066996875703,8.63075334620617
"Cyb5r3",12.193879327865,12.2418729904944,12.2337267604098,12.249411642538,12.308562191953,12.2631363160154
"Mobp",-0.590356536858085,-0.590313038721129,-0.609396257069265,-0.590300662422798,-0.532584147296115,-0.542380935579798
"Gip",2.14563692559436,2.07395410933242,2.13837688046994,2.0746682765493,2.1939722840472,2.10573891729169
"P2rx6",2.03497876468092,2.08928452177654,2.13221300602729,2.18629763919632,2.16079747061798,2.1034661921086
"Eln",13.2393706025642,15.0474087244056,13.5732687810186,15.4225535017242,15.4117217557624,15.9872585112096
"Dbi",10.5818831556731,10.0486986294231,10.1038831298688,10.3189990528905,10.3320337529387,10.5369241655939
"Atxn1",6.97756346204117,7.59746741440767,7.30894979670103,7.87354231978606,7.53197621303632,7.68132490793458
"Camk4",3.80928638786631,3.77555189757154,4.08851054991912,3.94310146622687,3.99845513771201,3.67468689476925
"Cyp2d2",-0.597031282147496,-0.596491162772302,-0.62102708978287,-0.59633753087883,-0.626007609968973,-0.586906703100931
"Ntrk2",6.62684430144138,6.45692509492196,6.37771089725325,6.22147593601843,6.10589471857083,6.32785912822306
"Lipa",10.8082455551659,11.0503546616938,11.005857431029,10.8396334835447,10.8360377847429,10.7612783115447
"Rbp1",3.7379698989231,4.25739595796433,4.46022089717751,4.32310247513776,4.30116921614063,3.8495978769054
"Hk1",11.519416541038,11.3875377604429,11.429236094785,11.4238028471714,11.450272630016,11.4612787945491
"Hk2",9.92982340116728,9.62879889103387,9.45670932956479,9.28911395443726,9.33138953997984,9.63285356374434
"Hk3",2.94112038866535,1.99881012061874,2.21482321997819,1.91482969157414,1.91438956088879,2.16975166089532
"Crabp1",6.96801196482107,6.27781053893048,6.51739256625174,5.37105692704911,5.4072691082541,5.49468170327563
"Gpd2",8.91114541827797,8.6996292508578,8.71765159229061,8.73058614909877,8.63272406983906,8.76939085174619
"Slc12a1",-1.97166970264023,-1.97156529502592,-1.96905415639174,-1.96077910432436,-1.97161282435493,-1.96875930678098
"PVR",11.6551213982059,10.5564969750998,10.7739269600112,10.7266217843304,10.691572603368,11.0409794204909
"Tnfrsf8",-1.49955910316149,-1.45838180347224,-1.48945477658508,-1.4993041933373,-1.49945076291004,-1.48889315485546
"Scarb1",10.7572834583029,10.3522794310091,10.3530434757587,10.607189798003,10.6819786255391,10.8463221806684
"Htr1b",4.01214311624497,4.01362788634587,3.83893806177788,4.48290519551435,4.34771399094519,4.58925703274731
"Apoa4",0,0,0,0,0,0
"Apoa1",1.3605795461491,1.33179866513715,1.24678095995492,1.33199449988031,1.33148394254011,1.43114736689842
"Adra2a",6.9265252660026,6.35722996990304,5.99651800805944,4.81112016086549,4.77823899607708,5.44003918836466
"Il4r",9.333052308764,9.1177233646604,9.1446108941962,8.89194757765139,8.92253857223434,8.98802001745886
"Th",-1.97166970264023,-1.97156529502592,-1.96905415639174,-1.96077910432436,-1.97161282435493,-1.96875930678098
"Cyp2e1",-1.49955910316149,-1.45838180347224,-1.48945477658508,-1.4993041933373,-1.49945076291004,-1.48889315485546
"Mitf",7.85050416681221,7.7866002918652,7.68434199987026,7.28838165723886,7.22202182950798,7.38941197284186
"Ampd3",4.70426563606098,4.97561725664948,5.20297139569268,4.66368305723762,4.60822159148765,4.27292237502519
"Pld1",9.44761328303834,9.18061804414604,9.54981023144971,8.91980706024431,8.90154445613835,8.67498119033382
"Pld2",9.15998827903811,9.07657457813868,9.06403349811842,8.96338178064962,8.88489906416433,8.97838835287695
"Foxa1",-1.49946354273442,-1.49926627163646,-1.48944059836448,-1.49921068600341,-1.45870769644511,-1.48888350004522
"Foxa2",4.6141096770907,4.56308603368977,4.12470709749845,4.71982467981055,4.56175055335719,5.10467837447566
"Foxa3",1.24311884727596,1.21560234123479,1.28513352882615,1.24454298563364,1.21530855592769,1.17415283620988
"Chrna5",-0.22224055432932,-0.251358536890803,-0.286055870758307,-0.251342909278341,-0.221939260937785,-0.187384759959818
"Chrnb4",0.275328483492353,0.275406595404223,0.250129228126525,0.275428819444536,0.304897513377633,0.315401477732847
"Pc",9.43415505426887,9.59288727920382,9.58118465720962,9.27760294255348,9.34512964484052,9.24370280322373
"Nppb",-1.96748674635044,-1.96736539632651,-1.97382348971288,-1.96733120318839,-1.96742063832443,-1.960978502382
"Rgn",1.88929808462601,2.1379622278911,2.05586930307981,2.02454798309534,2.04666142722114,1.99336555833698
"Avpr1a",10.7803495283133,11.1397355764912,11.3840197342535,11.147146202618,11.1148220812179,10.7070069600667
"Cd1d1",5.90163570651951,6.71607655237671,6.51464080849956,6.26504309702166,6.24835928884656,6.05091651388266
"Chrm4",2.26454807502995,2.26539197889474,2.28171762889323,2.45570291280432,2.49984030923371,2.46102400908813
"Gadd45a",9.34102167581837,10.1478481672014,9.50835389894261,9.2357955692199,9.27269224449384,9.49032492942415
"Ddn",2.05472108429758,2.10792541141863,2.0663520825233,2.05735579852722,2.00177266937609,2.04453539928647
"Fgfr4",3.49535578727199,3.3524956461573,3.05748142813051,3.65356964112939,3.49702928328587,3.94174375079177
"Hsd11b1",9.49987740127461,9.63136949970689,10.2156554782462,8.89235941441024,8.95592251737951,8.27410893813939
"Hsd11b2",2.96137134765651,3.0892286928422,3.08347430970823,3.041657581283,3.08755892739281,3.00643396487904
"Itga1",9.36061892079916,9.8888017332436,9.94586642067328,10.545661004346,10.3280125602307,10.1156806886365
"Mr1",4.44772119207689,5.70141015180881,5.3201639328663,5.32923379262305,5.30214819275762,5.07009273176689
"Aanat",0.612685923597733,0.61278692302594,0.63526576760854,0.725493417949106,0.724084909517226,0.702259819436463
"Pcsk2",3.81368204151071,5.0055296879464,4.53614977905825,4.16320893932039,4.07250710931479,3.9913141099879
"Scnn1a",5.33465596531959,5.76260693265858,5.6210652133976,5.37444615634913,5.38131172864302,5.30544517808756
"Tagln",15.9703801457155,15.2772841722782,15.860343879164,16.2725196956842,16.2768010902234,16.0381486727866
"Stat1",10.9869307395894,10.7575943559739,10.864663615334,11.0425879494065,10.96666415724,11.0122249857709
"Stat3",12.3986993959585,12.2831674061852,12.3191954594988,12.1505034107316,12.1279553338629,12.1609673138703
"Stat5b",9.18569033275236,9.17521821111288,9.20553106969031,9.10761944558339,9.11553125767573,9.08649855387187
"Egr4",-0.649820056894544,-0.620315952057597,-0.611761684013835,-0.591615701794383,-0.649797442326209,-0.644012892522532
"Stx2",9.68802127968596,9.61202209869931,9.62240445520685,9.65982865341355,9.69268845662727,9.7038757890062
"Myo5b",3.78532835651391,3.42687024910187,3.27901183148019,3.49461355636086,3.49283640334652,3.82081245118139
"Pcdhb12",4.12428719253223,4.47974239106093,4.32967596193985,4.4526876068192,4.38462219474202,4.39099373063734
"Ncl",13.7770214478449,13.3689434959615,13.2768777681259,13.3309419849873,13.3020434294454,13.6125974109936
"Gfra2",3.55945673923302,3.98116045200183,3.38057614707287,3.59249501295129,3.53076100071205,3.95136045537622
"Slc2a4",3.96669805278006,4.11595588879235,4.16021957672202,4.22573779491209,4.28522592322522,4.13658925313284
"Cd24",8.21355042164696,8.5734848048662,8.38299997097945,9.94220330140966,9.99149077479403,9.97736468037898
"Egr3",5.13036542270976,6.69569742681321,5.65515941211068,5.35739406531108,5.24821873160126,5.56067841110698
"Esr2",1.78706179610488,1.817464607136,1.73498062301124,1.846571000869,1.84533802059999,1.9132370893437
"Fyn",10.4131172022299,10.5879307531889,10.2514591925399,10.1161056204061,10.1184323041592,10.3663337474521
"Igf2r",12.3060300489583,12.7677846136335,12.4569461915137,12.7303743149528,12.7423637263582,12.8163301604377
"Map1a",11.5252389316142,11.7229319782483,11.5884509795226,11.683083613598,11.5839043419937,11.6691284532045
"Pgr",7.60277834715749,8.02263338636959,8.2287652036169,8.32967576807019,8.1927290590159,7.84514307668969
"Syk",2.56642003961212,1.9841201831153,2.22933569269639,2.01898840155874,2.01830291924248,2.06458007906792
"Vav1",1.36273414418602,0.957652685899456,1.07755191731977,0.957704187398214,0.95756991745641,1.04027855015029
"Plagl1",10.4068617571176,11.023760445034,10.2368555687733,10.5879581188652,10.4986059432263,11.0217375633483
"Gata2",6.39095813836111,6.27192725770563,6.65323218440826,6.29884351354432,6.37738739291429,6.01632596685441
"Sp4",7.23775390832894,7.63522698180504,7.59653210384208,7.66905721371116,7.5846887552401,7.46683132570055
"Cdkn2a",6.43517384722179,6.98005484451137,6.83015800308535,7.15608411518241,7.34411137410068,7.12755408742277
"Cdkn2b",8.57690982164044,9.86301873732769,9.28580003685335,9.43679158537507,9.53023624566006,9.41767815814828
"Zfp386",8.37014889651573,8.62885253123426,8.45821293140268,8.5772022270374,8.60636743032713,8.63307261115459
"Casp1",2.7529845344199,2.90221157689379,2.80514788531322,2.61138572138756,2.58240473620761,2.61934539914121
"Ptpra",10.9638297034961,11.132966522963,11.115277500455,10.9824477970369,11.0179004891169,10.9332947558514
"Slc25a5",12.3177701410095,11.5773742324112,11.7898586153929,11.6707989197484,11.6798090159376,11.8330175391605
"Fhl1",13.7733553641714,13.9926746082314,14.3394754476616,14.8204288564169,14.7912175554146,14.3493627444555
"Idh3g",10.6064367018396,10.3437255452253,10.3161303459306,10.3128388825071,10.3844299706898,10.5075852042003
"Bgn",16.3126282643732,16.8905133384355,16.7525157137147,16.8105105553847,16.8211245794258,16.6648726550949
"Gdi1",11.4426893040489,11.6776721919182,11.7366066713051,11.8038844510354,11.8279935570744,11.6395130807333
"Efnb1",9.94088122117993,10.4551293089549,10.4558692922378,10.6426585631263,10.6139283416638,10.3704294252246
"Ccnd3",11.6840561631406,11.6324641204765,11.6145606802032,11.5719521119883,11.5907496561535,11.6250503456762
"Gnrh1",0.530668044875374,0.559767704005067,0.591678191299874,0.587720526160657,0.501700913286169,0.498250402863759
"Inhbb",7.25022064589003,8.91367810527575,8.34501682005239,8.39020474130673,8.40738526510568,8.13572755873671
"St6gal1",7.41670658906656,7.55219211891372,7.83012409913393,8.10788120196895,8.08977769200363,7.7531547018425
"Gucy1b1",7.3375840641816,7.70821500854995,7.89467207425289,7.71051344794815,7.74461970327912,7.35579403772652
"Ccnb1",11.2438443151943,10.0277560762209,10.2685807123835,10.1689216586758,10.1409970902982,10.5221788578111
"Pcsk1",1.38211096078302,1.29818384851707,1.39945201162057,1.46182720223736,1.45982982793645,1.40152390811638
"Il6st",13.1147720841113,13.4057820968665,13.3233094208648,12.8619685966947,12.8226396055218,12.7792717707323
"Lyz2",7.00164285908234,3.81107695962283,4.52729531275017,3.66087782207602,3.76003445516734,4.5895207352241
"Sdc1",12.3510655941156,11.814649072946,12.0960732618772,12.2479721328742,12.2819440528439,12.2517421645127
"Tapbp",9.61514341226417,9.38230658419194,9.66336584354434,9.53112847410536,9.54904035247126,9.37544356797202
"Vps52",10.9230307103262,10.7930644654154,10.7751677651052,10.4471698797994,10.4432360221088,10.5280827737196
"Tspy1",-0.677345090929282,-0.592052499327131,-0.639879805324248,-0.677292638097914,-0.677322922664532,-0.672126770185182
"Arsb",10.3472130355103,10.5231912772608,10.3256205528641,10.4806587615919,10.464062468522,10.5819422185785
"Add3",9.1616577062693,10.5658853564326,9.64525652895211,8.81513087834768,8.83597994595051,9.04407041454793
"Onecut1",-0.616034376168736,-0.615495688078247,-0.606841736659899,-0.615342462593051,-0.644961021054995,-0.639075037287615
"Tyro3",8.92602035953484,8.94151990615298,8.98890057040743,8.97568906518309,9.03734629030956,8.9513872401828
"Akt2",12.0528189630359,12.035950071652,11.9120477470151,11.7930390460145,11.8194250613096,11.938568823991
"Ghr",7.95201152695869,8.46996033053604,8.05079884046311,8.01339276560407,7.92823168670226,8.13099931443742
"Gpc3",7.96300624775172,9.01764461975681,8.03005357830745,7.10679520091584,7.0814926721877,7.55441579199858
"Acvrl1",8.84697124143081,8.92733763746654,8.97861825991832,8.45959500630291,8.40243527763332,8.33955132149848
"Grk2",10.3229545899898,9.91386266231342,10.0530962135966,10.0511672465992,10.0876203906672,10.1347062311882
"Apod",-0.987314055512424,-0.956969730820843,-0.980150327052299,-0.987269686338153,-0.987295302870317,-0.979274060718569
"Aqp1",14.6706727335816,13.7852474320419,14.3904125521608,13.3790440944212,13.3688286728095,13.2114839142663
"Aqp5",-1.48363137880833,-1.48340067896493,-1.50756235141746,-1.4833356740201,-1.48350570012484,-1.45937436454164
"Arnt",9.94821301020694,10.1303363630199,10.0424695362756,10.0418935018158,9.92356351661662,9.97953365955398
"Arnt2",9.4769189279431,10.7217957324461,10.5549884992354,10.3680446226382,10.3748653454804,9.91582381501856
"Bckdha",9.0499897796545,9.85151239179611,9.64264783855054,9.55186881384433,9.62901033280754,9.3985428205007
"Bdkrb2",5.63804424548962,4.95476789233404,5.09072698216773,5.44985923945489,5.35492941816436,5.60807341555373
"Bsg",13.2754915400752,13.8064313824547,13.4586653788817,13.6254290463159,13.7033959026098,13.746708556846
"Nsg1",7.887536275511,7.17354984781502,8.24895744563362,6.79690058763275,6.850966500035,6.10551915986326
"Cnr1",3.38196288224145,3.87940447597561,3.78906329242901,3.77132826232478,3.85868425421343,3.65662664494862
"Coq7",7.5602148904464,6.85927499555288,6.91525447123506,6.81878267466212,6.76293778187011,7.0853507000307
"Dlg1",10.0234938532301,10.0885725340509,10.2613759057374,10.0404865605992,9.94444854289377,9.78712483964955
"Dpp4",4.36921124160393,5.86733251343924,4.59764857485616,4.43365000123029,4.40120293603468,4.93804977129791
"Dyrk1a",10.5345441309958,10.4760852566014,10.4371496653257,10.4345894916481,10.4200862735133,10.4955029110536
"Fmo1",6.43798534462912,6.09606300052427,6.57792234354789,5.72285467466008,5.53783461646531,5.31944647459151
"Gamt",6.97951327511597,6.99872293702356,6.99984300077886,7.03189817497763,6.91818118864766,6.96431478710355
"Gstt1",5.27878736572015,5.6941591975644,5.59191481522529,5.73361854481595,5.68869955891796,5.60571751828394
"Id1",10.8469677011335,10.2962244106753,10.2127150365915,10.2836449248145,10.3649004821145,10.6831537227775
"Itpr1",10.1308767813072,10.6096030618345,10.5684903374168,10.8478365234538,10.7472441764396,10.5992899341008
"Mal",-1.48382788949805,-1.48360833828007,-1.46136311919355,-1.48354647471483,-1.48370828426717,-1.50598237418651
"Nmbr",1.89087772163996,1.91969047326644,1.95433539319855,1.97308878837179,2.0438511747784,1.95941868582975
"P2ry1",3.02692307629961,4.08616282872496,3.39013332906838,3.26730611467218,3.12390695158588,3.36201615657294
"Pdgfa",9.99561892112703,9.83586593178282,9.82206137894588,10.167786513962,10.2169137282247,10.2860311686024
"Pdgfra",12.6889854216341,13.4033696019456,12.8193619553859,12.3927786122802,12.2967940421327,12.5716018836104
"Proc",-0.349722822671157,-0.320194353563548,-0.338203172811757,-0.349656734514032,-0.264991346588745,-0.304079455856983
"Pvalb",0.376345334553915,0.573524886958314,0.45050779023737,0.407833400406148,0.376397887680059,0.416542964561848
"Abcd3",9.32767549064424,9.34930042474595,9.38174681068908,9.32037061932563,9.33230394209168,9.28307842771467
"Rxra",9.09748655858621,9.30348133247955,9.0300112219154,9.07670603870032,9.01366439115761,9.21565793854645
"Mapk10",-0.317826524263699,-0.288881678589732,-0.3016396821335,-0.346698638989092,-0.317529019296771,-0.333828248436147
"Smo",10.1438098569999,10.425186210406,10.2343875253728,10.3133545030721,10.3099461159958,10.3617608178641
"Tst",6.00786445202021,7.08250562673141,6.60250100498213,6.94419531976658,6.85124645455917,6.84040492155656
"Cnp",9.67158141883678,9.83015253349091,9.82597251441807,9.5638736477197,9.62623082445855,9.5199466978349
"Mfge8",13.239732047729,13.2205336983687,13.4781936033947,13.6283232593999,13.6598352392065,13.3960185189574
"Cox6a2",5.12310237898159,5.08811580490373,5.45228885129188,5.50375507574028,5.44509664512908,5.12774610108547
"Nup153",11.2063191155745,10.8366511122507,10.9596879243437,10.8772321387935,10.810087401273,10.9054569596022
"Cox6a1",12.4596104099962,12.1118119423484,12.1956618386714,12.263103250665,12.2979250277886,12.3705634767277
"Gclc",10.5493501364374,10.1968709037038,10.4108142954499,10.1157455833638,10.1101014165912,10.0752197245982
"Amacr",7.26979953153398,7.20877566923698,7.14870945555716,7.21293695454567,7.36636778017409,7.3802305121882
"Igfbp5",7.57280576076676,9.37160598424415,7.92006303984133,7.71167518631934,7.78224120785702,8.29910102975231
"Acadl",9.59289532997851,9.70083389648022,9.6344088393399,9.68234500181485,9.68978873679056,9.69852264319218
"Acsl1",8.71068978522606,8.17171318245086,8.40565316858858,8.94570884881711,8.89813517100255,8.95747032515971
"Adcy6",10.723696002219,11.1088787854349,11.0692337623532,10.9874490497079,11.0411758464921,10.8613660795737
"Alox5",1.8509758508357,1.99247196503114,2.01965526875689,2.04389101715138,1.96510028157708,1.90656428854076
"Anxa3",10.9514204673988,9.98324633111398,10.3177326250635,11.2298648797416,11.2245217936343,11.3767941108808
"Aqp4",-0.622885149160277,-0.593339163875811,-0.617812947998889,-0.593185473764119,-0.593586122377137,-0.583685006589783
"Azgp1",0.0190847295609033,0.0191501938301256,0.0709841952845584,0.0489932181513279,0.0191202694869703,-0.0178099897698948
"Bglap",1.34488992440425,1.34600929332657,1.36438788871872,1.37414562864226,1.28773133828762,1.31200020361163
"Bmp4",10.5068422178427,11.3933756960219,11.5907315682728,11.1103237481431,11.1716714514231,10.5003749884426
"Cacnb3",9.7103591086812,9.55199022641104,9.70824451288937,9.63297411190721,9.70422880247285,9.59153161184678
"Cebpg",10.4026663652994,10.5116615781509,10.3202011718293,10.4337299522557,10.4687356758716,10.5881956139595
"Chrna7",-1.97165344256406,-1.96084887309651,-1.96905152882083,-1.97152031324185,-1.97159686073443,-1.9687582159976
"Abcc2",-1.04710895729801,-1.01829991390168,-1.02592813082233,-1.018152583706,-1.01853664792807,-1.02512092059456
"Comp",9.43860712224392,9.22071977120518,9.07047352642726,9.61571069768899,9.72279297445249,9.92844175636804
"Cpd",11.1098711044957,11.3895971132172,11.2064089905475,11.2922317696409,11.1499404911004,11.2644112486795
"Cst3",11.7532622552599,12.3857486824544,12.1693377794116,12.1869582564263,12.3064728252073,12.1468832302623
"Cstb",10.0174224818233,10.2802254235765,10.1530185396336,10.2168865250494,10.2700497377235,10.2392735444528
"Cycs",11.5093179716843,10.7665662126674,11.0025857636081,11.0771034371459,11.1049077293046,11.226361911793
"Dcc",-0.921468466477952,-0.921431488779647,-0.938627099017108,-0.921420968795693,-0.921448391041843,-0.90425755853046
"Dmp1",1.28404673255421,1.28516000331843,1.34253450791863,1.28547655684926,1.33857877537707,1.25409652613085
"Egf",2.66739384874507,2.96774183215022,2.71494405042387,2.64601104257133,2.59029998604194,2.72077930433041
"Emp1",14.247878193227,14.1466728801381,13.935806831445,13.8462198987419,13.8813705209977,14.1252639151074
"Ephx1",7.57959347751997,9.3419871381072,9.09192063343085,9.18639006211852,9.25551044641017,8.58981992864708
"Fgf1",6.62545956200712,7.14777056706066,7.09940322856325,7.5426298253566,7.46412112953292,7.2905873134154
"Fnta",10.1029839630444,9.99088899923971,9.96436179897498,9.93938860425678,10.0195880184277,10.0620629935093
"Fth1",14.1679483453315,14.6660684556392,14.4486975279564,13.8053583375078,13.9238647159479,13.8329223992568
"Gast",0,0,0,0,0,0
"Ghrhr",0.447673653924492,0.418626499405949,0.453772479271076,0.418651107473748,0.476397330183012,0.426901816222524
"Hsd17b1",2.49578183162081,2.49829585877494,2.55865814212671,2.61843823769465,2.47134316662645,2.48327140523172
"Htr1d",-0.968429892181714,-0.998239045667557,-0.991224154119127,-0.998229263982535,-0.998254761339652,-0.990352327466602
"Htr4",-0.936336544619663,-0.936300621432165,-0.920584514887588,-0.936290401156861,-0.936317041884638,-0.952037789659076
"Jak3",8.24692611930474,8.25214420794884,8.36895290994918,8.25391763173206,8.39623340119213,8.20565777013971
"Kcnc1",0.984431957737628,1.01406633429284,1.03650299517358,1.0706163773789,1.14624376935951,1.07117622421086
"Lamp1",13.465825863725,13.8487335736925,13.73189941943,13.6655579612632,13.6842652453739,13.6002919025973
"Lhb",-0.147062261548601,-0.117617382498718,-0.104148889935568,-0.0889708662632858,-0.0625691304371897,-0.103960930438329
"Lipe",5.57795556509093,5.56267732126435,5.58519063499142,5.69599231579166,5.80287259807158,5.73455826511784
"Mat1a",4.44339361930291,4.56833261890176,4.64931728148231,4.35719342595587,4.46495276723609,4.267618934216
"Mgmt",7.86560360552026,9.35273219718675,9.16857388852003,9.33226200226668,9.43604347619957,8.82474675206661
"Mgp",12.1137959374637,13.5534897161122,14.0516690881414,13.015508760864,12.9903199410642,11.7848880896107
"Bhlha15",0.0315592531606717,0.0316256754070614,0.0447962262515219,0.061447007489999,0.0610273579792385,0.0480334207669635
"Nfyb",9.69925833263676,9.0923141202386,9.39151995178256,9.31358963322705,9.29540525663434,9.30876371958582
"Nfyc",10.4099911573614,9.92834493622377,9.9685517224011,9.99541499334781,10.0134316879503,10.2050396650405
"Ninj1",10.8702895762543,10.5540102687775,10.4136851405413,10.3903716371113,10.4139026803821,10.7006019407213
"Npr3",10.5828106944315,11.8126366305971,11.5901154406819,12.3781614286427,12.3455973746711,11.9694876234893
"Npy5r",-0.229272601918586,-0.229216928430886,-0.286503275044932,-0.229201088299105,-0.199700740970044,-0.157192404764379
"Tnfrsf11b",11.3144819551108,11.8829596440412,11.6821077471452,12.0205346598855,11.9678691213147,11.910814943031
"Oxtr",2.28433646816818,2.31532817794294,2.39800005173174,2.65388616387492,2.47466653113901,2.46610861883079
"Phb",11.259699163115,10.8608421153175,10.8744126870836,10.9370614220289,10.8784987612612,11.0936380437778
"Ros1",-0.330874450638151,-0.414401901474059,-0.378946397457401,-0.38489739100967,-0.385301112150009,-0.378791030178543
"Rps29",12.7030263378542,12.6006681426705,12.3835100899715,12.5476947139706,12.5738053661823,12.8290871903673
"Scn2b",5.63925345998992,5.10002170383034,5.26616204219943,5.14289020618542,4.99516568011257,5.17250348285969
"Sod3",11.8734445018286,12.1580927124415,12.4911047454685,11.8834453925453,11.9196227320075,11.4261979239429
"Spp1",13.9721287753304,12.9904108337514,14.6684668037198,14.8255820636226,14.852038461408,13.6516132633364
"Cntn2",4.67630471293844,4.79379048075195,4.30165773743779,4.39517477314298,4.26898906288136,4.76547177741957
"Timp3",10.7607942079709,11.1990672249578,11.0200354361988,11.5277711630953,11.5220812518646,11.4848214877454
"Tmpo",12.4422154738177,11.6640804475987,11.8390358378329,11.8706254776938,11.8803727896567,12.0896112565506
"Tshr",1.32085902862083,1.35015331533281,1.33896201437977,1.40521765102855,1.29184738533987,1.34507667578126
"Vcam1",6.82678940601746,8.01535603082388,7.30221621078956,6.93164938449984,6.7774845661917,6.97342348297688
"Slc30a2",-1.02745707283011,-0.998151038395358,-0.99807696096626,-1.0274165243582,-0.998391540110224,-1.02763112688069
"Acadvl",9.58626856612102,9.62979329551665,9.74260737766162,9.49815790193366,9.53022734397254,9.37961617611032
"Asic2",0.812413706109955,0.701756092068039,0.757358027545306,0.701785922234925,0.701708166387334,0.701473915854822
"Actg2",10.8440628901896,10.1112911492672,11.3377097692105,11.8775009597292,11.7479678045754,10.9527016326702
"Acvr2b",4.89320560114847,5.41954887432256,5.2968867942802,5.32317981760946,5.33833333470352,5.1902470196118
"Adarb1",10.0168930797999,9.98701612916472,10.6345917678044,11.4778032591543,11.4631846831535,10.8378568078318
"Adk",9.42443860228157,9.40349670437688,9.22479918490066,9.41868568626423,9.42529261890834,9.61115762101486
"Adora2a",6.10385097439422,6.32962109295438,6.45873220639835,5.8610635938763,5.91386208715386,5.64546666779103
"Adora3",-1.49951134110311,-1.47890653650472,-1.48944769036476,-1.4992574574404,-1.478996704665,-1.48888832949185
"Adprh",9.76075790350652,9.78853829625458,9.96294673480786,9.8103638915757,9.82246292043619,9.62811477107863
"Grk3",0.492284873513546,0.239086871148496,0.302227637175047,0.2391148103724,0.239041975586253,0.302536628135301
"Alad",9.53749099672894,9.01872110690793,9.08129718612853,9.14448651930659,9.25832221020935,9.39821323044788
"Aldh3a1",5.04387500571357,4.69275963257588,5.05353693928765,4.67072252426946,4.64243439553547,4.47135883975955
"Ambp",-0.527148962447031,-0.527103623235163,-0.536937008604594,-0.497244386755642,-0.527124348327183,-0.502373651777916
"Amh",2.36006611653826,2.50688472999502,2.42050329491364,2.3605270444625,2.58223888083687,2.48435509100269
"Anp32a",10.2656906744701,10.2062207521191,10.105647865803,10.4131435643936,10.4911046988005,10.5824319790886
"Anxa1",13.619217546236,13.2827972784827,13.3353569375907,13.2948752665872,13.3198508276355,13.42301352188
"Apobec1",0.661772194596645,0.412080297539224,0.482344439130459,0.412110892704551,0.444091407073131,0.482682956826317
"Faslg",2.76922672443869,2.73571616575088,2.63705789691805,2.86699323681556,2.8345376795818,2.96617900637542
"Arrb1",9.73956297240106,9.64971359470998,10.0483714252394,9.48688812125384,9.42857612973885,9.10399898381248
"Arrb2",7.040660846525,6.80161985289137,6.70536361309652,6.65695093638385,6.57854264878176,6.83352352919447
"Atf3",7.83312752076708,7.41600590547872,7.28562001060781,7.36224683505646,7.46008073417725,7.75011048713195
"Atp1b3",11.6304762879771,11.5156140517474,11.5299129202881,11.259109476376,11.2890907240632,11.3172323497938
"Atp2a3",2.45070118493699,2.54001152450205,2.37030220309424,2.56828123657318,2.56631240149978,2.69235097066175
"Atp5if1",10.7031878499942,10.3299702528987,10.4296274501252,10.2679661080246,10.2884541478726,10.3651617292698
"Bcan",1.19837353023813,1.16576341762389,1.02595477169665,1.19930522893959,1.16568209886153,1.33860736613492
"Bfsp1",4.35574036620556,4.50919553733156,4.45904702265506,4.63784922559939,4.54902142878569,4.56685625630604
"Cacna1a",5.77019190347961,6.63644479597057,6.54946478360627,6.27043826455108,6.45248955401508,6.0153174754019
"Cacna2d1",9.95509925605866,9.65879764015623,9.92409259057961,9.99268494504863,9.91291927983529,9.8356579699698
"Camk2a",2.52064585208767,2.7431256704938,2.72498058190461,2.60285545617489,2.62605513907666,2.5213604770119
"Alx1",0.615571736667381,0.645366601546249,0.642645288902686,0.615698036185835,0.645093434242886,0.618219615418489
"Casp3",9.2815067642425,9.36550502457885,9.54781285064943,9.56245000016057,9.48440626087627,9.29912117427967
"Cast",11.6472960628517,11.5501773700797,11.6412107364161,11.7544361341965,11.6904772223789,11.6799826583374
"Cav1",13.982780386841,13.2736157101512,13.4677605443776,13.6103910843232,13.5828755508477,13.7570708217039
"Ccng1",11.991138756046,12.4612408093779,12.3205701795509,12.5155572761568,12.5283091854829,12.4275528339809
"Cd44",12.6422220425649,11.6682741305661,12.208006788492,11.7907070873207,11.7842305923929,11.7347101379303
"Cd59",8.00578725145674,8.95118815539755,8.74528851170142,8.93314037181997,8.89121931872041,8.64537903699592
"Cd80",6.42573400283531,7.1934922846663,7.30294651488296,7.6128397225164,7.45827154271687,7.04222226148448
"Cdh6",3.88691370727881,3.85729314606552,3.73473775343261,4.27045962518979,4.26519721365615,4.40519409266252
"Cebpe",0,0,0,0,0,0
"Col2a1",14.2758013204295,13.9978180731531,14.1013756786394,15.6341470765718,15.7097087520752,15.7073619324754
"Cpt2",8.82095477330681,8.90123672949738,8.83020134604824,8.72036895748617,8.8448465728431,8.81350217051849
"Bcar1",12.1369260785349,11.9043128980455,12.0693732426207,12.1624373995848,12.2470821295152,12.1560060102196
"Crmp1",0.865128536387934,0.894904252380873,0.942779620968398,0.923884497668692,0.865191775630943,0.831774910065823
"Dpysl2",11.6548089375806,12.0022828913565,11.7318964347908,11.8618991999113,11.8065733251173,11.930885742192
"Dpysl4",2.43446552957095,2.24245447282707,2.52123584552901,2.27375999494658,2.33094368271101,2.11957599449879
"Dpysl3",9.01311292133074,9.04177726751593,9.96584195391605,9.82726672241329,9.72625173407694,8.8383623687524
"Cryab",10.0386254306309,10.6131184076481,10.550451806134,11.6451780321031,11.7011829946335,11.4486006263737
"Crybb1",1.48772204744647,1.45574227930991,1.60747350155074,1.66281939587191,1.82509062006881,1.60821366979781
"Ctsc",7.2818737734907,7.56850760604196,7.31937475307823,6.23979398497098,6.17372892043936,6.31257738939327
"Ctsh",10.8168990418934,11.9597623686178,11.6657306682606,11.2524169421535,11.2809604209252,10.9892887185343
"Cyp1b1",13.0049691837393,13.3102855119906,13.7783711934106,12.9639771981756,12.8924548372026,12.3074721721435
"Cyp51",12.1218492978801,11.5886321106119,11.6410293052593,12.2458395645598,12.222190570549,12.4482264665411
"Cyp7b1",7.71167683793692,8.51938335295224,8.40831216881409,7.68482505749596,7.69698031826364,7.39812061451029
"Dlx5",6.94144307603025,6.33959853932952,6.44513666958613,6.85100637113598,6.9419512366649,7.0918629419942
"Drd4",-0.994278760529287,-0.99424292985887,-1.01944591506696,-0.994232736335254,-0.963564105004775,-0.953713350797131
"Hbegf",10.4566176302358,9.66830188142514,10.1853485482041,10.1920423683217,10.2419522947385,10.0941085391564
"Sparcl1",1.72928674970163,1.82988448044782,1.76473080026216,1.70501637348165,1.67643159279556,1.70557879795116
"Eef2k",9.95685374072512,10.0176844730746,9.8716533246296,9.73526868835568,9.72146994896765,9.84398510093191
"Emd",11.2458143016579,10.7466370935871,11.1753407948169,11.2873828966445,11.3812416768542,11.155197189555
"Eno3",9.5303115916175,9.05177271896248,8.91436454957165,9.32978040068646,9.3692061624214,9.72617088727227
"F2r",12.1138967979397,12.3381999247078,12.7858803907281,11.9425004968541,11.8940185479498,11.3584274929976
"Fcer1g",5.28330351339075,3.99731940789974,4.38692265972124,3.93401808083158,3.78765669262454,4.11422618765206
"Fgf10",7.00361778035418,7.51188043758792,7.71634872501348,6.66401770799684,6.75668026300212,6.25174936945706
"Fgf9",2.27661353563378,2.42323270653378,2.58357315303264,2.57203486073589,2.63343767640186,2.36908623662002
"Fosl1",9.69887528915699,9.06204227469852,9.38684979818288,8.63925727911494,8.61867995931294,8.62257760295881
"Fosl2",8.46098007407934,8.63958351486864,8.51069131573893,8.41772264192337,8.30473137871316,8.40081748905333
"Fshb",0,0,0,0,0,0
"Cenpi",9.17669226651488,8.18464938584835,8.55725374717301,8.40095997167503,8.42296617329126,8.53538015149175
"Gabrb2",0.157899045245667,0.187484598385173,0.19306003925014,0.187646809765494,0.242799140119028,0.194854757507541
"Gdnf",6.91709040259532,6.16507675828901,6.74516315152583,6.09572895608811,6.11921310589034,5.90339145990556
"Gfra1",8.39524079366104,8.92642312180132,9.00150056526359,9.28553474646694,9.24095240338818,8.92257496739514
"Ggh",6.88836862147029,7.01063860735011,6.840470212335,6.8020311446353,6.89628818476177,6.95819306677374
"Glrb",4.53763286777358,5.2951068949552,4.89573640477454,5.24168516993979,5.43198839220898,5.35747025766423
"Gss",10.2511275775295,9.66438946610904,9.83301653359519,9.85850507564893,9.84669118647683,9.97734011928697
"Hmgb1",11.7078508468186,11.2660398387401,11.2577453328526,11.3166663831531,11.2758613088877,11.5254638559472
"Hmmr",10.0316398423077,9.01179185453524,9.21923330831693,9.31575123777008,9.21196550197859,9.56634090997891
"Hrh2",0,0,0,0,0,0
"Hspe1",10.2068918213384,9.62021122187766,9.65778109435733,9.5804520191364,9.65432267139843,9.87315777251809
"Icam1",12.0331002570367,12.7633826695159,12.8050399645298,12.285818541014,12.2924539018584,11.8823377201827
"Il1rap",7.65857360036613,7.19426580279016,7.46722316038093,7.2295659913714,7.32032048179675,7.23413977778129
"Irs1",8.36058281167343,8.78705500974603,8.37136799376263,8.82167747301909,8.76821079288345,8.99739504989838
"Kcna2",-1.49207737858183,-1.49186890900972,-1.47611597967902,-1.49181016795106,-1.470485879215,-1.49700518769979
"Kcna4",-0.273104758598652,-0.327493482217477,-0.345681731958892,-0.356940303057005,-0.356978225002095,-0.311576652478722
"Kcnj8",3.03932890812022,3.32511487871492,3.15401897474764,3.1564301830888,3.04158473854612,3.12721037948739
"Lamb2",12.2570890446984,12.733226406923,12.6308789576763,12.5872909777479,12.6735946160279,12.4947215650223
"Lgals4",-0.543835233920758,-0.54379053769844,-0.521540509904995,-0.513976004846229,-0.543810968909089,-0.551165862782264
"Lgals9",6.98620769729734,6.81821526737932,7.17168045900055,5.96062220562294,5.88442473547174,5.65305449388512
"Man2a1",12.0239889195943,11.9103981222419,11.895417833716,11.9041523205202,11.8534673076241,11.9505855012742
"Vps35",11.6261639649093,11.4014021159767,11.4125984163593,11.4848386741045,11.4810353833385,11.5841216528052
"Mip",4.66824967731436,5.146607593852,4.88652045902307,4.99932082304893,4.97875934888327,5.00994826252621
"Mmp11",6.21589155641714,7.77604701911861,7.0051379799512,6.22147271722285,6.21825606845223,6.21069570065422
"Mras",11.4558448624461,11.4348761905928,11.4368950634816,11.4108968992055,11.4473581144077,11.4375929698445
"Msx2",4.11225940236641,4.07459711157936,4.29733782542042,4.30840554780339,4.21402358183862,4.05730499637347
"Myo1e",9.96275784503607,9.49946943799968,9.77343773363052,10.110293591007,10.0005468632956,10.0130961350387
"Myo1d",12.1393352440557,11.502953431184,11.9212766752232,12.0279206074518,12.0041423321034,11.9158991321742
"Myo9b",11.5258192078529,11.4649378239079,11.4697472561715,11.4404824122592,11.4173863200295,11.4545656258533
"Ndufa5",9.70783543978151,9.37640685057844,9.30169560559847,9.45952026976814,9.349293560705,9.64483245481808
"Nedd4",14.791751782868,15.0075107006372,14.8411842319137,14.9706485801038,14.9195068741533,15.0035247369675
"Nedd8",11.1002262556777,10.7728178123673,10.7873350546257,10.8317004580957,10.881267080802,11.0056707488456
"Nes",8.63637069616737,8.20758805316953,8.07064290608517,8.65117318520823,8.29217847170425,8.82301229703952
"Nfia",9.08291413448313,9.83754448504915,9.47346963004163,9.45571554766654,9.3792704079583,9.40425265753694
"Nfkbia",9.69385133867983,10.1254692370406,10.4539913515084,9.71265455015999,9.68772092959586,9.15585667622969
"Nid1",13.2879514141639,13.8736295201498,13.7122543356813,14.0496632084136,14.0099551916353,13.8983453315
"Nog",6.6495533203591,7.17995006755249,6.95650953898053,7.70125315260633,7.67520041513266,7.64646893884477
"Notch1",8.05208815459886,8.35407362855559,8.42396282552544,8.63252260733595,8.59252958106775,8.39164416025364
"Nup50",10.6639337489149,10.1865858801821,10.3650888986859,10.234646722359,10.1801933761439,10.2675909651141
"Npm1",13.8697745531491,13.679314143328,13.516560505375,13.5650809880866,13.6169788623082,13.849013768061
"Nrdc",10.7442768181019,10.6271647120627,10.546669041731,10.5854891196902,10.5615794445654,10.7125860054792
"Nxph1",1.73066587070959,1.73092215260642,1.6227194678033,1.88268223730091,1.88076281270875,1.98979706885954
"Oaz1",13.1950097672496,12.8311043694481,12.9323553794223,12.9752686892702,13.0614121062632,13.0990420866933
"Ocm2",-0.969616044810612,-0.998974679777561,-0.96078991998658,-0.998965198333875,-0.998989912696884,-1.02248299782289
"P4hb",14.8589783572173,14.8988508634627,14.7481726860736,14.9190882133496,14.9175583124426,15.0490651871624
"Pcsk6",10.3698222506442,10.4740380200713,10.0946382638475,10.4204654196173,10.4723527350849,10.7737009488613
"Pam",13.2400612675768,13.9302872277753,13.7004077498575,14.34458602931,14.3161476752363,14.2151333500917
"Pax6",2.67940079207111,2.71466950555154,2.50366373394453,2.8417165189656,2.92279525337952,3.07562730103936
"Pcp4",1.74929267575178,1.75014146050683,2.01496282500194,1.81643976174803,1.71508660027852,1.50051742414065
"Pemt",5.46429748773016,5.18712406254477,5.29421713338078,5.14651454434409,5.32615225382448,5.26782704084097
"Phex",3.98356745624295,4.54569459766674,4.59252019849438,4.17523710708896,4.25034220343867,3.88490048372428
"Pik3r1",10.3710680634037,11.113607208962,10.9433405685282,10.6903415667568,10.5854232704636,10.4368794862648
"Lypla1",10.4035824514811,10.2789517473875,10.4042357719687,10.4040780089907,10.4095693668443,10.3438550153831
"Plk1",11.7167467577536,10.4656230464173,10.6598052415568,10.7752885511613,10.7491640921248,11.1936059821717
"Pnoc",0.465394389133524,0.436273884234525,0.485556904023832,0.436298543126099,0.436234266826625,0.401543637636555
"Ppia",14.7955254905905,14.1314626803121,14.2698380478049,14.3691728885079,14.3662288563238,14.5613569100622
"Prkag1",10.3978554005823,10.1977963328835,10.282800081222,10.1185376879593,10.1747654820398,10.1616773705105
"Prkar1b",7.33350529139001,7.60165844869262,7.35041800802329,7.46358641463104,7.70836935927745,7.70314174897226
"Prkcz",5.76471175434294,5.64792068412294,5.27236353085944,5.65029903502274,5.71802795089427,6.11811618133201
"Prkg2",2.52180434553121,2.43931907509119,2.54586414807714,2.6728684796797,2.62354936528099,2.5829064847144
"Psap",13.3688982169425,14.19850983062,13.9445647492974,13.8994095249069,13.9505290446802,13.7641085592774
"Pspn",1.32447130269364,1.3536667382731,1.37816790320948,1.43447600660358,1.40708948166158,1.38168386140647
"Ptgds",1.14825426005277,1.14839235136592,1.13062443498157,1.14843163904698,1.14832922982748,1.166079305165
"Ptgis",7.88815791621389,7.77346789591998,7.80618744103174,7.34838356672266,7.35263396680754,7.37513423180029
"Sirpa",10.679812160095,10.7101075468461,10.5536286997431,10.3434498378739,10.4678011705993,10.546956657964
"Ptprs",11.1165858977584,11.3731191182331,11.2535517905388,11.6078430367984,11.6016265906475,11.5960355311798
"Rab12",7.67938348131048,7.87827773991018,7.78097492189546,7.85675149151157,7.76641601110956,7.80943944002543
"Rab3a",6.70525652393321,6.88407227269476,6.99052677746254,7.00485502377029,7.09933864488912,6.85623445518116
"Rab4a",8.11762426287245,8.11441550699728,8.10959075876369,8.31884356443023,8.28978188330336,8.31074185003797
"Rabggtb",10.0927094458279,9.71123887416164,9.82031615384979,9.79780394846039,9.8321656145607,9.89664278765555
"Rock2",12.3469625755255,12.149638884531,12.4527563665815,12.6356395488021,12.4655840805499,12.3461561781227
"Rps5",13.0750845415012,13.0872231366545,12.858636628201,12.9421179458617,12.9144069975177,13.1507796825665
"Scp2",10.0726497820207,10.7803439253402,10.4373037859755,10.3634823685071,10.4365111301669,10.389189817042
"Ccl3",4.76809737302728,3.04799287639909,3.5177662874376,2.89990817253836,2.89853802462342,3.28950193585648
"Sele",-1.49958886026772,-1.47884888676486,-1.48945919130344,-1.47879270925442,-1.49948024829102,-1.48889616098556
"Selenow",10.5268622681085,10.4006119457816,10.3154280359683,10.4697982684789,10.4951542223887,10.6307853164105
"Shox2",9.30908466328448,8.84716901663698,9.04902763176973,9.57313918767426,9.54514397968267,9.58824079186947
"Slc18a2",1.19399438136952,1.19553145320736,1.22252380463391,1.29759316865465,1.13923964384655,1.19065551890513
"Slc1a1",4.65533544389688,4.36383548396823,4.52827949640604,4.20910568177008,4.14127443571558,4.15649602626934
"Slc2a3",6.72079195999749,6.33441047471891,6.49950812434484,6.8088405078417,6.46989589007851,6.66746129197346
"Slc5a1",-1.96748674635044,-1.96736539632651,-1.97382348971288,-1.96733120318839,-1.96742063832443,-1.960978502382
"Slc6a4",6.43115156222717,7.03734942963319,7.13126815984449,6.54413846776522,6.70734922009583,6.22872618001622
"Snai2",10.1125376227352,10.3543180359335,10.267412739549,10.2566203690573,10.2676378384475,10.2281441935377
"Sstr4",3.45242012698353,3.72522240245697,4.02063714981772,3.5465019216672,3.45400149698595,3.0684358242291
"Il1rl1",11.9949556154908,10.749708495595,11.5092074255047,11.2683533093724,11.1939723872354,11.0942874783422
"Star",1.39339272523159,1.42115822138961,1.39661600221277,1.31273809990812,1.34056026516545,1.33730865363462
"Stxbp1",9.83741870532647,9.69140940994266,9.8532214848815,9.68104779200961,9.65581754528887,9.57962524140231
"Abcc8",-1.97162733949945,-1.97152434953511,-1.9690473072226,-1.9714953297627,-1.96096051782674,-1.9687564610894
"Abcc9",5.30671917838046,6.4685219061285,6.35173095360799,6.08929040634129,5.96682716200789,5.56394837282108
"Eloa",10.9383730247365,10.8150104650158,10.845895153599,10.902877599716,10.8521808592085,10.9083258207394
"Tle4",7.93818853448696,8.41568051276673,8.09279632908183,7.93932754125822,7.88774105807919,7.99767249421372
"Tmod1",4.43077415403486,4.39431494636087,4.71937874713745,4.72035899457028,4.66766872195421,4.38717966132266
"Tnr",1.26308775048207,1.26324825955956,1.36142056093836,1.47453983421737,1.44892642521522,1.36348057379875
"Ttpa",4.87661437454892,5.13352155355139,4.83412111136032,4.95167941164089,4.82893650816995,5.06125481259525
"Tnfrsf4",2.38431841501912,2.2964681791787,2.24906629029854,2.2967165398801,2.29606898612844,2.38771976980463
"Ube2i",11.9737812573728,11.8391277967424,11.8228005417921,11.8350687950047,11.8686855759022,11.9355311707189
"Ubtf",11.9226873488407,11.7074491382791,11.6606506817224,11.5705606983043,11.6340045130494,11.7567001675143
"Scgb1a1",-0.473430049002623,-0.32792042486682,-0.437112669061853,-0.473361174126597,-0.473400937310768,-0.436943623591551
"Ywhah",13.1675438103048,12.2239462420041,12.5474780624769,12.4980746747491,12.4755653021097,12.6350869521069
"Ywhaq",13.2142148587995,12.787561255643,12.8433269666987,12.8864885365968,12.9453721882237,13.0734914529328
"Ywhaz",14.1402628811647,13.734908559944,13.9112855590517,13.9120784925461,13.901009105871,13.9328439607112
"Map3k12",8.73255646094274,8.99358725270315,9.0116538701818,8.86300945835376,8.93067486097339,8.74826014630471
"Psmc2",11.3838128917034,11.0117360484096,11.0959952000667,11.0499751619623,11.0857116255749,11.1696226637584
"Agrp",1.74229519878466,1.84284525194005,1.79958877881379,1.77083942207323,1.71686878667568,1.73683555092302
"F3",12.9264489139731,12.072925682028,12.6288295911791,12.2381373703886,12.2096121628575,12.0947324734445
"Id3",12.9236006552667,12.2522900938363,12.5133894371936,12.3481916842723,12.3482194941947,12.4227615265914
"Alpl",8.50259206875994,8.37966089755568,8.27687156230235,9.22619983859173,9.35997134915399,9.45734051472833
"Id2",10.408998846265,9.78237559550247,9.88158871300461,9.76368075337941,9.80250562302675,9.99719169608221
"Kdr",-0.653714290522651,-0.681020027982712,-0.68156034372441,-0.680867717019721,-0.710386842842257,-0.681434095459261
"Chrna4",-0.23460530295928,-0.234550181494776,-0.197330133019293,-0.234534498248804,-0.205137507315261,-0.257083611989766
"Parp1",11.1362471819197,10.6655343926812,10.8048143461786,10.6926370565791,10.7296667008984,10.8072283198606
"Agrn",9.28198425711372,9.93911459365661,9.19235543880873,10.0572026448749,10.1401499366568,10.5168702773423
"Hcrtr1",0,0,0,0,0,0
"Ppp1cb",11.8024936328288,11.8201097728642,11.7844639434532,11.9029492167052,11.8814726305753,11.9190486830335
"Map2",8.68812634626423,8.66409918465373,8.29165739652086,8.78401732065826,8.67038316456916,9.11165561155183
"Rpn1",13.4086732230667,13.3491245535286,13.1947423414585,13.2228060210896,13.2671375994474,13.4291283571077
"Rasa2",6.95120180617679,6.93691770404139,7.01947083317288,7.17277875168687,7.05805506531612,7.04000583043771
"Cd74",3.05252374205581,3.21324504817856,3.3628221325134,3.32793622903279,3.42366462236646,3.14586268830341
"Utrn",10.2958677550818,10.2108088261398,10.36685467894,10.7136255225658,10.5693244441117,10.5279585950096
"Marcks",10.5168491795028,11.5000034934854,11.0524513450708,11.0707709459789,11.11516809855,11.0489445136878
"Pcmt1",9.51984869482962,9.28281428485013,9.35222534312289,9.3851354862382,9.34604202958533,9.41469490462875
"Hcrtr2",0.136850115458296,0.107943734892221,0.133484871810041,0.220341534962442,0.137158313052284,0.167661977372581
"Lep",-1.03903160993048,-1.01070368774528,-1.04649666036362,-1.06731086265628,-1.06733358758088,-1.04569321359283
"Tub",8.25505519480982,8.00818409302066,7.89619079533512,6.78501021477827,6.84724556074755,7.05155673634304
"Csf3",1.9943504396141,1.95355135589843,1.90214959587142,1.74269783768482,1.79990370162429,1.84310207153941
"Otc",1.76301018632294,1.8172467111922,1.83149683262425,1.89100790268224,1.73647851996241,1.77237482745565
"Asns",11.530489340298,11.6574641160806,11.5475876669648,11.765111476278,11.7983904056259,11.8281400021764
"Ptprz1",4.29172982574057,5.10449446631605,5.30266862759364,5.20877839787417,4.96275161266873,4.48120852370612
"Ptk2",10.8976955050945,10.7904446781716,10.7753387801866,10.986905834847,10.9728492782188,11.0486088679794
"Sdc2",13.4449399495089,13.413879854445,13.5793812818866,14.0090794985688,14.0171932007439,13.8631649697467
"Rln1",1.02666358865136,1.02679690653141,1.00379396621713,1.13997526912133,1.13853791762831,1.16219287474908
"Hspa5",14.6223121198216,14.4073289415804,14.4281438846002,14.6154172843785,14.5889394978946,14.6888550372373
"Acadsb",8.98901705706678,10.1090558072191,9.77887782240611,9.82412123331446,9.77047245729959,9.56745545504388
"Plau",7.78268633480728,6.9401670462107,7.22934616134279,6.72878416370379,6.7577869494587,6.87536608574744
"Crem",7.96569493593878,7.77350242196171,7.85438583847753,7.84188457548231,7.87175831202842,7.87203428422808
"Cd81",12.843755175378,13.3395633096628,13.2451156508051,13.3789411743486,13.4555196288701,13.2637739933246
"Ptpn11",11.7864045619543,11.7134075481421,11.6982730774712,11.6452357484669,11.6632099819944,11.7058558428077
"Gys2",-1.48382788949805,-1.48360833828007,-1.46136311919355,-1.48354647471483,-1.48370828426717,-1.50598237418651
"Vamp1",5.74949055547894,6.31295723087297,6.25098588416843,5.88569104746944,5.81832494858912,5.63224600703681
"Tnfrsf1a",12.6025693770686,12.333696771548,12.3070518864599,12.0047846033836,12.0444131583289,12.1856800687046
"Krt8",5.61564459290916,5.70601457890051,5.31715800811174,6.254183086856,6.24462718813171,6.59307671528695
"Nkx2-1",0,0,0,0,0,0
"Plin1",1.09946367334498,1.09966376575139,1.33094757242661,1.0997206542035,1.09957232991595,0.868262639181298
"Pkm",15.2715670311987,14.4674258634871,14.5974007697204,14.4311662771956,14.4768974982246,14.7261275653325
"Smad3",11.2428254948146,11.6446669844758,11.7688891110058,11.7161566819554,11.723229198087,11.3945500686606
"Dnase1",1.62846566526743,1.81045252091001,1.76346617387189,1.65795019051928,1.83144244379512,1.70068923637403
"G6pc",0.529897218749114,0.503928123695129,0.518942087028312,0.531800373872425,0.446021152818639,0.486881347539341
"Mc4r",-1.47067656432087,-1.49185008512178,-1.47616821294926,-1.49179160902797,-1.49194455835322,-1.49696319546266
"Prkaca",10.8178259477228,10.8336922428375,10.7827256750722,10.7133124727862,10.722862077484,10.761120695343
"Ptger1",5.00948757800922,4.93326222088721,5.02009994934336,4.93601366492635,4.96680503128811,4.90268429821208
"Pde4a",7.68620027027057,7.9147462650243,7.98798694737127,7.89095499749633,7.91481268640595,7.71537016222731
"Fkbp1a",12.7941028719994,12.3436453188291,12.5701706310962,12.5413128203062,12.5907720464273,12.5647458976848
"Hnf1b",2.5893837975915,3.13563969314852,2.96936848580122,2.84710536052972,3.04001904761687,2.83670546364208
"Igfbp6",10.0670853233178,9.97749215859555,9.82755141900244,9.5864631981807,9.59777414556362,9.78685599382641
"Gnai3",12.0073507180299,11.7578227880274,11.8541949396809,11.867528932015,11.8278901179286,11.8761013383196
"Bmp6",6.28160517294082,6.90021262193695,7.22523788972027,6.78574292070173,6.87417481531462,6.19562987572679
"Adrb3",1.72770985699493,1.93943840984918,1.91933593289123,1.75758180687391,1.81287815193914,1.69946817993735
"Otx1",-0.543407745484682,-0.543362812135571,-0.585415758594683,-0.543350027637285,-0.51387194820404,-0.486580508136106
"Il7",5.52348592464482,5.84334422533472,5.86939364297056,5.6703221351634,5.66120687549284,5.47978593734733
"Slc7a1",10.9355573153508,10.8835070998316,10.7205419831402,11.1771031625189,11.1626803348483,11.3588819731346
"Atp1b1",10.5563418226859,8.68098727109295,9.10871925642334,9.37996871705644,9.29925051127803,9.84955490463333
"Selp",1.64532327363597,1.62420382384909,1.62340035205963,1.46122511953231,1.51856363462461,1.50125757376136
"Ptgfr",9.15013639915865,8.97139648364441,9.3234200263669,8.92896200008667,8.79268695798213,8.59817089406902
"Col11a1",14.067411121628,14.0124349231796,13.9699517195221,14.7912877409537,14.8286088877834,14.8799196172503
"Gja4",3.17052313349676,3.31034819356731,3.41689467985772,3.31182119678869,3.34881523628273,3.15385920021002
"Guca2a",-0.610442314072628,-0.667244330185399,-0.629639964973918,-0.667232651779742,-0.638065257024101,-0.661852311557018
"Gckr",0,0,0,0,0,0
"Khk",4.55645191799412,4.56513712598691,4.5666461852426,4.44130794767786,4.26979362673515,4.34969912395443
"Cd28",4.58400954027934,4.49969148038994,5.09405232622166,4.81599403855664,4.74185334352797,4.22672187515529
"Fn1",17.1493693477084,17.7124574684346,17.6991685717358,17.8369809365312,17.8876103793585,17.5940404942805
"Igfbp2",9.30082554504311,10.3489745342032,10.6672317290044,10.6028266875509,10.7613386882159,9.83975099850217
"Il1r1",10.7533941288289,10.3045442995273,10.3205712524541,9.61695883478274,9.61092207374715,9.82233841598894
"Pparg",6.29567895826848,6.84934788702932,6.85215566284397,6.59428875489998,6.66362355895251,6.34931391673118
"Scn5a",1.29634058352888,1.3290025855307,1.38551616518855,1.29657486050649,1.29643961885199,1.22366265902047
"Dgkg",5.80077966162372,5.26356276342704,5.65075027385596,5.44030931132508,5.22459502813627,5.2138731084001
"Bmp3",7.54503651699919,8.09393872573528,8.31223971279149,8.35810209866106,8.39744314812762,7.88502053197009
"Cd38",8.31620561287615,8.84281351408279,8.9528748404769,8.29588268429434,8.24198499725723,7.89556856377835
"Cpe",12.2115919202136,13.041064585809,13.0295052846007,13.4672378432745,13.4950639687675,13.0779738744316
"Il15",5.86086848377781,6.13803378540547,6.31117993766514,5.9600577553649,5.92644746268823,5.63152380595306
"Smad1",10.4796955138948,10.3406442879531,10.4151963246854,10.452653080812,10.5148143440289,10.4787072886591
"Nr3c2",7.86342232736001,7.66968277126884,7.75199104404759,7.35815059330017,7.37848398453704,7.38287879418543
"Anxa5",12.3878290148621,12.2537685989012,12.250051115375,12.4518310457413,12.4434799427388,12.5184031857467
"Glra1",5.46519295619751,4.90976786438133,5.51376264324471,5.68901810166835,5.57626611747161,5.30635987661469
"Hmgcr",10.5820578097087,10.243281409424,10.1337213186524,10.7641303187859,10.6490461110215,10.9855365058177
"Rasa1",10.2119373697518,10.2025937393806,10.0683467783491,10.1351642027284,10.1071246035321,10.2600631793474
"Mak",0.851402746058104,0.822392194447258,0.786424692826511,0.880959746551851,0.907632631794875,0.944768966599533
"Ddr1",10.9845058839757,11.4039461217556,11.3372715381546,11.5912809925274,11.665427884517,11.4853089032332
"Itpr3",9.68167473946845,9.65767386085688,9.42882025251884,9.65287338934095,9.62141646417887,9.87799897440373
"Col10a1",2.5448016550925,2.61314789228398,2.36776385711907,2.73538729704194,2.64420856965315,2.90100884991672
"Ppard",10.7505201736524,10.6105949885147,10.5344033167436,10.6654756474435,10.7185570843085,10.838170630216
"Col12a1",11.3976495514724,12.3820556044726,11.7116963199447,12.5553314390946,12.4647667853619,12.6882053702561
"Gnai1",10.1087152596981,9.75680104697408,9.89310865026968,10.0348974173586,9.98720569458107,10.0507010590363
"Cald1",14.8414221680937,14.5456526421693,14.9405005621956,15.1902938742619,15.0981907270702,14.8972791436019
"Clcn1",2.53276265883454,2.48250633620516,2.55974563710276,2.65556919844231,2.4817209834045,2.5165339513405
"Ahr",10.025258682295,10.7870207009995,10.0564923326951,9.92306788745345,9.90353092251925,10.2629467639385
"Plat",10.6267860465317,10.7135844575857,11.6276447234556,11.026554243143,10.8922557090077,10.0019455046785
"Slc18a1",-0.250615744569945,-0.220953027651496,-0.221054237791809,-0.250545444779396,-0.221206126491926,-0.250605933954573
"Has2",10.105091777684,9.7175229513925,9.52034767560525,9.15690062221672,9.0328430900013,9.48583154504202
"Cebpd",11.4227229838328,11.7715469079991,11.8631703480663,11.2139140636986,11.3391403625621,11.0104918109801
"Vldlr",9.93390883937806,10.2098852798462,9.95536883881467,10.3242153299805,10.3400110380752,10.4486414048253
"Ctsl",12.3255801343631,12.6000357355391,12.4136348801296,12.2491331041215,12.2817566918976,12.314617952831
"Ass1",6.18478017530289,6.43390680841799,7.10304534667826,6.1392756392374,6.38571673757829,5.46879433359003
"Dbh",-0.986131520678166,-0.986095578591312,-1.01133348292352,-0.95504454948629,-0.986112007413786,-0.945358345161261
"Ide",10.9686192286926,10.6913053303615,10.7688289972373,10.8850521591629,10.8574161266862,10.9323674252143
"Mxi1",8.52384904524321,8.72161062366544,8.72469276695404,8.55347194292567,8.65757372113469,8.50355989953047
"Rbp4",7.19035813377588,7.15321426295067,7.02896515065836,6.3377803235923,6.36710113167892,6.49526177534053
"Zeb1",10.7936272736525,10.4711823347112,10.517062961381,10.475695048977,10.4927212722009,10.5995500033898
"Cntf",4.72130380468894,4.54792194509417,4.86100387900866,4.73207224312361,4.74070726540373,4.50999875014657
"Hmbs",9.35408512220544,9.03531440829506,9.12547993538905,8.96287085164052,8.97495541699108,9.03813296417701
"Gucy2c",-0.0307643398391434,-0.140484765105959,-0.0896925022196797,-0.140467875571388,-0.111327048104891,-0.121829512091011
"Itgb7",-0.607701953101373,-0.635084556997221,-0.626846825063459,-0.664503447920162,-0.664533958721299,-0.65906513330657
"Myf6",0,0,0,0,0,0
"Slc11a2",10.6749596632037,10.9699893331888,10.93878550329,10.7097863430147,10.7229691807141,10.6000667567706
"Syt1",2.03015631705568,2.14024933120184,2.1293918055633,2.14107114653197,2.27873848599944,2.16571583483116
"Tgfb3",13.5405139025208,13.131583951048,13.8200469002266,14.2545018445749,14.207477582445,13.7469917400678
"Igf1r",11.0781697112961,11.0834953722783,11.2310751400353,11.3819717193438,11.3674322104659,11.2244593666568
"Scg5",1.47477453327403,1.61707662347708,1.56449692149819,1.47502172266052,1.64152095756596,1.5396999969906
"Tcf12",10.9421261860415,11.1422305335808,11.0257745293545,11.1065681879508,10.982295226268,11.060835537566
"Got2",12.262250663892,11.6857491996584,11.7667582050401,11.5696081325169,11.6299345784016,11.8070130821943
"Scn4a",2.82167359098055,2.67637672507094,2.80377721193943,2.80344178114307,2.92957441261318,2.81175604296444
"Itgb4",3.77056355628879,3.81759830672366,3.81741062098822,3.95351349139151,3.89394756716321,3.90040083979537
"Prkar1a",12.3151808841288,12.4301738984765,12.4146500105797,12.399776107646,12.3742398280905,12.3450353485912
"Mc5r",0.714117024481367,0.770967804101331,0.663931563218107,0.74363427357455,0.685066213776197,0.792961094748615
"Apoe",7.12704151440774,7.16555011581718,7.54091786761737,6.74196260127791,6.79351744281531,6.37311796954171
"Ccne1",9.87806551404036,9.49597851729732,9.99033796649875,9.61377333261987,9.66173511405031,9.33443827250518
"Ntf4",2.42529507407542,2.53233436399304,2.51672476289757,2.50775585569847,2.42598487437508,2.42896032117344
"Syt3",3.29661498750066,3.45799216547091,3.54713994087688,3.39472740963206,3.45564768443835,3.25535118264411
"Acp5",7.11712556953115,7.42259970835206,7.37152475745149,7.68729131495474,7.73903644481573,7.61150176137535
"Hck",3.00641146825483,2.16898078827822,2.3367645376735,2.09140183276166,2.09099381720537,2.34212941557654
"Kcnb1",4.81499462462245,4.83852488834969,5.00429792131021,5.03535979103878,4.950448333042,4.81536589721626
"Pcna",10.9918858494214,10.1377020196282,10.4518258126755,10.1508850823566,10.2017495564115,10.2892854412334
"Plcg1",11.1927501427858,11.5182495353512,11.4593779375328,11.4674780286023,11.4747454524892,11.3672336420815
"Pygb",10.4443273181927,10.6424015237514,10.4908719694486,10.6061170632168,10.6129423574685,10.6620221618661
"Gnaz",3.0461907788359,3.14770521401618,3.17835387167639,3.04965371106389,3.12235250348211,3.00459723202265
"Pfkl",11.4544236226599,10.8385058376235,10.9207838614805,11.1369011773329,11.1445898339275,11.3664263742914
"S100b",9.03015244499266,9.79842283875744,9.63760646267145,10.0277172001962,10.1550911429907,9.86808535079705
"Nf2",11.1678844287016,11.2818903360457,11.2011586858546,11.1158981970441,11.1024098809163,11.1328827354993
"Myh9l1",11.2863501486371,9.62636600973569,10.1622051962632,9.6267934452254,9.62567947338993,9.9203893422309
"Il2rb",-0.358882948161294,-0.358337285682796,-0.351547211656043,-0.358182075944662,-0.330469575297007,-0.351388730886836
"Ppara",5.54005580687897,6.10384875015232,5.915462262619,5.86549291164939,5.78304974167128,5.73076134255698
"Clcn5",7.709842832763,8.00761890513635,7.71724560420159,7.82712311267118,7.80172448504102,7.95590906360419
"Maob",5.00706255513235,5.61610954670935,5.68114994084385,5.53711978365526,5.43701011324597,5.11750105852761
"Dnm2",11.0238053505778,10.87495166968,11.0119251044652,10.9168358668233,10.9587538186093,10.87524824838
"Cd6",1.14252050357295,1.22600158227516,1.25299375591134,1.19975035310391,1.14286643385662,1.10257568049298
"Cpt1b",4.86942036030985,5.13629599916584,5.18306017688577,5.37545596311805,5.23854330732457,5.12679763807339
"Cpt1a",8.98137270797677,9.63302328425825,9.924795516241,9.29897274345547,9.31053839177871,8.68715804749361
"Ogt",9.84691869818369,10.4788025664582,10.2522677077154,10.4054906577063,10.298408587984,10.2625425474506
"Tfec",3.53016583729472,3.31618524780997,3.7440590701701,3.5156115502254,3.31482554141487,3.09433501820239
"Acot7",10.2863848927377,9.55341672679759,9.77837523442264,9.84567059714042,9.80048497338015,9.9646033606053
