MZ1808/GSE303426/exprs_Chon.csv
"","WKY_Joint_5d_A","WKY_Joint_5d_B","WKY_Joint_5d_C","WKY_Joint_3m_A","WKY_Joint_3m_B","WKY_Joint_3m_C","SHR_Joint_5d_A","SHR_Joint_5d_B","SHR_Joint_5d_C","SHR_Joint_3m_A","SHR_Joint_3m_B","SHR_Joint_3m_C"
"A2m",7.42303071227214,6.69910164941112,7.28541000569416,6.73818299839964,7.22444769308649,6.0576139509188,6.51038560769024,6.3061041723611,8.16271668151006,6.58974715505655,5.49699354262298,4.98825612732711
"Acaa1a",8.7356094253793,8.95960808346317,8.89849363807862,9.26498917726173,8.97599149718814,8.91059280424441,8.41799057101851,8.4248247286504,8.23773398181909,8.43295841746368,8.30001099629487,8.70917102421779
"Acadm",9.00638603965954,9.07459038084077,8.8916084649331,9.20974597819471,9.03577709204152,9.08235711087756,8.80293897427665,8.92406240369512,8.7750051804706,9.07583369311741,8.87686464453411,9.25412884689865
"Acly",11.8053387994717,11.685157912773,11.5711766135575,11.5719710768952,11.652224979481,11.4954830178932,11.9917413712123,11.9916691561139,12.1279622797818,11.7174122659919,11.898595455464,11.9624335974689
"Acp1",10.0254762313525,9.62271127495053,9.82625631781017,9.874737461247,9.87469267612041,9.64721906538554,9.73882540854701,9.81760575992297,10.0098201767859,9.79033052143842,9.65388040465965,9.71583430913758
"Acp2",10.6022938698222,10.740525405341,10.5012338317606,10.8336939767843,10.7368841037658,10.8825650504973,10.7494444919877,10.752772879615,10.5825365693458,10.9283001807999,10.9218869873096,11.1665654961092
"Ada",8.23812687960421,7.1752227978493,7.35229453219797,7.28864385383975,7.50199904104407,7.39720111848609,7.29117501636959,7.42150000178413,7.54683686098946,7.91295998870926,7.15261515382394,7.6947888548386
"Adcyap1",-0.867678786662617,-0.867606700398181,-0.845114249056071,-0.867558634444337,-0.867661094657594,-0.845136250896464,-0.821475025404855,-0.779290499415246,-0.844953196124767,-0.867549122478444,-0.723391232314799,-0.795901851810734
"Adcyap1r1",0.857591644765659,0.994923671552052,0.979995688808696,1.22004449417054,0.992782594552551,0.9796269845303,0.906682577376838,0.90573841517843,0.927601389161387,1.03885067735328,0.913127445576022,1.0276466977623
"Add1",12.7272239831365,12.5942513669516,12.6912041295091,12.4955060593141,12.3901479756993,12.4416036803504,12.5187551888599,12.5455131655808,12.5467506347467,12.474527877502,12.5913285794311,12.4890686536315
"Add2",-0.0217402187147524,-0.108892182945133,-0.0772079059276508,-0.0625042333882647,-0.108984743068947,-0.0772453367164849,-0.0627001816417567,-0.0635018651304473,0.0246148872253024,0.0231710280365143,-0.00920553610450803,-0.0773406110598143
"Adh1",0.662452056884044,0.710385877114895,0.569194893836358,0.664451654535222,0.752512275691927,0.623206340718201,0.756029417255066,0.61408730120912,0.56971402453102,0.614343490140144,0.670578896415667,0.960305225537463
"Adra1b",5.33404502039923,5.76989065663111,4.91712366130535,5.31516744155904,5.58019356047674,5.7277059097742,5.74929374328635,5.90660600201259,5.25618013213067,5.03570573400177,5.16065799174828,6.02477037184733
"Adra2b",0.377353610947934,0.34443990055915,0.214887563020874,0.265483086204908,0.125377602610607,0.214836439374045,0.12558436519955,0.125453998429929,0.215261565460596,0.175048410376828,0.18064272553884,0.214706282078357
"Adrb2",6.21596086711298,6.05819983085775,6.16488334066238,6.38377143450265,6.35884676715017,6.49582706839592,7.03848878755401,7.0847191308281,6.86044594744748,6.33829626374073,7.36745328345177,6.90171182609331
"Agt",3.75484700544834,4.2445083149524,4.35152433238242,4.17153624501855,4.07295403276583,4.18085572001223,4.21037259407429,3.98200696890068,2.92352066476872,4.13020052676046,4.1254703144803,4.89004728403705
"Agtr1a",7.76723630318146,8.54063494686064,7.81495209030354,8.18722131816145,7.23245969149202,7.79396546015944,7.19412202921197,7.15341724939947,6.67611674951045,7.49459653949773,6.7912312636038,7.89542537073086
"Agtr2",8.29097539859475,11.0158412208137,7.58965352568813,4.11839763228514,4.04544977727095,5.28766094201506,8.0382110970192,7.96774231734515,7.65451118164318,4.05669129252837,4.09185936363601,5.28075840040025
"Ak1",10.5697006409268,9.98198505221914,10.5327639066792,10.685369124671,10.4234262357223,10.4097471580279,10.2644657763175,10.2864833897389,10.3140984777647,10.7092600845231,10.5148106223095,10.4611409207423
"Ak2",11.6255746631027,10.7793098178001,11.0034683884291,10.6127064705291,10.880274983051,10.672221918158,10.7659092852153,10.888949173849,11.2492375068295,10.7541585874327,10.5856195197903,10.5213234369684
"Akt1",13.219760270582,12.8533277962267,12.7323229362535,12.6990429308357,12.774461185019,12.8261191422749,12.89292610243,12.9412665298545,13.0529972968106,12.8273605159073,12.8270728779607,12.9061697290689
"Aldh1a1",-1.50988322396632,-1.47676940227305,-1.4929496501052,-1.47651827578164,-1.47705721593853,-1.49305609320798,-1.50932103659868,-1.50961477417705,-1.49218576481385,-1.5092004742168,-1.47467737564458,-1.4933293811713
"Aldoa",14.8147974172372,14.3434761082375,14.4070716147203,14.86253949371,14.699343842205,14.699560737696,14.3665489737837,14.4155162551794,14.3613772634645,14.6919795711506,14.5338742988891,14.8960283643154
"Aldoc",8.14229596751744,8.64369127521574,7.71669896816588,9.16788899982361,8.78489133179724,9.18412453202184,8.5640884110216,8.60958910288297,7.64198049508216,8.43217016572336,7.72298042301423,9.49099384322822
"Akr1b1",11.5717226500595,11.4611300590713,11.6057690524375,11.5834856963743,11.5265741345828,11.6073257413734,11.5325433660315,11.6243207376769,11.4097242395461,11.7502481863,11.6265919226283,11.7154893430054
"Apc",9.98641851833598,10.3456547665678,10.0922159635586,10.0337362346318,10.0275638908888,10.3206594188928,10.4238152687616,10.2613446468617,10.2693549415956,10.0711687660321,10.4241066525923,10.1046740482892
"Apeh",9.90163593637465,9.66299957147367,9.74687907889495,10.1040431444264,9.99289243402665,9.93140190603471,9.63607049489382,9.73190375787409,9.73197721433448,9.91962056618416,9.75158118834469,9.94011534753495
"Apoc3",1.46788402672556,1.51306634341593,1.51492674868467,1.37698866509731,1.42369764489573,1.51427545942439,1.51445727261482,1.55291556398536,1.51968185513964,1.59643290212101,1.76963376359925,1.55865402797878
"Ar",3.29351540266479,3.24420080798679,3.25447335155124,4.30499511029915,4.28367238003967,4.41976016371641,3.30055432507233,3.24302151532241,2.97656030785764,3.5350658657059,3.26666812853163,3.58505294468604
"Ascl2",1.88547717427691,2.13001048723167,1.90247777640743,1.88791443281759,2.19290783351413,2.16416561432183,1.93368370374478,2.05509830317707,1.90571184059118,2.09796764115248,2.08158803983399,2.15996857655386
"Asgr1",2.46895559519346,2.52217131950495,2.27444565423045,3.21419882641906,2.5662021181558,2.75538164898204,2.47338701947859,2.36154482552373,2.27675286892347,2.94969240198885,2.6446646956917,3.2938282288421
"Atp1a1",13.6548038246211,13.0635948732234,13.4895006170683,13.6166583279697,13.5170953455622,13.3966520573243,13.2380908466066,13.2542310289012,13.5713443615255,13.6211825536295,13.6303224625798,13.3404925956286
"Atp1a2",1.61372480944141,2.98341899299523,2.04321688958141,1.94346448717424,1.54786005568744,1.74502390061916,1.61682300170563,1.6774244580548,1.8202226747268,1.54926661690205,1.62783003192064,1.67144276201336
"Atp1a3",1.77102659118484,0.924666429623536,0.886964374176154,0.86183282180287,0.861155384852858,0.955278065498417,0.861742554818599,0.861372651843917,1.13766899363079,0.861895506473296,0.86424585846698,0.954057466228091
"Atp1b2",3.52489728271104,3.56672326013447,3.49175567351265,3.67090788105975,3.74769699856554,3.91588296162169,3.81405228020062,3.83265274453047,3.5418855618411,3.45958522734346,3.48497884071305,3.60122306065376
"Atp7b",4.36917260939727,4.29538222065759,4.15623408431016,4.51171750086818,4.51848561579844,4.40803546697683,4.26980784901308,4.2629803963777,4.47734979117158,4.43974113471052,4.24870953223792,4.41637908707178
"Avp",-2.20470488157605,-2.21295677148695,-2.21186577088059,-2.21289271229492,-2.2130301891131,-2.21189292316995,-2.21291087820981,-2.21298580695123,-2.21167091340343,-2.21288012427092,-2.21242312195135,-2.21196263547319
"B2m",12.7878945028149,13.0801224826576,13.5048453429995,13.3290144226678,13.1400298391759,12.9680344925835,12.8712309758444,12.9037755652028,12.5084403511327,13.2072773534192,13.0407339529374,13.1987193606442
"Bcl2",4.78383386368079,5.36341408356043,5.15254885747483,4.94677547222458,4.55370911837078,4.87323254861728,5.16331190877677,5.1164523823256,5.28573026830787,5.13143530260421,5.54895799428707,4.99243338851513
"Bdnf",6.95868329950173,7.61815249426309,7.67750934699966,7.63514753691611,7.31374562886861,7.70399288170922,8.05858983851015,7.91937706486819,7.55289858190097,7.99357522992114,9.01238483776401,8.32042715469667
"Tspo",10.1683040448254,10.0495929485491,10.0338527551062,10.8023667582816,10.4563743733693,10.49516055663,10.0209514587795,10.0151190196058,9.78612313679027,10.4759588722065,9.85980375341298,10.6090991659886
"C2",7.28512008577526,8.38540081993187,8.12391853090705,9.55932413248187,9.13616383827308,9.0920332135614,8.17194760704248,8.20061639014394,7.52565456995978,9.38068162938567,7.79227967329713,9.21416077373743
"C3",9.06502022172509,11.809247859041,12.2263527068595,13.4245936727416,13.3176562084379,13.2071204930824,10.476262283819,10.6248254638664,9.40505687659446,12.4059005122789,10.5858384856396,11.0161422772385
"C4a",5.30774044738151,7.92093196480769,6.5671487876511,7.90109697858915,7.72656148189704,7.76549646272876,5.94857740041333,6.2771985405153,5.56585549869052,6.47973589535739,5.18663642440079,6.47573881761072
"C4bpa",3.14831350046636,4.32607744652378,3.29922513429475,4.88949794898488,5.12257301328267,5.18648723370294,3.09359168229137,3.21182324804861,3.2273959337859,3.37974508339344,3.12102270311735,3.43321401127063
"C4bpb",-1.25724309349275,-1.25676584816755,-1.2769658097393,-1.25645233347182,-1.25712516435621,-1.27709869686242,-1.17481492964902,-1.25690795181363,-1.27601214983924,-1.25639072591183,-1.25415409228219,-1.15485041313155
"C6",3.37998116052293,4.08704911479072,4.0094240282933,6.48615608046454,6.49353135176064,5.87336527645414,3.56664204267581,3.17848449567287,3.85667773140547,5.0404844918886,3.7764496573766,4.26492216142344
"Cacna1c",8.30875994485713,7.93463680078336,8.23984882013288,7.32581126148038,7.27709676261801,7.93136107126165,8.28967814960265,8.18246832441006,8.04817984415147,7.75670849622677,8.17908231122337,7.40773129005486
"Cad",10.7049944847791,10.2921005708239,10.5812394903468,10.1170675755058,10.355350888946,10.2598595912662,10.4642879454033,10.5249891826146,10.9809261216353,10.4743911107013,10.8034436705712,10.0462875114243
"Calm1",13.6195326814643,12.7744270593106,13.0529729118326,12.8092385431255,12.9974502326295,13.1625100472141,13.1599179888473,13.1602929638433,13.1294254614174,13.1339132533079,13.3319503627227,13.1484531221616
"Calm3",10.0286651636224,9.8051545711065,9.82165034866853,9.82308757331042,10.0984666565272,9.9073996331683,9.72200022139489,9.66015662997217,9.66723854157266,9.91053005309831,9.60754956344439,9.93151669282867
"Camk2b",4.44294949494527,4.61566221081282,4.83480563008064,4.74102270869679,4.88501546680847,4.60692425052733,4.66976914675277,4.63707421773215,4.81272165938396,4.94238345386843,4.93013720649065,4.67755541306175
"Camk2d",11.3603446511271,11.1387803047036,11.3061520331104,11.3489620733972,11.2672957446959,11.5192411335411,11.2303694512075,11.1884256435562,11.0312738215238,11.3831523829522,11.5399504766239,11.3719733759563
"Cat",10.594813921797,11.1924486119094,11.4036249914201,11.4806642834234,10.9954602718641,11.0129956845732,11.0611863329815,11.061182329695,10.8843399700724,10.980112524466,10.7947165999435,10.7793317919742
"S100g",-0.0965925997458088,-0.0964368964591533,0.0176724164122693,-0.0448662210903463,-0.046496956252467,-0.0381893436739109,-0.0450838699096629,-0.0964835404124346,-0.0377957902215285,-0.0447150131675711,0.2774298958583,-0.0383098831064018
"Cbs",2.3948664801933,2.39658740808265,2.59000332956488,3.86694129868002,3.84318503800253,3.67577777806799,2.39740544022978,2.63894396036508,2.59373864364928,2.96256915873053,2.67210996687191,2.72678462429575
"Cd53",3.11461022485309,1.65900130106209,1.95256931306256,2.225733725186,1.79032198119387,1.80729371186552,1.65951544115266,1.72787902311008,2.02588539380623,1.79546030566704,1.7415438771906,2.07128452097341
"Cebpa",7.97797027712278,8.3729912699909,8.16153725381468,7.7107668384247,7.12534402010902,7.40410894588843,7.73032814579739,7.86126848574455,7.93015214974254,7.24323725472798,7.34866286004501,7.18948622653551
"Cebpb",11.6160193259143,11.9458889550287,11.2352542662358,12.5477987045881,12.3224149113798,12.7774115708336,11.4347684367921,11.5826492581703,10.8714260427725,12.1565046177967,11.7182641155866,12.7780622827864
"Cel",2.16694227631891,2.17074778255411,2.0975064859841,2.17327756686343,2.12715026858052,2.40148220620531,2.21220709668936,2.03998736605575,2.15052118783121,2.17377747645085,2.42331012848349,2.0941901009776
"Cftr",0.461359565174067,0.462514554525737,0.557677507030464,0.413682685962725,0.461643179969827,0.317473660440722,0.463064807527761,0.462168635308923,0.608801659658425,0.463435946127615,0.414681445541821,0.317322582939628
"Chgb",-1.51051863150711,-1.51012387482699,-1.49303217527554,-1.50986454903808,-1.51042108562877,-1.49314209375307,-1.50993808868262,-1.47644118320692,-1.49224334907602,-1.47601335632399,-1.44036307616975,-1.49342430458749
"Chrm3",-1.73280628407664,-1.73249952608687,-1.6896691715242,-1.73229800889487,-1.73273048300966,-1.74228563844458,-1.70608962949951,-1.7325908657533,-1.74158724086365,-1.73225840953106,-1.73082077316279,-1.74250493917493
"Chrnb1",4.20011717151291,4.50447005280313,4.91890759473353,5.32359312880814,5.17023959389917,4.56577860571056,4.35520135263073,4.31470886519477,4.72274060333077,5.0272959709977,4.67513978223215,4.57795615526448
"Ckb",9.57879100349835,9.66093233866611,9.37042576004115,9.04577540431839,9.43410338386171,9.83116119852343,10.2322364769797,10.1697604155436,9.45298007401635,10.0598193736023,10.4316075447814,10.6519459380448
"Ckm",-1.7375230881167,-1.73722562210946,-1.73708125633169,-1.68609037173219,-1.73744958313398,-1.71169416593251,-1.73708562432007,-1.73731419501312,-1.73648684212215,-1.7369918091966,-1.73559772016034,-1.73737674250487
"Comt",11.0355106467419,10.8791866127302,10.7009788159799,11.2972824323682,11.0265458797844,11.1028988649293,10.7705479119181,10.8058361156411,10.6495761889634,11.1327424350834,10.8314684669551,11.4361063807386
"Cp",7.71350449166106,9.63268211042789,9.32010463387105,10.8415672367765,11.0057971574669,10.7454789092249,9.03301268074389,8.97675609937708,8.3914725269562,10.3723296044017,9.76101530698432,10.2112762738675
"Cpa1",1.49735917132314,1.56082206915224,1.40131344498819,1.43351690341056,1.43252742394714,1.14171717774177,1.56221840282394,1.76997202158965,2.37932467860948,1.43360853818359,1.43705362223812,1.14118377499476
"Cpb1",-1.97346304907038,-1.97324560926074,-1.97546731157258,-1.97310276747233,-1.97340931886571,-1.95691001773279,-1.97314327456725,-1.9733103537184,-1.97503281045506,-1.9730746981851,-1.95343781673238,-1.97568330417571
"Ctrb1",2.79286098285343,2.75221428358544,2.93366221190554,2.9575067191852,3.04979485444891,2.7962091739924,3.0905173899104,3.08450791174755,3.26883313409854,3.23697341638029,3.19483140753728,3.08089896282778
"Cyp11b2",2.13317976261282,0.992212859269266,1.27140201288251,0.992613846843728,0.991758106721823,1.19936129904797,0.992499736216748,1.05755294949381,1.20086277624733,1.12164136997357,1.45959296965432,1.19889971221523
"Cyp1a1",0.849323858953751,0.903487328550158,0.851636234319463,0.955621878950103,0.902471487823772,0.685306672013974,0.849787907004489,1.0009711170197,1.30155160477844,0.849888915514575,0.851453154586484,0.743008313089636
"Cyp21a1",-0.837375438488846,-0.837302473989932,-0.83406076682874,-0.837253822043935,-0.749926735080637,-0.784154714788334,-0.837267677076995,-0.7919955055161,-0.781671982969548,-0.790916430513904,-0.786016294280451,-0.834139723908779
"Cyp2a3",-2.21307600908989,-2.21297692309645,-2.21186833037422,-2.21291183096574,-2.21305152456373,-2.21189592048756,-2.21293028980153,-2.20452239115521,-2.21167033086827,-2.21289903996295,-2.21243466859362,-2.2119667568845
"Cyp2b1",-1.50943370896351,-1.50906026326492,-1.4928912609391,-1.41288836404986,-1.4773659047243,-1.49299524545588,-1.50888450680539,-1.5091714597347,-1.4921450196062,-1.50876672913174,-1.50701655754449,-1.49326222110827
"Cyp4b1",4.17112700802856,4.39789123643702,4.70703241050839,6.67031445887711,7.12345304937014,7.01870451747941,4.24158657078929,4.34474087443567,4.12793382013223,5.39270927770532,5.90627841820207,5.27037969880256
"Dbp",7.97384885680563,8.71240907768286,8.87653722564071,10.5221505474402,9.7699989924771,9.30489580705878,8.12588566670371,8.32450839602484,8.06108556336298,9.55190357677349,8.35688507629242,9.42627649903763
"Ace",4.01944530687959,5.08409402532995,4.06954233071329,3.8761031984068,3.66650941614764,3.85187000579054,3.81285039631829,3.8053221982101,3.68806458058591,3.67914735382909,3.9882284000823,4.35637323051213
"Ddc",2.63966935853785,2.53529254268742,2.4682321715284,2.20045114529306,2.1991167714182,2.14910583241631,2.75165545237792,3.0151274982422,3.04714715185494,2.20057480150606,2.20523380921659,2.20907553383999
"Dhfr",9.50757035720282,8.21547135761409,8.75082466793996,8.64270453994078,8.72136296430088,8.47917126380379,8.10920328804041,8.1296219504066,8.562011541482,8.49169048859359,8.06107472901548,8.14734236433157
"Nqo1",10.5730835918829,10.6786196199193,11.8231109323566,11.6161321672278,11.2248721781781,10.5533877516321,9.93611543994362,9.9568439129384,10.3904149377178,10.4727974808425,10.3916978877121,9.65816751761591
"Drd1",2.66308461648899,3.06346997020374,2.86668928420967,2.67151774623904,3.08193882742693,3.10915463249438,2.71136492539709,2.53302364340813,2.71770189918319,3.38776968467244,2.69705334181706,2.71106556193947
"Edn1",7.75986553859121,9.07856805152493,8.95991220844357,8.63271584854974,9.15359906438198,9.55619500211187,9.46821343053664,9.46529630432188,8.76742269805595,9.42806098373816,10.3565581008597,9.38790875264071
"Ednra",8.64785863815726,9.30466161604576,8.99462346567878,9.34819398528405,8.68977365188663,9.01491348622838,8.56502898316632,8.42831277995102,8.09046424398522,8.50418754062856,8.03866346083228,8.66333913208357
"Egfr",9.64064418627338,9.84527715547621,9.47953667118943,9.16947743276373,9.26611493921964,9.23494304429597,9.18658309309881,9.09430968904129,9.6868635372595,9.30114613534307,9.01707868182771,8.85897240377703
"Egr1",10.9955081928952,12.077014172438,11.3013117214655,11.3568940855399,10.2052093440959,11.5387531642895,11.8108246193996,11.5794424658801,11.3707589675231,11.3591532798907,11.6457175397966,11.3040579966899
"Cela1",0.421563849380787,0.42418971347276,0.317194256781876,0.384389020400634,0.49698494569152,0.500749954791553,0.294281134822621,0.294155919915712,0.317554349459504,0.29433302795294,0.295139175000459,0.317019832285783
"Eno1",15.0965760623263,14.4066068334211,14.5055102218414,14.8332989438186,14.7385641173877,14.6651752248286,14.510013262796,14.5709093081507,14.8035461344058,14.7717775596909,14.709404358861,14.8443436421504
"Eno2",9.84756741889299,10.3721457235404,9.80581270230609,10.6702452224596,10.3994468511558,9.98258385170667,8.53558036936107,9.15788862783249,9.33615406071979,9.81252928544119,9.6358620147711,10.0910821419947
"Epor",2.14258232792043,2.10297130373705,2.34703337695268,2.18880283420121,2.22183903169656,2.1609116870527,2.26468717777668,2.14472683991424,2.17177702436071,2.18929578401288,2.25025389320863,2.07285750786776
"Erbb2",9.48646857042302,9.5658550467128,9.46047094553662,8.99543675039088,8.90035349143256,9.00987842760965,9.5246284861669,9.49555080626703,9.50041452981065,8.95005197378289,9.2647057528999,9.12076153608107
"Ephb1",-1.21564932910764,-1.21516170552339,-1.27755271133405,-1.25659314547781,-1.25728060785852,-1.2359367158487,-1.25668398539733,-1.25705867177457,-1.19307476819203,-1.25653019818921,-1.25424492633936,-1.27803708945914
"Ces1c",-1.7373920318798,-1.71213180280151,-1.73695889626103,-1.73690885370471,-1.71235135580839,-1.73704009429323,-1.73696317827834,-1.73718725022591,-1.73637618135643,-1.73687120963114,-1.73550455915957,-1.712279948834
"Ets1",10.2870395284746,10.0025080474042,9.86430402967213,10.1525113121407,10.1780853472346,10.2196130074542,10.0920532050682,10.0077074716621,9.82697911607676,9.98279432371183,10.1369177648564,10.5089123470732
"Fancc",6.55247094022564,5.93378768260695,6.39300066653317,5.92187879299438,6.13279604551052,5.82886320850611,6.41884912593215,6.24467675094546,6.42896860551166,6.07432449602063,6.03796224164426,6.00754055738905
"Fbp1",2.96647993511422,3.00931519974732,2.84791112665332,3.29921298217329,3.23106144442604,3.21749277726897,3.15025649511755,3.04397397295858,3.06708367734516,3.1841838191797,2.86193922913989,3.24072395766084
"Fgb",-1.50352753453175,-1.5031515286613,-1.49894470429602,-1.50290452076024,-1.40685042045121,-1.46685466781658,-1.50297456729637,-1.5032634874429,-1.49819334707595,-1.50285598219318,-1.50109381223493,-1.4993182075974
"Fgg",0.368110684269557,0.505382122054189,0.413279797891992,0.417315656741179,0.65490481008079,0.413221172928171,0.417099310249997,0.368245545995467,0.569400359714376,0.463744389956954,0.423143980307704,0.413071919293379
"Fh",10.5363453516179,9.77665560003101,10.1421587222322,9.96494882756197,10.1346863334821,9.90979498264329,9.84854279155083,9.87639910319543,10.126418029435,9.98620944532234,9.94386321996214,9.8554536020514
"Foxg1",-1.46481143578128,-1.4972441767935,-1.5052621734416,-1.49699240232646,-1.46471673034672,-1.50536889119696,-1.49706380056605,-1.49735829606842,-1.50449631711543,-1.49694292709996,-1.49514675215912,-1.44001087881676
"Fst",11.8183754374106,11.3559473018398,11.6802345388073,12.1609998145857,11.846696024944,12.0699463858534,11.6232813112702,11.7022271795405,11.2829361993841,10.9427029546715,10.4609981485172,10.9224969623449
"Fuca1",10.5674326131106,11.4287261758772,10.9811499755027,11.5404236443329,11.5121025365415,11.6121685761261,11.1119938720237,11.1021225455547,10.7791085600469,11.360203149743,11.3448856229703,11.6115179684013
"G6pd",12.2309314843711,11.7454578069801,12.0409412722968,12.0881604691079,11.8894320936178,12.0024674014182,11.7665531832324,11.7791967574706,11.7602031890902,11.9721169649061,12.0312528661129,11.9479389500943
"Ganc",7.21873940815536,7.84692079057533,7.57069242024312,7.81540374255959,7.77137332407441,7.76361022168393,7.64146958830007,7.62634421526262,7.494788523674,7.71328705648162,7.59299725820187,7.78417652620437
"Gapdh",16.5685694771703,15.7198849012578,15.910669430267,16.3682660376533,16.2824261346744,16.1488093721815,15.867882718927,15.8826906521846,16.2529410442381,16.2902022042788,16.0877133055557,16.2213978691642
"Gc",0.619973994724856,0.621177720922971,0.619805715360593,0.910056979584266,0.710502201562028,0.849234346606125,0.62175113843062,0.571338011583438,0.565649494883839,0.571592949014289,0.572751239984188,0.564882561052771
"Gfap",5.03111950021419,5.65533906462885,4.66750566914253,4.98018446542313,5.63015579903557,5.93867020028383,5.75774854322708,5.49042711922054,4.84608768236633,4.81861336607702,4.62139425284153,5.54022750354125
"Gfi1",0.104518463467082,0.104671914600314,0.182566667858273,0.104774191728895,0.104556131649704,0.0937264103390948,0.104745068845196,0.104625941645276,0.0512233467143875,0.104794427824322,0.105560366645394,0.0916068282913371
"B4galt1",10.6744360349499,10.6833640892073,10.6494503654292,10.7748413479533,10.4947676855997,10.6960085497971,10.5072011276944,10.4449926350587,10.3225793756574,10.6361294326112,10.7868813044759,10.8332685378914
"Gja1",14.3235735056398,14.2123730688379,13.6948905876131,14.1353224864877,13.8395995370023,13.8648597293496,13.6860078944254,13.7084253743839,13.9822915361388,13.514989027118,13.0931117962957,13.714659491994
"Gls",11.5355527558599,11.1921517757909,11.4932345720444,11.442066680914,11.5731078676237,11.9208783429939,11.8759376569059,11.8081882496723,11.557897467678,11.732341130248,12.3755190512311,11.7954222014066
"Glud1",12.2982918141474,12.1892951072387,12.3525594303209,12.3896750724078,12.3901437064644,12.1488505058083,12.0253693061868,12.0268681860969,12.1397533341931,12.2077365100647,12.0614944535294,12.1532738077458
"Gnb1",13.3246780435362,13.0162789558765,13.0193554220372,12.9270888121,13.048697226803,13.1466552280653,13.2250311699502,13.2221176785822,13.1697670237159,13.0555182110438,13.2837659648354,13.2158103575453
"Got1",9.66924126749419,9.52059804075266,9.54942575354652,9.69907854095641,9.53317066845752,9.49714131550777,9.30692792864195,9.42027705895566,9.62877533334189,9.44452276025869,9.76485316031663,9.50399231052068
"Gpx1",11.1349100039045,10.7341300065968,10.8157620332946,11.1696460000855,11.1395312424378,11.2524992993287,10.8746965147951,10.9954441522028,11.065743442967,11.394828318314,11.1870617160775,11.1811192016167
"Grik4",0.96161569268469,0.962767876124583,0.940961773491101,1.04962675466918,1.00487605855372,1.06793926917835,1.00730958868229,0.962422745021711,0.945328461113654,1.00794470130879,0.918345685367852,0.983225047423299
"Grik5",8.33997760788287,9.36526437965096,8.41738614320715,8.21987326814581,8.30273298002257,8.7190282543676,8.74161760380644,8.92878503275835,8.28377151250215,8.18979634555585,8.50809084653481,8.87788312210196
"Grin1",0.718045119327213,0.718258948825608,0.728094932019362,0.718401512914139,0.8469936262403,0.775212773730413,0.808579462165416,0.848218100545533,0.78010445065574,0.809205270893391,0.81888373971005,0.859880733905311
"Grin2a",-0.33401388000752,-0.286125562453889,-0.29078583446073,-0.155171465261719,-0.159977925383187,-0.238561827540479,-0.333843125555198,-0.333932897395207,-0.290528036505007,-0.285279656441552,-0.333228398514841,-0.290910757000341
"Grin2b",-1.97346304907038,-1.97324560926074,-1.97546731157258,-1.97310276747233,-1.97340931886571,-1.95691001773279,-1.97314327456725,-1.9733103537184,-1.97503281045506,-1.9730746981851,-1.95343781673238,-1.97568330417571
"Grin2c",1.13960479634813,1.19106006428585,1.14881339757036,1.14019361803569,1.13969155921939,1.14814368041514,1.37127238266159,1.2838774242329,1.56694477093276,1.19212805127505,1.34949778296093,1.03976099059151
"Grin2d",7.66324565004269,7.46134679908189,7.60795290454117,7.20813595968342,7.14626541547668,7.45172302597007,7.59954617136731,7.50546973453371,7.6085069734878,7.79803105138498,7.77644750107233,7.41106123732247
"Nr3c1",10.4671705913622,10.9121915844596,10.8245001714574,10.8994418964932,10.6430136696905,10.7566808342462,10.7582697027154,10.6597632593622,10.4639727404581,10.5115067581795,10.8944156324766,10.8277328012079
"Grm1",-1.50371948287089,-1.50333796998654,-1.4990695321145,-1.43775482304409,-1.47095894891354,-1.46650950223674,-1.50315841683044,-1.50345156852597,-1.4983071704528,-1.50303809491977,-1.50125011607072,-1.49944850577694
"Grm2",-1.97635589836629,-1.97616146107257,-1.97190502311192,-1.95938543450302,-1.95965955644699,-1.97195916342766,-1.97606995215849,-1.97621935634553,-1.9715164869853,-1.97600863033255,-1.97509739041665,-1.97209816629618
"Grm4",-0.322066692903501,-0.321963411483929,-0.256832595525709,-0.321894546437,-0.277070923821144,-0.304491182477549,-0.232200146593419,-0.276609901920177,-0.354212280053258,-0.275497567544844,-0.321364489827274,-0.258797782209128
"Gspt1",11.8619788689576,11.2408817575448,11.5834279822844,11.2332774351934,11.3816848746949,11.3810485309729,11.4373027793165,11.3887474124959,11.6881528880684,11.4082233236686,11.5443921199059,11.0956148845631
"Gstm1",8.57732302414707,8.68483854489214,8.90508841561554,8.83766145264903,8.78149384025875,8.77576282847691,8.90993323338473,8.86620118915231,8.47798668331281,8.88855790583843,8.57485423799353,8.90159378675274
"Gstm2",10.0909438746403,11.2120574882642,11.0926156517617,11.2547372960954,11.0562487041645,11.1462922435255,10.9602753473541,11.0467883909799,10.6945301785826,10.7744260287666,10.8773502965281,10.7029756395267
"Gstp1",11.7062083384669,11.5771736373557,11.9271929327519,12.0307534481352,11.8343650050675,11.8079790250443,11.7798647620146,11.8103983635096,11.9238587239311,11.5853689131557,11.9871721180633,11.4966216111568
"Gusb",9.88962233698905,10.0799144877414,9.73305217394162,10.0980703301095,9.92395173594455,10.0546290612899,9.92477207441119,9.94440823578461,9.80159527209558,9.96555337229692,9.74264339512426,10.1951914768737
"H1f0",11.5998790376206,12.0069664859283,11.5490164092092,11.8013376204554,11.5744501463355,11.5653805852371,11.6318614065311,11.5811051395692,11.7093304346374,11.5245858070698,11.5501514469313,11.8114411161369
"Hist1h1t",0.474609697537432,0.636098225971265,0.459037233638959,0.47641982109631,0.517622096969142,0.556221860924738,0.476213745015551,0.475370618030406,0.459434787381996,0.520582097988864,0.481976800772312,0.554752669744949
"Hagh",7.42898240553267,7.29644018378288,7.40362008887936,7.55927193121881,7.52267024049846,7.49383956445408,7.42205452708651,7.49465320347172,7.2459046178603,7.74346479796735,7.62856517019136,7.90468695868115
"Hdc",3.15832323931287,4.91051644033161,3.8668557641527,4.29065932464944,4.51017203262137,4.21242373199183,3.64687134205997,3.8087684138378,3.82372373318437,3.58532242694006,3.39555534171864,3.75009105140698
"Hgf",3.25447341396016,3.67296842465153,3.24973604051409,3.75043380551018,2.73282554175795,3.24829746618321,2.91315430007355,2.94651675127352,3.15308825644166,3.09577791522758,2.98943501018574,3.02667081818115
"Hrh1",-2.21145733130849,-2.2113460307554,-2.20414460281193,-2.21127291456715,-2.21142982851815,-2.21370547631305,-2.21129364886634,-2.21137917139308,-2.21345207773949,-2.21125854678786,-2.21073693128552,-2.21378504487652
"Hmgcs2",-0.688024263623665,-0.426807786569371,-0.636949536175677,-0.687861863168048,-0.68800034248518,-0.636979201460063,-0.59077211463496,-0.638753990548442,-0.63673251956961,-0.687849012171245,-0.687362596831931,-0.637054727811072
"Hmox1",11.5005498492778,11.6424143563196,11.2565133418523,12.1746125389617,11.9296661095505,11.8020618259199,11.1091135381467,11.1999221255177,11.4196402954171,11.9628199052437,11.6505806837647,12.1066240902018
"Hoxb8",-0.0325957235649813,-0.0300187764191407,-0.162104565514023,-0.0697025940809707,-0.159849822805105,0.0209668706335009,-0.159706351399285,-0.159796821131524,-0.16184433612902,-0.15966885704861,-0.159086335752506,-0.16223061009152
"Hoxc4",7.94877314269238,8.06393158294957,7.91052776151057,7.78230653325127,7.68416215351363,7.69022488135097,7.43871899977683,7.56084690431363,7.35044453260757,7.71282830612914,7.56701667585768,7.92809497377297
"Hoxc8",6.46087612064875,6.9395314875533,7.19621659531302,8.12252562881007,7.69033515849228,7.90221851826475,6.38551751875645,6.73547178146171,6.44144213119738,7.79666308375883,7.46203653441327,7.25660141217218
"Hp",7.99684232235006,10.8588982389514,9.25907745028062,12.5645916966426,12.0545504527099,12.0133535440807,8.72139383342515,8.75439564087625,8.2306426633146,9.95283444947797,8.47683230171214,10.1870958103969
"Hspa8",14.8142803867833,14.704270193833,14.820163168649,14.7367901378965,14.6545787010925,14.6084273713164,14.5698493023689,14.5949646272548,14.7168907929287,14.6575886337946,14.6069983688816,14.5241788430585
"Hspb1",11.8960443340191,11.5448953617871,12.0734813791465,12.0297541967912,12.1908914697733,12.6173855007761,11.9434110847033,11.9823684311785,11.4046950738251,12.3244929067219,12.323916441106,12.0223251592926
"Hspa1a",4.01162594099857,3.67483266131592,3.95115148137945,4.27250873445126,3.6678456388487,3.70225742894171,3.67922642037233,3.86250890015219,4.19555004641077,3.15748490309721,4.09589460368903,3.36200494473068
"Ibsp",1.27169190766762,1.27206768074633,1.0897997730949,1.2723180181312,1.32257294414053,1.47742723892775,1.32425571394438,1.32319504506972,1.19943636064016,1.37395717527998,1.38513253382538,1.50593213673977
"Idh1",10.4339167742284,10.6953828504984,10.4326011681764,10.4849121138224,10.2387921467437,10.4942067868843,10.7646523392542,10.6878415458436,10.5826806059726,10.4397074812725,10.712312466622,10.7192702981094
"Igf1",11.2417830773056,11.408029249043,11.0329893525104,9.9054898574989,7.93089131348466,9.42455689733717,10.161238017289,10.1374973514367,9.08227516944268,9.06129382464733,7.6443508261921,9.20546533915849
"Igf2",13.8774764749868,13.6757823746404,13.8134336515653,11.1796138055817,11.1579672446864,10.038049812924,12.7483909261462,12.593057269811,14.3958390401352,10.6782817144899,10.4757913299607,9.94585806552697
"Igfbp3",12.04605582023,11.946270298623,11.9273370357388,9.31602431303369,9.11502566740237,8.72890843743029,11.0306474158072,11.0787686135295,10.5808655900049,9.84358542577982,8.32324781590083,10.1127016219792
"Il1a",5.38823814081454,3.53939555733672,4.48533393167062,3.25730705900479,3.37622190381872,4.24162181282371,3.63614758216744,3.62988078482463,3.45910096878871,4.49553625957582,4.80702767944513,3.87882077021085
"Il1b",4.91927294759061,2.50190086152533,2.9810476599761,2.4194323896071,2.41291503740678,2.73904493208204,2.50459479499605,2.41501173354219,2.60790658601391,2.78985448962143,2.83220558161035,3.06959473987788
"Il6",8.50285557801445,8.21428646566245,7.61959122238083,9.99655198074724,8.56362857547418,10.244897941181,7.63951606402572,7.58157397363166,6.67715641692964,9.99422887555074,9.19638832632156,10.3028693392226
"Il6r",7.21608961411053,7.11363915681456,6.89789728421359,7.02512363063051,6.63338089658287,6.54795734746051,6.31491258702869,6.36384450585271,6.48036514751863,6.55858906944861,6.0430037618197,6.70807183195136
"Il9r",-1.73740821478012,-1.73711588059235,-1.71194348826736,-1.73692383876586,-1.6872749436605,-1.73705540471079,-1.73697829801465,-1.73720292545536,-1.7363898458782,-1.73688610136947,-1.7355160628569,-1.73726439389125
"Ina",3.86454283184432,4.15678968720166,4.27546557510684,4.12577889238582,4.28078143234264,4.05713294646024,4.53439159314896,4.45180125276222,4.26959278002725,4.43800296163199,3.94170771441556,4.29470688127226
"Inha",5.63037642873804,5.95000845692611,6.09692372543128,5.98146898621348,5.68723803385345,5.96155787118971,5.90633141727914,5.98431884682354,5.7023084110221,5.84561362769206,6.0769614172469,5.77036859974327
"Irf1",8.66587883432102,8.85317912639894,8.55915163380173,8.47851561976439,8.56047175726554,8.13252198920948,8.02412900115449,8.09957667818181,8.10644484817933,8.15501618454156,7.79332801442038,8.51692913683353
"Itgb1",14.9471473598539,14.6421589778487,14.8106655335328,14.2608089250252,14.3947930357626,14.733611567018,15.0289947575078,14.9901486696997,14.8989341597953,14.9530089875671,15.4299880004557,14.8803130965143
"Ivd",9.81801138840127,10.2095784230923,10.0738394689241,10.5282912018906,10.3642606341089,10.308774122658,9.91133994603208,9.98616452717207,9.71442853858819,10.170273503669,9.95568742389028,10.374761393958
"Jak2",10.2426366478913,10.1497004874923,10.1811686033638,11.4263711065694,10.9960858202928,10.8936572716455,9.99905167873314,9.97920774605807,9.80387250279454,10.4024881707061,10.0718443789915,10.7549946405635
"Jun",10.3633111741664,9.65822268929588,10.2086707020334,9.70726479159694,9.33637243357686,9.47855492654297,9.82803805993303,9.79777993075411,10.0217315611436,9.95303390681904,10.2088456406677,9.71747712368498
"Junb",12.1346073563372,11.8501495618676,11.672172393121,12.1298994878768,11.6803525860291,12.4239973522173,11.6666568808644,11.6325657512528,10.9142586084152,11.8932352171622,11.9624266948283,12.4645184143557
"Jund",10.9379694745025,11.1678677159971,10.9475196845072,11.3157434976951,11.3603240265639,11.248300828987,10.9691412037694,11.0512774213114,10.9846239272026,11.103815092301,11.1626051936095,11.3539273721781
"Zfp354a",6.95476307593646,6.98597446890054,6.8929862739396,6.98639994431946,6.87714410812082,6.92330473587906,7.00102197396869,7.01579097637955,6.87822028205258,6.80147835987815,6.89521113650366,7.06438073013243
"Kras",10.0280527623338,9.83167999796674,10.2195919585406,9.42039932626325,9.51449717796601,9.58990431866091,9.97994373991606,9.99289182473717,10.106682896456,9.75653040051873,10.029461521875,9.36054920213086
"Lcat",6.78893590636425,6.80675376258267,6.86747720171072,6.86759639750939,6.70646297933262,6.75568242190159,6.75476754640994,6.80143949891992,7.23933095779618,6.97609582750423,7.38490755406215,6.6809891549341
"Ldha",14.6173919473342,13.7033293799185,13.7520594464184,14.144383593747,14.1495226930457,14.0617590823574,13.7485363901064,13.8263125715959,13.9715968548661,14.079110559448,13.9009693977408,14.2993628828264
"Ldhb",7.63252833555144,8.02234685227678,7.40656534382834,7.56261440080139,7.59018554963777,8.00590479334738,7.56220383600783,7.76450561277849,7.34021510437819,7.93570236598608,7.66614526787354,8.11543086890275
"Lepr",4.31184498996948,5.00422515903399,4.73008463675998,5.33672890355151,5.21667094442694,5.79097605918226,4.96275798632174,4.78939782757767,4.51353104723112,4.96752877198761,5.59447167456327,5.05722138554275
"Lpl",8.08741972719237,9.10825448911368,7.62031137540756,7.57530926506167,6.77596266422012,7.36846036350274,6.68145814548565,6.63932407395401,6.99941209869842,7.32435261573146,5.9771767351763,7.09644502035891
"Slco2a1",11.1877391825101,10.8111351511206,11.7730168140314,10.8067433008003,10.6246112836071,10.5141283132887,11.082860631654,11.0787173896607,11.206237822084,11.132522779683,10.8611790767283,10.2993714484779
"Mbp",3.48768719328446,3.46174346578103,3.20811367538553,3.89964338109713,3.71979182424851,3.56246535099407,3.27295972604892,3.35043893971184,3.26179055383923,3.27443463307434,3.29707589817414,3.84951795049135
"Mdh1",11.2153790030331,10.9980690184411,10.9050452368792,11.1611085682481,11.1126931191903,11.1826226387899,11.0493783827052,11.1075447125396,11.1438402681338,11.0341762916356,10.9937322530961,11.1045325306417
"Me1",10.9249777298048,10.7242797547811,10.8384335071051,10.2102159372385,10.3214689008223,10.3284557411736,10.9066925470367,10.9230883632772,10.915787294614,10.611404110479,10.6000381754608,10.5284062165575
"Met",8.95391474493865,8.61662623762005,8.87271679311448,8.51397850418719,8.73854995376372,8.45592252213006,8.86728298402403,8.76063937947494,8.96160856198549,8.45705470650268,8.85596930000062,8.59176002802592
"Mog",2.751283714335,3.01447151742019,3.15018780577914,3.02031911385605,3.18088294105098,3.20900989419406,3.40734691246172,3.15896961120405,3.15325438230577,3.51200596981761,3.27701753333243,3.14869657446006
"Mos",0.295304883845736,0.296369675806889,0.325195301098681,0.341014011948037,0.33833531284963,0.324625059647604,0.296877131574883,0.296050718670599,0.329360449075091,0.297219467101669,0.25152667194362,0.227168127049155
"Cd200",9.12213836220949,9.54986252998049,8.86886711210726,10.911471193484,10.7800805938803,11.1200570339727,9.49937639167889,9.50000057015104,8.40115619513684,9.91031706355879,9.60159494786475,11.047340485187
"Mpg",6.8923222034245,6.91181868037619,6.86494793610319,7.03606176951863,7.05197482347334,7.12650192986373,6.74448809693232,6.92260348593739,6.64402392118162,6.90454037264081,6.90527867751674,7.04907026776143
"Mpz",0.81412416438933,0.59628798144457,0.714335626595901,0.646466512197653,0.596116975875089,0.515437217607289,0.646240533534688,0.64531573484157,0.849352973576826,0.646623509581238,0.59759958752471,0.515261681914407
"Abcc1",9.40907351126922,9.61333744913428,9.65988510336326,9.66417830823698,9.56419892907306,9.76290259908083,9.74835288223461,9.64503429099002,9.66013607419529,9.78096405832326,10.1238362978227,9.69156408690268
"Mst1",0.410997130230871,0.366419052333213,0.410617974261083,0.574979156332414,0.494548752219498,0.5523500334917,0.412590642473209,0.366367799673233,0.410999915868716,0.575488488149947,0.367410752250603,0.410432963209995
"Mt1",11.0530388029474,11.603126918857,10.7826361185894,13.7685829822693,13.1597936081993,12.9028745008691,10.5622060104076,10.666715000538,9.76007557405701,12.1980265996286,10.4861684621159,13.3032429989661
"Muc1",4.36766402000295,4.24922895045013,4.31739261258101,4.25440398223588,4.39910436064475,4.47259286643742,4.21782648132443,4.56216984955325,4.49064591017801,4.41411465338607,4.70360208883853,4.30342580402156
"Muc2",-0.845298460879272,-0.845218886117274,-0.89429590739123,-0.845165840353458,-0.845278928751593,-0.701246363195116,-0.796637354233386,-0.845242727741242,-0.893905120617661,-0.796305866181715,-0.844757876341201,-0.842505579095562
"Mx1",0.934366309346508,1.2029121116509,0.949367537228724,0.982011514278812,1.05795198996878,1.00254613926584,0.890987384017247,1.05987200303547,1.00564506275713,0.841876351557552,0.843271538142363,0.949065861747129
"Myc",11.2468942945757,11.0851694635838,11.133576592748,10.8822522119056,10.776903019509,10.8138603023714,11.2114248924573,11.2688890248694,11.2477392502198,10.6480616706087,10.8903607176604,10.8098015022457
"Myh11",8.09721905034287,8.74193594322598,8.81844002339347,7.80386986721765,8.11623302324367,9.73214941769039,9.6752253870967,9.59945889047122,7.64008769191756,9.48804981358926,8.97975973298537,9.06019872108494
"Myh3",1.75888699081172,2.04599467899296,1.9459498980183,1.9201552613439,1.67141228603155,1.62327862767923,1.80413036567424,1.76038440665534,1.81054198909551,1.71841301882788,1.6740720733172,1.79695402603434
"Mylpf",2.1470409366282,2.31594588190329,2.22682704788004,2.71340536042933,2.14764497636172,2.18193288244749,2.19578435723646,2.19327746882245,2.19169975833248,2.19682144339272,2.11148245503111,2.41024175124263
"Myl3",-0.417975818624217,-0.372063118215603,-0.441455443776143,-0.371390802033888,-0.417952279746813,-0.441761960692547,-0.417834173300527,-0.417908648510842,-0.389909301537096,-0.417803307702347,-0.417323770416415,-0.351999253269541
"Ncam1",11.7182271234119,11.3667236175301,11.7520187929436,11.3973361221137,11.5289124405357,11.7258758987012,12.3604893150463,12.3677759115471,12.4183936582995,12.043280741073,12.9797894862601,11.9849790288146
"Nefh",8.38170906081398,7.06621724318057,8.23649597909352,8.13594922483484,7.90804401392137,7.55580543540949,7.22447131999551,7.30550983967905,7.76898308259388,8.74138856914843,7.57924277910947,7.60998152824472
"Nefm",-0.0906099248027628,-0.333009192889301,-0.306182329966093,-0.382273123080568,-0.333831090471623,-0.360464618135581,-0.382295623794133,-0.382387663140596,-0.360164512706232,-0.382257488422067,-0.381665720601606,-0.307353452793422
"Mme",9.8504482528076,11.110113750082,10.4578240867153,11.4160625019435,10.8482119906527,10.9697977183299,10.0685636444883,10.0309621680382,10.2720408225966,10.17523147482,9.91517301670848,10.0077207721286
"Neu1",8.68450573566276,9.1796007694158,8.99315929596702,9.03611172405231,8.97331705182363,9.17093956433578,8.84790014415076,8.89698158655631,8.22564261999496,8.74182441308368,8.89294372096022,9.23685109255498
"Nf1",8.66527606624049,9.21225826958728,8.83657201807751,8.88939612572129,8.80818704413593,9.18445574817984,9.12371630451491,8.84747573774775,8.97779463277269,8.7633663063667,9.02393761652279,8.66798433638853
"Ngfr",2.60922123363782,1.90403642049315,2.05013352213101,2.04602598205913,1.99692199221958,1.90636791113343,1.8522893805944,1.90355719965078,2.10446970340126,2.12929329220086,1.85554480190832,2.08747401471631
"Nos1",-1.73788338822023,-1.73756982464122,-1.73741764641291,-1.73736383668309,-1.73780590546625,-1.73750495698408,-1.7374222507779,-1.73766319072676,-1.7099428247481,-1.71047511845324,-1.70900558735714,-1.73772912301782
"Nos2",4.26509956438288,3.53251935972364,4.31981140548238,6.51329179380483,5.5303624351099,4.36741562372398,3.53458956267271,3.53121453627384,3.15860336604596,4.28779478835237,3.78699281913619,5.64510203447587
"Nos3",1.07064571594062,1.07091109700727,1.19225550464046,1.07108802486641,1.15912498881365,1.11232952565862,1.16159250943331,1.11652090230259,1.12084023838056,1.11781249006665,1.21811035851236,1.06747777479179
"Nppa",-0.664999140149968,-0.66491728917598,-0.576977994160308,-0.664862712262215,-0.577537158688577,-0.674459315206958,-0.664878254563688,-0.61961528327121,-0.622030962203075,-0.574729905565311,-0.664442603758182,-0.674522902147225
"Npr1",4.02695335987805,3.72949762287302,4.07134358750284,3.92853157039215,4.12983737274863,3.66009375112444,3.83330513541038,3.89089690579616,4.23130902733399,4.3569858625659,4.06047302551622,4.01549406162899
"Npy",4.49349939944599,3.37232149484406,4.28620872691212,3.89821630607561,3.95823540805147,3.97977163776464,3.50563289359059,3.61400713776049,3.54946723626017,3.84484572207473,3.53835773030223,3.29711044513566
"Nras",11.4839210607749,11.0022407574052,11.169463486128,11.2625566821089,11.2666023825863,11.1012530862645,11.162681590206,11.111316021902,11.2998949645999,11.2269864342954,11.2423678931317,11.3087248742127
"Odc1",11.701432805848,11.7837413605796,11.7879612433078,11.6794587414311,12.1683856235556,11.963831219599,11.8573609924321,11.8729182959395,12.2823781810751,12.0338655625679,12.2437553701909,11.6362887322904
"Odf1",-1.01210357137401,-1.05646054685086,-0.992349025224961,-1.01049097727715,-1.05650746598782,-1.03966705514789,-1.01067457735211,-1.01142571519744,-1.03841295202808,-1.05641087958443,-1.00690603220324,-1.04006085051261
"Gnal",0.823925616764107,0.869980712963004,0.921771927375586,0.914871328846015,0.991763656546565,1.00347560334197,0.870523752110227,0.82408655673822,0.831434549159662,0.99699861566302,0.876568148316649,0.827677114096689
"Omp",-1.9764244019844,-1.97622733044719,-1.97191322611107,-1.9592240216628,-1.97637570485738,-1.97196809992176,-1.95926073433044,-1.9762860100874,-1.97151942608295,-1.97607242915078,-1.97514884372353,-1.97210898600617
"Oprd1",-1.47758511772722,-1.47721532870331,-1.49286707776882,-1.4769724048082,-1.50915617054465,-1.49297004409862,-1.50870372229422,-1.4773254363687,-1.49212814342003,-1.50858709786624,-1.50685406346425,-1.49323440560092
"Orm1",7.1030174596108,7.50811036624362,8.26896177960682,12.8254859832359,12.8996608598272,12.1099934904585,7.46221114229578,7.61511859901253,6.50696409193392,9.79805018360315,7.56632976803939,9.50307281893496
"S100a4",13.8834693179183,13.1008304708437,13.3978181101005,13.6379151227032,13.5234244254668,13.6675920756739,13.1868885069532,13.274026833264,12.9872494234374,13.5622185597165,13.3426987561368,13.7030763872894
"Serpine1",16.9738570015594,16.0160389749351,16.4390398948415,16.3979049455195,16.6432064018943,17.4790450532137,16.5704462609785,16.5176587009065,15.8334516767431,17.1801357104816,17.71195844016,17.2540665934191
"Pccb",9.7419305068895,9.85563498450443,9.68625161271809,9.97114451929087,9.89959280434877,9.85997918523839,9.84461054959444,9.94211971110489,9.77224433124749,9.83430637206216,9.63472654248112,10.0435578659341
"Pde4b",9.91491302131743,9.43648012598675,9.56571382545354,10.9704268170842,10.5061653953562,11.0770786793043,9.47276559906937,9.34841783601405,8.72604407860872,10.5670285170103,9.9488802812256,10.7137022131653
"Pde4d",8.99735385793343,8.84661819911962,8.99316601396221,8.92310818753088,8.57905835065925,8.64556413196939,8.93175353779122,8.84360658376739,8.82785581566004,8.83259505632208,8.48275782679088,8.75183983836574
"Pdgfb",2.52199609020262,2.02963464064245,2.15635271078577,2.0957740611855,2.02888989822183,1.73025107339921,2.213037426898,2.31268223758917,3.05428682758661,2.03042095391621,2.10658905304761,1.72862156908009
"Pdgfrb",12.7649076130807,13.3800397300565,13.0447977290337,13.2466137049407,13.015446844948,13.6797504298998,13.1279806716737,13.1543852120188,12.4257822224002,13.6435215470989,14.2568498133726,14.1445421872612
"Rhox5",-0.849433610555444,-0.803719987113023,-0.827464572363589,-0.849312025861697,-0.84941570767745,-0.827486836995498,-0.759691295545017,-0.804014666321865,-0.775031705556661,-0.849302400455658,-0.750163549812874,-0.827543506755767
"Pfkfb1",5.7730659042033,5.32402488816764,5.95118573918965,5.29484536463436,5.66734228019695,5.28829545237903,5.34908828536417,5.67474313088247,6.03456962955799,5.89259061236452,5.4010148296665,4.91430682661329
"Pfkfb2",8.04767672886092,8.75220292613067,8.56089504240035,8.66849414980806,8.47876096300982,8.67829340276406,8.60218209389572,8.53612927172831,8.40036398541415,8.47428196581472,8.72575595872317,8.50318959840714
"Pgam1",13.9817033976042,13.3568613566838,13.3609836509406,13.6128281721478,13.5879112266254,13.460772813176,13.3245905840506,13.4132216976281,13.6716312311569,13.4494064913935,13.4465828905236,13.593165213055
"Pgk1",13.8270594129385,13.0517383509931,12.9670054694759,13.6386486784136,13.4756413564599,13.4414547569423,13.0249943895029,13.0860276350874,13.327023043155,13.3830932887597,13.0898078552171,13.5530222141129
"Pgm1",10.5988988696644,10.2333134648961,10.1080569456944,10.6497727077846,10.5082531742654,10.6811603294885,10.2296558374907,10.2599467250049,10.2734522895024,10.510129615169,10.3948113589656,10.6297213119351
"Abcb1b",9.92171875786092,11.5450422510063,11.5807440839198,11.9231249355712,12.1303659812863,11.6235516897474,11.5334394757578,11.5113624024934,10.9101595566187,11.7794831987824,11.4402929426588,11.7779596424227
"Serpina1",2.5538337026429,2.78232029712646,3.63265067928311,3.1125991659133,2.55478567917936,2.29486533498425,2.41930924438325,2.41802325942153,2.25096750155783,2.62342516107425,2.57963508091576,2.34348227950321
"Pim1",7.09016654271644,6.80078222438588,6.64596448085224,6.64367835716689,6.72859902061974,6.53996634892113,6.45718905070226,6.44412310051807,6.79041225029555,6.72660234697723,6.28599110028624,6.61222279161745
"Pkd1",11.5709682679414,11.6083973996723,11.6541245778692,11.0745937868422,11.0163482232735,11.4760186910909,11.7491665657121,11.6982440555793,11.7179305028907,11.4973737545664,12.0354323692622,11.2771884395738
"Pla2g4a",9.5545487455218,9.68360216954885,9.45881582571698,9.60648660946097,9.62296745238178,9.60013701488795,9.4827139692992,9.40143905804987,9.44382777142838,9.64843928977856,9.16162368476008,9.57812987736724
"Plcb1",5.94880314535855,6.15074880007524,5.92522290256029,5.79479582007542,5.60786840714181,5.53193817326414,6.32511820920336,6.1023143492951,6.74914777890604,5.91252928938176,5.22176595183209,5.32566313145119
"Plcd1",10.7876926908434,10.6632060053342,10.694865653713,10.83213861094,10.9538476128917,10.6976448318663,10.6627353286923,10.6810630647773,10.9812786878926,10.6075729663849,10.6401823843833,10.5404301586516
"Prl6a1",0.915481054425663,1.00196213665917,0.953685318683848,1.15281377882352,0.99929476075307,0.999970575413092,0.823744613327147,0.823540270573615,0.851298189659885,0.872868453942069,0.82514290614924,0.902469903569922
"Pmp22",12.3257565180824,11.9031827491516,11.9816355762476,12.2659864326395,12.3456942673286,12.2373186438392,12.1415724216384,12.1303050240601,12.1747330133851,12.4941466715548,12.4116232101824,12.6154464138469
"Pnmt",-0.618457703983743,-0.617464446445988,-0.671711538179211,-0.66308210553985,-0.663198979169328,-0.671736633900521,-0.663097719122712,-0.617761979452424,-0.524013866341688,-0.572802081776922,-0.662660081457618,-0.671800510052874
"Pomc",3.65412009233563,3.54382139790644,3.63278579183015,3.64058915979028,3.76090233711275,3.66375296398425,3.60946143101609,3.57279143113634,3.36529551635876,3.77675187311323,3.77213781000635,4.0034534940354
"Ppm1a",9.98997098766894,10.0352325893614,10.0210884917276,10.0363764545319,10.0626663938364,10.014188569556,9.9820880251327,9.96380011255632,10.0783863131208,10.0546215706113,10.0918457057798,9.994637545335
"Ppm1b",9.63949575021586,9.86960585037669,9.9195689062421,9.89147546724074,9.88815472232513,9.85865400813937,9.86750489782083,9.78018852278907,9.83450410370104,9.90953371803993,9.8954478504431,9.75797637154317
"Ppp1ca",12.7400601644737,12.2236011843451,12.3813611154696,12.1913254360032,12.2912749932876,12.1819194797169,12.3113497021066,12.3433488727555,12.5872396479402,12.35494792263,12.3261388953621,12.2405033423553
"Ppp1cc",12.0880887529631,11.7998583600589,11.74278263288,11.9374501455732,11.9520057676313,11.8462028688501,11.6878642934845,11.7300368403192,12.009870140949,11.8216661496438,11.7513845580329,11.7853217911743
"Ppp2ca",11.5752360230946,11.4549729542459,11.4767337696061,11.2766516777244,11.3106308802117,11.2522564230684,11.4274408532867,11.4012620427227,11.6142016989532,11.1691375425557,11.4155510835702,11.1722496370782
"Ppp2cb",11.2837240214205,11.0580808685219,11.1750091738337,10.9884535000755,11.1088938803906,10.9798327661506,11.1514924738118,11.1362787579505,11.3305528606754,11.1193214607959,11.1450760271716,11.0102656944096
"Ppp3ca",10.0855905788618,10.3296326054149,9.99675244722531,10.517901413198,10.4471426251563,10.4553388193073,10.3981858439766,10.3538185912949,10.0181628215761,9.98908786337126,9.9880244967461,10.5844379209012
"Ppp3cb",9.87814754788912,9.8249043537202,9.79150398817392,9.57917997070592,9.62607578152146,9.53785751376272,9.80971686111859,9.71586169591205,9.90173296765312,9.4745560417241,9.82246979694083,9.63436155517638
"Pkib",-1.43885635429736,-1.50322145648815,-1.49899152309143,-1.50297309171719,-1.50350610497229,-1.46672520883149,-1.50304352303468,-1.5033340302845,-1.49823603849733,-1.4705526997439,-1.50115243656312,-1.49936707813036
"Prkar2b",8.5414009796839,8.50116887025274,8.7032424715677,8.64759027769587,8.38857525664913,8.55518720326801,8.63325296317955,8.5619443748217,8.34360142425335,8.47058425783778,8.4966988994896,8.51857684071608
"Prkca",10.2091476993036,9.90696921939736,9.9170699752675,9.99687367102702,9.77076332702684,9.64322891655122,9.9629033917238,9.88776681615508,10.2498959515757,9.77792620652946,9.98139430191428,9.9366774731443
"Prkcg",4.17460776556177,4.25310088020824,4.47717707754885,4.41774705128175,4.34436039986219,4.40768975820564,4.3554891583175,4.25075516284203,4.31356124559387,4.47596098554142,4.77910381657249,4.32713452874535
"Prlr",-1.0093472520056,-1.00927994415521,-0.997433161563543,-1.00923506919487,-0.963240228576795,-1.04668741631817,-0.962011270774425,-1.00930011168413,-0.947192798170683,-1.00922618916499,-1.00699213974991,-0.998002726600577
"Prnp",12.2351048980355,12.6589917301707,12.5815739089329,13.1649979559231,13.252330954993,13.1494975596457,12.7048915002863,12.7588766302689,12.7271810156254,13.1665166327412,13.0211357661579,13.0231705500844
"Prph",2.91953901466427,2.84385620392374,2.55165817485206,2.68545427785355,2.67725229757277,2.55088351975994,2.48331291429339,2.74812738162115,2.81807089975534,2.72154721615512,2.49688370001046,2.86737390867989
"Prps2",9.69754469705379,9.670511779796,9.36541079113756,10.3544559449968,10.8131101179526,10.669281389276,9.82755109777593,9.8454635680655,9.4932378959741,10.9517020392794,10.6353713280962,11.3699252101205
"Ptgs1",10.7374045763339,9.20764130792496,10.8557860236048,10.0823290404336,9.4644768485238,9.70759620588132,9.43038927966223,9.48291402057738,9.44771099455911,10.2677351055499,11.0755048820746,9.86310430649496
"Pthlh",-1.19122837951599,-1.23134937295112,-1.26156560740323,-1.27163302300418,-1.27230144037031,-1.26169762283666,-1.27172134635314,-1.27208565266054,-1.22002309494448,-1.27157181956668,-1.22875474920485,-1.26203656662903
"Ptpn1",10.4090303523856,10.1619083350809,9.97607975822226,10.8395771681569,10.6115053104309,10.5216241814285,10.0207754985779,9.95549850169923,10.0456277358254,10.33164081455,10.2317970063851,10.7375348181571
"Ptprc",1.85028742150966,0.931703278081938,0.963772420174527,0.932003203944399,0.931363320131799,1.02492523806283,0.931917837520882,0.931568348162632,0.967239108674389,0.93206250416278,0.934296976367749,1.23166467802917
"Pygm",3.48745423635704,3.93556731819378,3.70180968632694,3.60568226579409,3.56120278188697,3.69929605833908,4.18753395143143,4.02109454749655,3.92562460052563,3.49799407015163,3.67805109170626,3.66055978631723
"Raf1",11.3450754453374,11.2638925628708,11.2843615204261,11.3456305210015,11.2918684756704,11.3408858795724,11.3870141374611,11.3926908859535,11.3288014201397,11.3016953186372,11.3127603770333,11.3662650418444
"Rara",10.4690730748932,10.4131099366457,10.2084337530094,10.4219796780493,10.5138937134322,10.4166599759717,10.2692558530533,10.3598712123442,10.6291153628175,10.0323869938892,10.2904200769249,10.1307861778174
"Rarb",4.45294519590875,4.7732546485434,4.34745812078977,3.77571324587047,3.80476253541368,4.30704094034016,4.63113187803354,4.90987884252111,4.76432824372404,4.51531574428274,4.72485268708626,4.37510008397602
"Rb1",8.22881506363178,8.43451338006127,8.60226204045797,8.84117274519128,8.76448593921125,8.80424787853089,8.56367764135812,8.52304253431207,8.237947375109,8.56277677341615,8.75413181164891,8.69185065031755
"Rbp2",1.36557613713136,1.49681341817968,1.55319082267612,1.64788170251944,1.64057329569011,1.45506958894956,1.53814279046535,1.4545914427772,1.60476675051677,1.57753796680699,1.51309708817422,1.50407975872972
"Ret",6.05521893008821,7.87407643189269,5.68528724777132,9.2267067331179,8.89803581437767,8.48663675912555,6.29867023439043,6.21815550848908,5.45274388043343,6.69824792656275,5.61441241502211,8.81709410964012
"Rho",0.226456214971286,0.226626961666606,0.363298335966223,0.320993173209348,0.273624197389798,0.313465994574395,0.481625160974787,0.361755572859912,0.261585192116095,0.226763296525175,0.280895004094282,0.261020268188885
"Reln",4.95151909269592,3.88086934908035,4.90172152582397,4.48050807441976,4.56881578838436,4.29507077598299,4.45860945966341,4.25511586285987,4.51040227755781,4.38111645281078,4.34932842220044,3.95574667169268
"RT1-M3-1",7.38881863129162,8.2306223126702,7.6153323748007,8.11604103613133,7.70225679431031,8.04465980218416,7.59521086696017,7.69697072469994,6.98604513975005,7.67086643940365,7.38507103853049,8.24689160526395
"RT1-N3",8.77818284535536,8.07423320428314,8.58915995438024,8.52257403358361,8.52084422069752,8.2739313142412,7.81029847764554,7.89799686892299,8.06025805712842,8.12541992939982,7.94701346852511,7.9149321984567
"RT1-O1",0.475228878365704,0.564517996180619,0.594299700512167,0.646957706540755,0.520289270228594,0.593967116502385,0.521637292891602,0.563944007175324,0.544423055024324,0.684846370373768,0.575568012247482,0.543804894963049
"Acsm3",1.40817579325878,1.55323077189454,1.41527210153272,1.75421133286912,1.98697270765534,1.87546987366705,1.35611838073268,1.35574305797326,1.41634250941369,1.41088016154575,1.41834165474104,1.41475244572179
"Scg2",1.07901908152675,1.12245951271763,1.00433740425165,1.20195024966972,1.1592858192216,1.22947853455777,0.991818125093344,1.03709999449151,1.00492411727021,1.08260578222083,1.09251826916341,1.14463836097276
"Scn2a",5.54114722754051,5.93634459999225,5.93097704611367,5.66580057362275,5.23268156960272,5.49022122467862,5.99645943949837,5.73839684900899,6.03255893514149,5.85856533236522,5.9433590041512,5.50262009195724
"Sct",0.611045460936304,0.611274395996891,0.585150819367042,0.708654226253795,0.749315501085332,0.584789152002792,0.611383524188084,0.750612201839625,0.904437726390719,0.661606642187963,0.612599263484372,0.583867910225631
"Ccl2",13.1901720883739,12.6745411433821,12.9708971437745,13.3884749921308,12.7966991700821,12.9587112155643,11.1091281849113,11.0641378668969,10.154084389056,13.3524950433927,11.8682549180415,13.638258955211
"Sdc4",12.681848380535,12.7980135266995,12.5946923868325,13.2880562172446,13.1053069381108,13.094416984274,12.3604015237158,12.3779820429941,12.4947365312661,12.8045606914523,12.4495609852748,12.7490192506409
"Cxcl12",13.3457880092243,14.2957964735116,14.3301474572176,14.734143322534,14.0532524922166,14.808350860686,13.7099316816556,13.6919591714131,12.6786176432742,14.4568022899447,14.4143828936695,14.5339122059068
"Shbg",3.24077369947074,3.31116823135527,3.34665847596456,3.60431004476654,3.36391002160521,3.38196631429704,3.25107629638044,3.21231547915691,3.35967283485926,3.48595123866618,3.38769457785603,3.3403021695078
"Slc2a1",11.5037918760626,11.0733548669815,11.106177886157,11.4743803873931,11.2882442013794,11.2721619371214,10.8993612245326,10.9134349158315,11.0903248563533,11.3874427160468,11.1802728517712,11.3914768403677
"Slc4a2",11.5902321879148,11.4324442882552,11.4628660959855,11.4485628614719,11.5253451759407,11.5326709790809,11.4924622958449,11.539427704689,11.3900124703382,11.6361754413468,11.732737509033,11.8131441868435
"Slc4a3",8.21594115704776,8.69806080262458,8.53676159223781,8.59796290810554,8.51596464339012,8.58568598733236,8.71948502689819,8.62185742879395,8.86514648710416,8.61873243086171,9.01392277909412,8.51336952173365
"Slc9a1",10.2555891154766,10.2118898506538,10.3628435791312,10.3031753405849,10.1727874382697,10.1483232346826,10.1006188467482,10.1572153449857,10.2675742862216,10.3104048754929,10.3657579849187,10.15997829853
"Slc9a3",0.409608693035207,0.46378207100082,0.833318468691186,0.610177843170178,0.409666735316728,0.2997669159876,0.409957717295937,0.409774278393076,0.361818448450909,0.464798431875672,0.411210538929902,0.299584321379065
"Slc9a4",-0.642491533699252,-0.642395767164703,-0.706042787157916,-0.642331936100841,-0.593944973539123,-0.652210070643454,-0.592632835272791,-0.64242445846781,-0.455791997140853,-0.642319306635889,-0.641841248039044,-0.706146174517504
"Sod1",10.9135906327192,10.4543793684628,10.7313109448172,11.0976024310653,10.9805541358061,10.9841836173607,10.8904446512793,10.9008051025893,10.8960323261164,11.3124153701691,11.0279294841615,11.177333699832
"Sod2",12.6037747924124,13.5016661257333,12.7293121434227,14.4481744934473,14.0373361714473,14.3859931774276,12.7415570064421,12.7220238711095,11.7127063803087,13.813328194123,12.7269536182858,14.4693954353414
"Sord",10.0881361553844,10.1439850663813,10.1777037899922,10.548102837888,10.3158812234458,10.1044049858677,9.67544187885463,9.7403057064914,9.79053532332027,10.3668438647341,9.43171095249487,10.082559743657
"Sp1",10.3244692963402,10.6145497559732,10.4181746483632,10.3579483867767,10.2319862261553,10.3455392245391,10.5003259019952,10.3605736779705,10.5259164731225,10.2082625293234,10.4095759911605,10.2142155368227
"Sparc",16.7081502956037,17.2647540141325,16.8477886618708,16.8600792632685,16.9734253102697,17.2409378222307,17.3167026111654,17.3746422248549,17.1063835494775,17.2878959333904,17.5416719375311,17.4685507615293
"Serpina3n",6.94206298159151,8.69601669596368,7.69027534964022,10.2361795383955,9.2349839741929,8.86481476397756,6.12583721870743,6.00424556985097,5.28255748625374,6.55398421992847,6.21246721912674,8.16524110900708
"Spn",5.76204627250995,5.30576502801608,5.80907670115289,5.15400150540928,5.38302116095328,5.28101776786194,6.02028124697295,6.02419868753287,5.78115788970803,5.91088777596105,5.40118579763907,5.60944137877441
"Eef1a2",3.52751231456138,3.31671045082798,3.47811469432348,3.85946805802098,3.87171865595188,3.90564433573559,3.64524894602119,3.73573880968973,3.70684055743831,3.91352597691885,4.20093946930549,3.94483175315137
"Sts",7.40281521601729,8.90848274888196,8.53325029355715,9.52822169224948,9.1035558209913,9.32785586563377,8.61384450112451,8.66195975083847,7.77747185655661,9.31596571329133,8.92044823414009,9.58906882301968
"Vamp2",10.1124575769637,10.6087440165411,10.5413983903916,10.4755912807198,10.1684618359886,10.3162322363081,10.510060828366,10.5749579159652,10.4164063998298,10.373481671435,10.5071507396991,10.3914159063098
"Syp",0.578166864158912,0.536639120728257,0.582684565194601,0.581358345009115,0.57863739567828,0.484698371648043,0.490973003321722,0.579509028579719,0.586915417143807,0.581610597582229,0.542961616898176,0.580629631991752
"Syt2",-1.97335289423374,-1.97314653847163,-1.97525498896419,-1.95534218786806,-1.97330190293941,-1.95764365772125,-1.9730494203142,-1.97320798256472,-1.97484263664752,-1.97298433962992,-1.97201724322723,-1.9754599712915
"Tac1",-1.71235079335245,-1.7371249787822,-1.71191595203126,-1.73693265746928,-1.73734539639609,-1.73706441488759,-1.73698719597488,-1.71214520526162,-1.73639788743964,-1.7368948651521,-1.73552283276569,-1.73727370821867
"Tacr1",3.43095106159735,4.23090458209352,3.92800789242724,4.87841096686401,4.10274376683569,4.64822367512121,3.62799968793268,3.66435196519081,3.26802515484168,4.3678779430126,3.39890798885571,4.00681725880106
"Tacr3",-1.21535167671617,-1.25697362136396,-1.27779181477334,-1.2566505113645,-1.25734393463827,-1.27792876898589,-1.25674213894464,-1.21500627782663,-1.15046757849485,-1.2565870182685,-1.25428193113641,-1.27828039287545
"Tap1",9.24897899858757,9.31935570006354,9.48467114705148,9.38361343321375,9.24960060975098,9.37624710604082,8.75952909108851,8.87500573008953,8.24694854679044,9.00053425387538,8.68106023863696,9.15097222777038
"Tap2",8.83251398586744,8.90093083819172,8.95449551404952,9.11550981400922,8.9946567401692,9.04465311907679,8.04987120798365,8.0287307062982,7.37881733246786,8.61195803537836,8.1249597662807,8.95159958149508
"Tbxa2r",6.15010307350049,7.06354104390635,6.48476725477944,5.3288710638427,5.26422093109694,5.61540605823984,6.78094874218413,6.74836542710131,5.74139029048276,5.97456570808792,5.54721802120669,6.58735340196123
"Hnf1a",-1.20747397897494,-1.24907767903714,-1.28567249805062,-1.24875471066989,-1.24944782998812,-1.159523383733,-1.24884629808595,-1.24922406765361,-1.24259474547806,-1.24869124540548,-1.24638716868653,-1.28616086198914
"Tcp1",12.5506169850793,11.7709536478766,12.0701887974804,11.7629109389386,11.9853063212317,11.783150842872,12.0108041090858,11.9693013820129,12.2848411643184,11.899021436215,11.8388946256432,11.7557239183708
"Tmbim6",12.8045879461542,12.927720732915,12.8630611208157,13.1032709794489,13.1314471623369,13.130957352561,12.8881568110761,12.897925866991,12.723715881428,13.0842241311723,13.042275906718,13.2220704136015
"Tf",2.17903511620638,1.91693649357653,1.9475301501011,1.87173408319227,2.14755515475771,2.13254670964071,1.96156087088983,1.95986189915267,1.91067453857797,2.04503148881326,2.01918132217178,2.05969681606043
"Tg",4.14353052226803,4.79817164892225,4.91718295726158,5.27005394347374,4.99803125917747,4.98472830965119,5.0476423179044,4.92256923652248,4.91668391675961,5.59228148079384,4.98920923048253,5.06214963609999
"Tgfa",8.2841451139854,7.74437842376703,8.71179093570339,8.83998558055108,8.44527927476805,8.83735520523423,8.48601831454149,8.44392928744213,8.32767587831105,8.8814905806992,9.31676669118237,8.34417461421972
"Thrb",7.52278297900416,8.4373892232903,8.15679785161348,8.55339559354682,8.63811665186469,8.23036310639874,8.72888774910137,8.61634180074859,8.60035701645956,8.14085742549592,8.06488124643889,8.36380836027361
"Thy1",12.9204380908749,12.3755561082356,12.9039776401566,11.791207239842,11.5734390112322,11.9893890077256,12.8708157825942,12.9311445757617,12.7126549315499,12.8208674375853,13.161888933639,12.6166570104504
"Tk1",12.1399429650272,10.7313113665636,11.5309204289001,10.9897487506118,11.4072933992231,10.809317613453,10.9489956997858,10.9968138301025,11.8142368925956,11.1783053080262,10.850262638562,10.4668620440024
"Tnf",0.304157732718833,0.411517053374343,0.270678814253596,0.360499146278356,0.304213629288608,0.153403451505617,0.304493824022032,0.304317191408565,0.153976564078702,0.304566976174893,0.305699625963371,0.721673759776585
"Tnnt2",2.80369559918719,2.91212084892688,2.68855259373214,2.81139242444487,2.74875878752447,2.68718373367068,3.63591825201262,3.71279831791975,4.14140177558191,2.69323680293303,2.83463310186674,2.55913896442306
"Tnnt3",5.19448552125621,5.63442082175207,4.97197510060584,5.36910731538812,5.23784405259584,5.672247421813,5.5138898691308,5.48696036965519,5.21922349252713,5.43939531807922,5.08831742008802,5.61876432902677
"Tp53",12.2132970626621,12.1942697469938,12.4016293210831,12.0991346610546,12.2827565978086,12.1614934359285,12.2270552535611,12.3323330147918,12.0076510441162,12.1486972326277,12.1347921495348,12.2453940583894
"Tph1",-0.545024536096691,-0.589848023336215,-0.565962459197091,-0.543358026836226,-0.589913344720822,-0.616432743947608,-0.58980674011977,-0.5898739626652,-0.514446700714386,-0.58977888019108,-0.490160150948713,-0.567039928598274
"Tpi1",13.6788491229102,12.7213930005794,12.7988796944116,13.4322830821582,13.3184977800383,13.2936012321184,12.7682027778764,12.8035573845791,12.9491491226431,13.2100359882986,12.8047632226481,13.3271611303711
"Tpm1",14.4230354667228,13.8354792646115,14.061482502968,13.0939641224138,13.2810926967956,13.8230726188678,14.4860125810591,14.4644125564234,14.2631031440475,14.0869495635145,14.3020640974477,13.8388469086109
"Tpm4",13.9386076284347,13.1147298959245,13.2244345340725,12.6573965694564,13.0566840408239,13.4048777981459,13.474429649464,13.4281046256865,13.1754921483574,13.4146739347622,13.504700915193,13.4898591492969
"Clu",10.9294440441512,12.7012394405371,11.8528164412212,12.3698485353692,12.3676790132887,12.2690574258715,10.9396881524244,11.1007663578055,10.5703935574539,11.042823174294,10.5493817885628,11.3081678286697
"Tsc2",10.5430791541112,10.7351531141443,10.6329939252058,10.6385301900916,10.603245440484,10.7245714539043,10.6324496796129,10.6442169313597,10.6350899389083,10.7328132254841,10.7983400790374,10.6712585891442
"Ugt1a1",-1.49777131020827,-1.43043790256924,-1.43861599620306,-1.49712359410418,-1.49767471377085,-1.50566733804823,-1.49719641796709,-1.49749679372164,-1.50477734110082,-1.49707313099568,-1.49524109146091,-1.50594680204682
"Vdr",8.34469745926784,7.97119245767292,8.13467459527988,8.1740393206503,8.19590956665909,8.40277044253431,9.04522186072499,9.04931487920903,8.863352245232,8.44965736609682,8.23533100941677,8.33188467680269
"Vhl",9.63510792396632,9.96322356069007,9.78255488159151,9.77555215531438,9.82953450109006,9.83082690210843,9.98168328937231,10.0845754666424,9.94915533310476,9.720967745368,9.83037188088024,9.84797114485719
"Vipr1",-0.873946878240022,-0.873875500167316,-0.852737962358054,-0.784070147080098,-0.786621563673148,-0.852759750050891,-0.873841459644844,-0.82863079370407,-0.800423278691545,-0.873818487034958,-0.822667563628522,-0.852815205485999
"Vsnl1",4.71210508844577,4.72340786390307,5.3489294569364,4.53828339323734,4.33063643490205,3.93045322392835,5.34888679011755,5.38119648210691,5.72511503986757,4.94049871855102,5.43117189688088,4.69859561333997
"Wt1",3.69041799420532,3.43777079856009,3.26550882071351,3.31983246660886,3.35281005139422,2.87032427216227,3.27361144180974,3.39655289519087,4.2634684818295,3.2279050222085,3.01537310622003,2.95783531339353
"Yes1",9.57812573906237,9.57830112540648,9.80100011865305,9.62686185302011,9.56928514494117,9.57645890288148,9.85871807778306,9.69392713285227,9.88696981695876,9.5681061094905,9.8421521691668,9.3933098373681
"Tbxas1",1.57083974985291,0.958352351548171,0.965973402729878,0.744350741993083,0.74380582522551,0.841649128442129,0.744278030163593,0.857113288822194,0.842611470287125,0.744401254328373,0.746306196012147,0.904489717513861
"Bax",9.83325110053126,9.97356622485849,9.83119560779815,9.76192666242669,9.82655106351616,9.80959863517,10.0061731003926,10.0548776768735,10.1260816332757,10.0956974462571,10.0321198423686,10.0252056823684
"Bcl2l1",10.6290762010666,10.6469966304587,10.9582404832747,10.8196775891502,10.9546047883176,10.4816602166736,10.5962291461016,10.6320326501054,11.087331841049,11.1136876100344,10.9679300590622,10.652884796151
"Esr1",3.11159545184996,3.25954747616865,3.10684166832279,3.532317415247,3.3369676133018,4.0219069503792,3.17026789774744,3.11561306940273,3.1777300073658,3.3899808986693,4.91568076635322,3.60950666830227
"Abcb4",3.61982209895038,3.34537720533821,3.38735435233174,4.04906993584703,3.9056305302021,4.0313358792168,3.34800858580159,3.25649283748953,3.23928312679037,4.10818687369702,3.68112875129289,3.99888505097045
"Gnas",13.125904168041,12.9634635896157,12.8519665654044,12.9725087133747,13.0236868483594,13.2256378204489,13.0509005298539,13.1247367225271,13.0191728190245,13.0788057290542,13.0900176696215,13.1182347803459
"Kng2",2.09472286556189,2.09783178235096,2.46045591565124,3.59518459448286,3.91063139024702,3.02049562780814,2.01999737323229,2.01857495824528,2.22917192240882,2.10030063513034,2.029577600924,2.22328713421912
"Dmd",7.18376723502882,7.40304635957283,7.58606755169299,6.05344727555543,5.99414954424188,6.57621900292237,8.49360161164511,8.35511921823734,7.9915441595223,6.67203239159778,7.83288301128961,6.84019260944674
"Dnajb9",8.84284671098677,8.95698993702815,8.98968497755233,9.12284995204785,9.07420732818568,9.21275701033456,9.10804060115133,9.03423355684782,8.94625382577773,9.04389870455661,9.20887808402155,9.04727662374827
"Pla2g16",5.67384817991021,6.52924285100622,6.31038691627267,6.34173611408329,6.55718935208013,6.50724109588662,6.19447161170872,6.14088821901694,5.91349947298014,6.29615262334793,6.51550587588822,6.3933899283814
"Lox",15.4813630738406,15.3575007549115,15.3490925247616,15.6862964643276,15.9581981323943,16.0523309959289,15.6849464392427,15.6492064327967,15.3523654202881,15.6676312630281,15.8665013435267,15.9220330110555
"Pdlim4",9.55208545438497,9.77081284114154,9.43024617627129,9.15152389671518,9.0078286353238,9.378299931962,9.73888285271801,9.82104902840019,9.56637216254078,9.16946698490387,9.76238029771578,9.61209672487762
"Rnf112",1.3169511560966,2.48439504891872,1.40623374804346,1.12810527342135,1.258738554073,1.40600759282809,1.4830159478943,1.31976663047068,1.40788188955025,1.12820450327093,1.13193108698896,1.40543087014547
"Kpnb1",12.9247361994682,12.278464086312,12.5408217153655,12.1599456478957,12.4672656480308,12.2615030205214,12.3534867935845,12.3310169352505,12.7687505368444,12.3989130426986,12.4634081738775,12.1175429908275
"Stat5a",8.83888417004129,9.23758833362502,8.86727702437601,8.89126070373083,8.66798378303199,8.84647489892374,8.86166260508636,8.95895937413477,8.63057952513889,8.66576099621526,8.5811045266255,9.00727079780687
"Yy1",9.83692072744904,9.65534851914708,9.65794329336546,9.64666701150622,9.67288390037948,9.6792375095286,9.71648354069138,9.73607549526398,9.61552726474103,9.51188740139708,9.63236727280284,9.75160886668348
"Gabrb3",-1.70677675798599,-1.7324836687981,-1.69006886242628,-1.73228410676396,-1.7327123849332,-1.74217483444507,-1.73234069859432,-1.73257412226983,-1.7414832128494,-1.73224489160067,-1.73082120345202,-1.7423920074783
"Stx1b",4.65207623434106,5.22280177572852,4.4724030734039,4.01305989642221,4.13731970236218,3.99896690222302,4.93773058730079,4.87125844778774,5.00595389877674,4.06071339530721,4.08873079739631,4.51452154391935
"Ptn",7.82687979569854,9.00901683127811,6.84434660702636,4.68628680877166,4.50835442623332,5.46416695624069,7.0878561055261,6.86783493497986,6.49021433461151,4.31043909051331,4.21501600084142,5.45711409904261
"Adrb1",-1.97336232719483,-1.97315502260915,-1.95752313646612,-1.97301883890934,-1.97331110144258,-1.97533089091844,-1.97305745790253,-1.97321674922211,-1.97485891944262,-1.95524204668865,-1.97202053486644,-1.97547909259063
"Ptger3",2.78201146884114,3.31287845368436,3.04329789135528,2.39039652308178,2.43798791115267,2.62470538543014,2.44466857128472,2.49191171379194,2.70374220797474,2.20104886083042,3.92956695895487,2.62348974605079
"Cd8a",0.640168435716424,0.76498504530159,0.724126326186391,0.595740745640774,0.723874335853314,0.723788929694539,0.80390618896304,0.725090359209024,0.6743176703365,0.642165859245807,0.695823031569522,0.673644074532318
"Cd4",2.49041628707619,1.48100587491524,1.45862340162885,1.41813573199674,1.41717915820832,1.3939620413128,1.41800815818679,1.4174857375094,1.39849533601777,1.41822434420711,1.49147215923573,2.02488294670834
"Cd9",10.6473605441558,9.81539856981273,10.1153041857007,11.1184639127677,10.5273818648026,10.3684161650692,9.94802824648943,9.99105917470098,9.96828863291306,10.1297833568296,9.03211450187442,10.1527861020336
"Grpr",2.13795605402832,2.34302640794148,2.50915379450823,1.99345543334439,2.22408487162919,2.14964921147095,2.30906353441437,2.34109120034224,2.31135489524372,1.99355123179605,2.7821710092758,2.09204197016302
"Atp7a",9.31905013959651,9.7112647201319,9.49754863626792,9.45482793792707,9.41270581709492,9.67485393694272,9.87820320216325,9.67795916187669,9.50478119132993,9.37036856129302,9.66632582213578,9.568168916569
"Chm",8.20991448940636,8.59422325375922,8.44258368478006,8.42375577870235,8.32513924208679,8.47210462176546,8.62235127102231,8.48879921313741,8.29908902807398,7.97750821605516,8.51076333081478,8.36245006287268
"Plp1",5.0706347260966,5.92721039240101,5.50930245724757,5.49169363208243,5.40180137308266,5.308481626184,5.08995493460312,5.2744312081892,5.59970105069893,5.32215631665678,5.40948222839411,5.07619727162245
"Lamp2",12.0476773556218,12.7284975396864,12.4069931464177,12.7638561706386,12.4886699670727,12.6697761406574,12.4408891140065,12.4564800915509,12.255706545199,12.4756822531704,12.5205454942206,12.6286731607098
"Gabra3",-1.497790072721,-1.4973981603017,-1.50559713282324,-1.46358400339224,-1.49769322967033,-1.4385928601504,-1.46365701317639,-1.49751485538657,-1.50481399019432,-1.49709011103855,-1.49525339425876,-1.50598643680481
"Fmr1",9.94760084459208,9.85029745688993,9.84183816786885,9.81104373875503,9.7945550802082,9.76752084358096,9.87637500753401,9.74969058152221,9.87109077889849,9.60430796814627,9.70374098934666,9.68835604314889
"Syn1",5.41820626132836,5.34341609809076,5.81911376830846,5.41927487116073,5.23706672849436,5.49846714290674,5.49973993674488,5.4277201005361,5.62441057760973,5.52393133535321,5.33970798650604,4.6625401702823
"Srd5a1",6.90066869976607,6.20297599285213,6.73894550437717,6.51946984640372,6.72032254296543,6.45218608742307,6.39909221308393,6.27530579039291,6.42088316895884,6.53869033378518,6.30539163540091,6.31894376656605
"Gcgr",-0.64252939212514,-0.815236094239445,-0.770437667156217,-0.721271530431354,-0.723938587461267,-0.770462783667471,-0.815196802916376,-0.815260784197317,-0.770253874183663,-0.815170289630634,-0.814758611423889,-0.77052672120536
"Insr",8.02426881786721,8.77676993006085,8.31659458372775,8.27996890752268,8.23961178839488,8.21806839594337,8.27901103144103,8.24309603776255,8.5911501287262,8.11472221486145,8.40273502001081,8.0542787655634
"Glul",11.4752376672527,11.5019159751363,11.5015691730841,12.7272000826065,12.470568575376,11.9415362491903,10.8589951614312,10.872485872099,10.8181969038947,11.4763953514383,10.4670376297205,11.6636158313611
"Pgam2",0.77219105374648,0.772421816383521,0.847908987413217,0.818960934944251,0.860268002795467,0.847838605017106,1.01728118038063,0.902332659774593,0.997036854669126,1.01872017120365,0.918711973156575,0.847659449093135
"Cth",8.33520002207425,8.32453234615228,8.72165485420128,8.23715395759872,8.56339801948386,8.16169505617012,7.90334625554141,8.08963274744743,8.84071257589106,8.09789802834627,8.61015929645206,7.35659785028569
"Hspa1l",3.52847953741904,3.46457242271422,3.43585669579915,3.75540579772194,3.59577357508286,4.14941288839248,3.46765631688658,3.56722873459503,3.49119976530654,4.09656843830655,4.05585457743592,3.68930035058291
"Psmb9",7.4690089192562,7.41743353976368,7.2889634137689,7.49469166651803,7.58120688122754,7.31006850276155,6.74351881028831,6.75054567903065,6.31722418977342,7.0624557740179,6.23894145425551,7.46264525587503
"Psmb8",6.23746767995123,6.46578361960542,6.32806847387779,6.1457650767601,6.33861975075254,6.30483942068461,6.71794923411268,6.66845703151372,6.00744960560106,7.27702341360069,6.55175289255135,7.5610518492604
"RT1-A1",10.49368135661,10.9006180861396,10.8013377765488,11.0910832947507,11.2054528138897,10.9244294443287,11.2156522223203,11.3262741003698,10.9141719842269,11.6380513105389,11.4748149412556,12.0328748578329
"RT1-A2",10.5344659109019,10.9142841034679,10.768272425021,11.1724089777077,11.2177977425321,10.9903580444074,10.3791811615641,10.4135192592901,10.0423876357428,10.6605794934216,10.608447803766,11.1493241211545
"RT1-S2",-1.74184761956225,-1.74156188828452,-1.73224878392275,-1.71690902763591,-1.71731185783277,-1.7323283446968,-1.71696225682153,-1.74164696707779,-1.73167781874534,-1.74133729905174,-1.73999820540098,-1.73253261346886
"Tacr2",-0.865138002728541,-0.865066033443818,-0.842516792678947,-0.818835511050663,-0.777738210336226,-0.842538760256852,-0.865031711093064,-0.865087598749419,-0.842355988080027,-0.818706116552632,-0.766013570093616,-0.793396836008163
"Lta",-1.9733388600713,-1.97313391582271,-1.97522794410409,-1.97299928268888,-1.97328821756733,-1.97528501004095,-1.97303746197235,-1.97319493962626,-1.97481841235741,-1.95542489420153,-1.97201234517728,-1.95788359206137
"Vars",12.2390331845394,11.8337447159173,11.9967823348164,11.7258241501887,11.9372190867104,11.7977962085302,11.9740462026633,12.0808098990774,12.4039971085038,12.149348014278,12.2112674220502,11.8770706858619
"Scgb2a1",-0.564946821964416,-0.564858821686263,-0.502020987014794,-0.51869620748022,-0.399528144383477,-0.502323530845808,-0.564816854414882,-0.564885190523316,-0.551914886116533,-0.474851740037112,-0.564348470284546,-0.552206721409981
"Snap25",2.58184867826848,2.77587892409636,3.60808932559253,8.84627496230074,6.04747297844265,5.35690121499024,2.59428934297471,2.48278301429837,3.62317410096725,4.26729962549801,3.00124359921815,3.71038092099872
"Acat1",9.84227608938905,9.9016182234459,9.69098609637348,9.81920191512855,9.79213075043481,9.90357874832924,10.0500227483479,10.0317254227326,9.9792712309368,9.80924238046974,9.86175438183792,9.98014988025372
"Myo5a",9.74286546447527,9.30346463452275,9.54132949130405,9.59307039208605,9.37633510065973,9.3812132328929,9.58915355449716,9.38556317471569,9.89627030422724,9.65784450720763,9.65194244489341,9.33130660810464
"Xrcc6",9.18258058806424,9.05307132404323,9.23468324315708,8.97256112020153,9.04146853617825,8.88631695961921,9.06916620042665,9.01464177489892,9.17163594582637,9.06991759317286,8.91653216809569,8.86733350393803
"Itgam",2.48944212425811,1.39936738028716,1.57255733666975,1.52912694754096,1.39877341483302,1.37332945957485,1.39974153519081,1.39913180158054,1.45015489220142,1.46759902840716,1.40385383528679,1.84747634524625
"Fgfr2",11.8375206750437,11.6521365972882,11.7385389275376,11.2561371110122,11.8201858832181,11.8928832007829,12.5632338857467,12.5342719701579,12.1413897887199,11.6598535708721,11.8967494823296,11.8372326707938
"Prkcb",0.879856966777176,0.704896768733926,0.650920334069473,0.705730325073708,0.703952300925793,0.5975515468841,0.6535455177139,0.653348271704192,0.541990719512749,0.653627225518661,0.654893742651076,1.01446295908289
"Gipr",0.224732212750939,0.224887180255805,0.27611581321254,0.314977356613293,0.352745795513384,0.325968810502536,0.395097611451673,0.353936274989037,0.276461902502949,0.315225074097734,0.225785716432049,0.325147084833932
"Adm",9.06182629202616,9.89285651138401,9.29185548186834,9.58086566248953,9.59483172690245,9.64199929682874,8.29930689447171,8.3327523470882,7.83562575916131,9.36137626925434,8.7357252357333,9.66028993181645
"Slc16a1",10.1923421244569,10.3125982194962,10.2263859761746,11.26350802847,10.840573990044,10.3178704312739,9.58114088184665,9.72073197355763,10.3638172766361,10.3742627173217,9.7232161972746,10.0961133821492
"Ampd1",0.646394379844255,0.648323575351203,0.576851311122596,0.649608016904784,0.603968839742293,0.626934166436216,0.605329796998452,0.604471783775471,0.679191781239466,0.605685218638052,0.747897972499126,0.67286253307854
"Calcrl",5.60343825537828,5.60681638496021,6.08786926263529,7.17487146659485,5.83035377627392,5.47222161701148,4.89422533209714,4.73713606239497,5.35381702291037,6.22415049996508,5.32825293530604,5.78571445392811
"Plcb4",8.32765275005768,8.87487016460908,8.68396470252168,8.40311679560559,8.05052573713237,8.73336859937599,9.08241309001357,8.99121063023367,8.44185902818093,8.79400980956137,9.00092523535582,8.90316977620598
"Cyb5r3",12.2602632081883,12.3157534991539,12.1861203325187,12.402553178917,12.2074172040477,12.299517284732,12.328924112801,12.3894735012787,12.2094813344537,12.2622266611427,12.4034935160683,12.5899334890943
"Mobp",-1.02593858810678,-1.02587119481811,-1.06326983891865,-1.0258262641256,-1.02592204688041,-1.0144290818264,-1.02583905890146,-0.934731938952155,-0.964126068535831,-1.02581737318392,-1.02337991778557,-1.01483820209613
"Gip",2.1025655235758,2.00084464091037,1.99551152497799,2.00376024435044,2.03452669825195,2.13541759442819,2.00293074421154,2.17152313507074,1.94400253576243,2.07853564997868,1.84054797451664,2.04268565026448
"P2rx6",2.11979623130614,2.20088227515917,2.26757374491968,2.40295517843729,2.15987215453223,2.35511827747553,2.34123174590947,2.30434225810283,2.22331772802919,2.37425913830172,2.22579593725174,2.2185577090759
"Eln",11.914994402615,14.4915590215728,12.2111938954,10.7307184295507,10.6502941539067,10.4007547496192,14.9465684895821,14.92966914113,15.3381722752431,10.3694257784274,10.4114906909502,11.2722391336051
"Dbi",10.6021245352094,10.0313848693546,9.98276708858227,10.1392413616668,10.1833763273257,10.1700022929141,10.3294849994005,10.3400243357179,10.4597536224088,10.2372526336411,10.2330368112987,10.4354399329021
"Atxn1",7.14689803247416,7.84724860174549,7.12452479907506,7.75608910311266,7.43443466529846,8.30057648032907,8.15381580641307,7.77669948031274,7.53622420548484,7.47965445676528,7.86238395856977,7.76728656745684
"Camk4",2.5924601049474,2.53186669141012,3.55541094327756,2.53361257761192,2.46158084764043,1.89734888282436,2.8188476183517,2.90603176984692,3.03435178891792,2.65977433396861,2.54686159659425,2.03840615516584
"Cyp2d2",-1.23208745196397,-1.2316202311882,-1.26139709799434,-1.23131330187611,-1.27197682356604,-1.26152719382027,-1.23140034093461,-1.27176417357809,-1.22045864610891,-1.27125781201869,-1.26906815893174,-1.2618612091052
"Ntrk2",6.71889625289524,6.51850416961344,6.34424572888662,6.09031433211768,6.48117901908007,6.83866980515802,6.22948785346388,6.07692027759503,6.28079763371536,6.85441458344483,6.03236489072679,6.03732752170848
"Lipa",10.8106568616919,11.0709798350256,10.8632450945305,10.5213263221058,10.4214867810662,10.7356472787317,10.8534997213378,10.8461937327649,10.5893527111755,10.5932834318463,10.8362662676332,10.7886013922981
"Rbp1",3.85912287059013,4.67049382041871,4.30186791790903,4.14474058673173,4.72543370300878,4.15293190040745,4.76440043678901,4.73206441706365,3.36063494025584,4.01782012020491,3.8373625230736,5.56028448036795
"Hk1",11.5356409146926,11.3966251167083,11.461390126937,11.6133258242232,11.5031375325403,11.4750873263617,11.4408659303246,11.466257462733,11.4874368995787,11.596386771936,11.612344351264,11.6583775993336
"Hk2",9.8739932799246,9.55627445356503,9.59884390543343,10.2656278915265,9.89667711745502,9.6135013784818,9.19367250765483,9.23657385193447,9.78189813664223,9.7289111498408,9.24413448586031,9.50368894832334
"Hk3",2.9084153528274,1.7339347628016,1.88284324483977,2.2206027567837,1.60962578018189,2.00674223632832,1.6107044064167,1.61002472315494,1.81501743312693,1.9892402602216,1.6153197484047,1.94433098110125
"Crabp1",6.46903151329381,5.66264655158983,5.71886718302429,3.23644485820779,3.29989599690068,3.7853838352878,4.46522624928037,4.51688516310498,4.17774312710053,3.31032051862233,3.81230350034198,3.70438303025827
"Gpd2",8.77514563319495,8.53211586135705,8.85669534598814,8.66708133329889,8.75197898695045,8.73395636751503,8.57398421793721,8.45168671662493,8.90916127492106,8.89964389150104,8.76015273491348,8.20608169946477
"Slc12a1",-1.97634528628696,-1.97615125704974,-1.9719037518774,-1.97602379426685,-1.9596839842036,-1.97195777857137,-1.95944658346092,-1.97620903082058,-1.97151603115347,-1.97599874704849,-1.9750894195094,-1.97209648972104
"PVR",11.3804906975654,10.1460320229319,10.7822189506774,9.88493293049834,10.2192467043423,9.81170683026814,10.3495372516932,10.3056133622239,11.0664321281629,10.2205969418437,10.422392615088,9.80406335398495
"Tnfrsf8",-0.44746258484195,-0.358897662356605,-0.410891529383033,-0.357687290006174,-0.282167923871079,-0.410920841660278,-0.447320747370165,-0.447395324568177,-0.410676963738631,-0.401121755683713,-0.446809588218561,-0.361942103676269
"Scarb1",10.8451924853958,10.4028628708777,10.2108177842267,10.3929738190499,10.6085076869113,10.3387908078843,10.6897899480198,10.7684224868869,10.7318159393257,10.5292617282354,10.3973973135229,11.0357796380131
"Htr1b",3.42794670407976,3.43020728839264,3.77953533542793,3.61033785774621,3.87565074508372,2.9605309134221,4.09943022265633,3.91830265948277,4.63747061101748,3.76047617972903,4.33788498192911,3.85258145968229
"Apoa4",-1.96998596621827,-1.96977077539722,-1.97887897632922,-1.9696294110271,-1.96993279174724,-1.94208834724904,-1.96966949915553,-1.96983485020038,-1.97844896927402,-1.96960163206162,-1.96859312972177,-1.97909273491228
"Apoa1",1.26676975374892,1.22210359642463,1.11662262405656,1.17272488647932,1.17225255404487,1.37111711786841,1.22272067405128,1.22171563446045,1.38586158194726,1.31564674720905,1.28137380307275,1.06405250087341
"Adra2a",6.57489512232914,5.94164534344191,5.57034169444537,4.46873659094519,4.62277615574706,4.30553221345238,3.93423750493769,3.87908469109081,4.85273007381514,4.57494308632685,3.5530225232587,4.04606652732578
"Il4r",9.78818874730155,9.57195620321037,9.38146988228423,11.0908184808813,10.4616196022384,10.8254452719239,9.34640653161114,9.37495725779161,9.21600279113246,10.5317903010479,9.90379523269904,10.6118482330501
"Th",-2.21310014842518,-2.21299931362583,-2.21187115493429,-2.21293307265966,-2.21307523176242,-2.2118992319959,-2.20431808375655,-2.21302933800089,-2.2116696608607,-2.21292005590366,-2.21244748866962,-2.21197131861102
"Cyp2e1",-1.97636063818381,-1.94283821629962,-1.97190559085807,-1.97603816805696,-1.97631254695182,-1.97195978192276,-1.97607442394154,-1.97622396817405,-1.97151669053332,-1.97601304463499,-1.97510095055946,-1.97209891508698
"Mitf",8.24639594761324,8.18202813401976,7.67780599976061,8.50239564076935,8.4363325299581,8.6082964560869,7.65108941532962,7.5757214531906,7.34624695517538,8.28951606463158,7.7045268157652,8.66165358961583
"Ampd3",4.99227909693144,5.35345389961718,6.04016759514281,7.06731013777567,7.16889003859674,6.26395736090823,4.94137834683847,4.8611444621612,4.93090782917773,5.69141664181347,5.19463328093501,5.40022016710582
"Pld1",9.60818950319076,9.3293528101344,9.6387960930459,9.84763578436423,9.63034586531512,9.97499561000799,9.05554274648487,9.03278410461844,8.69672748869685,9.40734611510145,9.46386590643143,9.37701222606962
"Pld2",9.18019339091598,9.09322155391755,9.09979947863259,9.37810716919428,9.17930580734748,9.16735887426031,8.97458088132612,8.88531346031304,8.99974953831559,9.08558207984627,8.9581096931207,9.10029912678225
"Foxa1",-0.852940916589673,-0.852869009617593,-0.864945580737049,-0.852821063127137,-0.852923268602366,-0.72372310176091,-0.852834717236465,-0.764586403663755,-0.864784926069664,-0.806438712310705,-0.801539906828117,-0.865023390420282
"Foxa2",2.79831116720218,2.703945270252,3.4478414539782,2.80587402216464,2.79943383662862,1.52369553973417,2.97772133117822,2.70297547472164,3.99153010233839,2.70651401278558,2.72207967213629,2.14536029748383
"Foxa3",0.488756020100826,0.44556133539428,0.631288301971193,0.397906526669152,0.444710573848388,0.356219207651677,0.491672743646666,0.445223587323956,0.46260125521915,0.446461038184023,0.452074327130893,0.356074311307072
"Chrna5",0.789399627199007,0.740641249355806,0.604268035202832,0.740809227664844,0.922112340278967,1.00267506476889,0.74076139950537,0.790258194547025,0.765661824162364,0.791602810972339,0.7420995201782,0.756237260716694
"Chrnb4",0.386680823514097,0.386848861746347,0.399512305746099,0.386960896964535,0.386722066504538,0.351417888223895,0.386928992615893,0.432477528271231,0.494277131273824,0.519891198622212,0.487409770404793,0.441752744078006
"Pc",9.50086894650073,9.67294705849982,9.72915127442017,10.1339721904518,9.86234160522949,9.83055137092229,9.34185770549583,9.411032494349,9.36428850186304,9.99404878007431,9.64811823731252,9.85860236175128
"Nppb",-0.963277788412048,-0.963199850119833,-0.942503436989492,-0.963147899484435,-0.915007275368714,-0.94267739491492,-0.963162692465441,-0.963223200636974,-0.887762494232728,-0.739338299679984,-0.961777694511455,-0.943124024202302
"Rgn",2.1027266250082,2.47904919722066,2.27732038102754,2.42035723886053,2.23186078991676,2.48955823136966,2.31428571395749,2.34629413919034,2.17579119338317,2.42122189871385,2.29991580809598,2.36518589970153
"Avpr1a",10.7921467309084,11.1867120103735,11.3538238481865,10.6886874584979,10.8140217807474,10.9164805616592,11.1998861661292,11.1615660632461,10.6169384843603,11.0254493603163,11.5918039670101,11.3428938744084
"Cd1d1",6.22963125035011,7.13572531247614,6.79050846008198,7.83056756416542,7.51643699728599,7.57075610060239,6.6456701274387,6.62415103879351,6.24029867664961,7.54090432014694,6.73990511476174,7.5299326253753
"Chrm4",1.63465621375357,1.63606130509164,1.65366658379024,1.6369968779293,1.63500128381206,1.60489437572237,1.92177608205818,1.9829518121553,1.91061058897729,1.63718189791202,1.64416400514281,1.69522319043754
"Gadd45a",9.36329839024606,10.2073169990094,9.77079135167273,10.4970539271013,10.5254275640348,10.0816659016011,9.26067183689516,9.2964524697274,9.74485194026321,10.0063109794669,9.89598789381753,9.92895083661223
"Ddn",1.71534444841331,1.79305979061067,1.78473894473911,1.59456560016778,1.59273005300497,1.60680957612533,1.72059405743246,1.63674924805696,1.75150168662954,1.68138457575166,1.85720856597659,1.65276796221321
"Fgfr4",3.23220543323305,3.01444147953292,2.76076471172633,3.28928616969796,3.28096278241105,2.94366150632016,3.45926625776948,3.23583740134271,3.84179836001828,3.07774868546588,3.09068814498993,3.29399359915672
"Hsd11b1",10.2177359734238,10.3472526988144,10.5568904888266,12.1214801819118,11.4345827985292,11.7684648118456,9.6489550882,9.70592522311524,8.79280122640012,11.7761325593221,10.4947187725865,11.7552351208792
"Hsd11b2",2.58734041351311,2.77464837774365,2.85398551625691,2.81162126488792,2.70148804929596,2.66550303507315,2.70772178942866,2.7728242870898,2.75009400227575,2.55102372060113,2.56284483957427,2.46517381746144
"Itga1",9.78193354927204,10.3297403056129,9.95443383556777,10.6114287880201,10.8226186314765,11.3373335814262,11.0067906751995,10.7813037806956,10.1217533376301,10.8887428177047,11.6256464914216,11.5105817650774
"Mr1",4.85836634661509,6.28698894913003,5.5112585307562,6.70895770227279,6.24637170909333,6.93667523911732,5.88484769428366,5.85181632818269,5.18560838303477,6.1394121343329,6.15434881548475,6.43201268678933
"Aanat",0.507962989285921,0.508179513796395,0.563428133611192,0.508323825417226,0.508016141101513,0.563362234136015,0.689379134638457,0.686655091206864,0.67161130515121,0.805081085912885,0.614445573441052,0.615620004501739
"Pcsk2",4.01313731730889,5.52976415133549,5.2656568246576,6.26536739853018,5.46609996750334,5.68434029177672,4.50694735403368,4.38324633035858,4.51818368977809,5.78625143413745,4.94340985737684,4.97893109907982
"Scnn1a",5.25432966201104,5.7762467394431,5.69052678234916,5.67349676212739,5.37563265735029,5.42054523858869,5.30998135128384,5.3164169964175,5.30653791275607,5.60027823722579,5.28620932345163,5.37868593096138
"Tagln",15.8960232827291,15.0942290103751,15.7250030091527,14.5239663366785,15.0099199333504,15.5189519388607,16.2417946139762,16.2430390983738,15.9071520692521,16.0523452896703,16.3047908470429,15.5319471888327
"Stat1",10.8969067662023,10.6501731061278,10.836727567554,10.8604726964891,10.701262393591,10.6962439231194,10.9656772721699,10.8804601513768,10.9903409138125,10.6939335115781,10.6872117975664,10.6447364430648
"Stat3",12.5334550247681,12.4135455816454,12.2417310795743,12.4204582969565,12.3949191091696,12.5846474779248,12.2769138673093,12.2495144554469,12.0656161260277,12.2996769193058,12.3007572613919,12.5526255744699
"Stat5b",9.25320258871979,9.24531752166256,9.10333564357587,9.1386968115284,9.00125675529093,9.21668922221649,9.17596304135876,9.18141511646152,8.96546648639697,9.0346512365216,9.06659842526452,9.2630593962147
"Egr4",-0.543656449899197,-0.498077768452811,-0.479679954857813,-0.543507552050572,-0.416234365685692,-0.529786896800446,-0.454160837173644,-0.543593885612707,-0.529560039598338,-0.497282123811929,-0.543049036364258,-0.480754118268809
"Stx2",9.75097073336817,9.67170127544474,9.60059845407053,9.65644734256295,9.66585944766075,9.76125870726498,9.72887570750424,9.76131245229135,9.68134176427475,9.77517064179936,10.0306730274628,9.9773063884369
"Myo5b",2.90278419428447,2.34293883693705,2.49091582712833,2.28024547675895,2.27869527743834,2.11407340056321,2.45949748051484,2.45632315588598,3.1901261893442,2.34470425957356,2.285784390074,1.88037111869786
"Pcdhb12",4.33229289984359,4.8047277767857,4.45553276137264,5.08471277569538,4.94577857488684,5.064768120785,4.77364324649151,4.68418368113163,4.53492913427513,4.6105674899597,4.64325871112027,4.88435256152454
"Ncl",13.6451364695204,13.2059988146805,13.2889714787612,13.2050324854229,13.3070268654163,13.0900735223001,13.1693971355745,13.1341798898309,13.6469062894723,13.1831701466738,13.1429472970546,12.9704932615534
"Gfra2",2.79628566503229,3.39006767574578,2.84800884091403,2.80406381613074,3.03608943194322,2.63720328840957,2.84850408350936,2.7523581312327,3.58190648060695,2.75666148411933,2.60022554979492,2.42500930882361
"Slc2a4",3.25290218469222,3.46941829118653,3.67526953185165,3.07866236184107,3.02935388453763,3.05816957454221,3.62249317292406,3.69996764653799,3.63794517354699,3.57926543003071,3.01098528869453,3.00013985028152
"Cd24",7.14135629200486,7.72012934481781,8.11793989538506,6.67322481398288,7.45424271427936,6.62518460754938,9.47349997447511,9.52712699498799,9.86924117474764,8.15979434683688,7.44902412165771,7.18683362383923
"Egr3",5.32943395865517,7.05870493401898,5.61904420202165,6.6801106806848,5.75510110185105,6.74167015287155,5.60023120654621,5.47142205763311,5.49972471579565,6.04577671824034,5.53131018090072,5.87560634857635
"Esr2",1.28990876656456,1.33722762689478,1.27911432611123,1.24271424750276,1.29022552296466,1.127692644503,1.38225009632851,1.37998809754106,1.53293154768403,1.38318610279865,1.29864176636188,1.36233259518017
"Fyn",10.5230111964774,10.7127965972489,10.1679373299921,10.8107941239491,10.3953329439702,10.5618587281974,10.2131818141294,10.2123763320611,10.2858307579059,10.2501313894865,10.1656518017982,10.626011283465
"Igf2r",12.0411796351448,12.5513028753136,12.5758726963331,12.3234294127367,12.1488022012961,12.2490695112262,12.5159398474191,12.5255055405596,12.9573248935791,12.5731271308812,12.9955161404421,12.0551342907583
"Map1a",11.631007366856,11.8477981290544,11.5612258089016,11.5215544595315,11.6697615144587,12.0959886082037,11.8098954151275,11.6996313564681,11.6382935095091,12.0280430776908,12.148938430766,11.8828069483621
"Pgr",7.57428380169817,8.05423805296771,8.24608146952324,7.83321650906927,7.40354592211216,7.82580643625885,8.39848830720822,8.24461987256156,7.81630434842809,8.08071197669634,9.18727521483628,8.49999757436467
"Syk",2.47167083504712,1.66358870114544,1.96046163481146,1.66399261257761,1.7677703425332,1.65056860894895,1.71907376352325,1.71780629178328,1.71421943375386,2.06880504553643,1.72769602001821,2.074952128568
"Vav1",0.838971934122743,0.250347316145841,0.334545075288481,0.250503828122132,0.304858947969073,0.273629474671906,0.250459271388927,0.250276935363072,0.274220969264782,0.250534784129126,0.25170387450413,0.441432926647353
"Plagl1",9.57246361660351,10.3819380319353,9.50942112723853,6.48662889318922,6.97969148673491,6.7809445549632,9.82683171179463,9.7033803462449,10.413017327996,6.91936461418145,6.5108386486753,6.48718566448184
"Gata2",6.64930952496652,6.51654272189903,6.87384982784882,7.09246753587577,7.01070580446639,7.37399988036798,6.55163898568658,6.63848524603517,6.13071623523719,6.76453850388925,7.45343317410737,6.95999480500906
"Sp4",7.21634704114929,7.67528247125925,7.58590655108797,7.63836666909399,7.50978882801946,7.64110861630558,7.71800204267733,7.61982053593281,7.43598633674818,7.46293673270858,7.62901629508796,7.57177880382262
