MZ1808/GSE303426/exprs_WKY.csv
"","WKY_Joint_5d_A","WKY_Joint_5d_B","WKY_Joint_5d_C","WKY_Joint_3m_A","WKY_Joint_3m_B","WKY_Joint_3m_C"
"A2m",7.43259088593284,6.80281115211229,7.6148321817389,6.83240723186705,7.25548018881677,6.54681254762558
"Acaa1a",8.91261925862174,9.11649405295781,9.13272074278056,9.39371179517762,9.13100894319388,9.14419628219496
"Acadm",9.03266014690602,9.0959476466787,9.01402479280049,9.21871365618922,9.05899923014994,9.18913554716145
"Acly",11.6667906865451,11.5504448277363,11.579321706531,11.4380317703714,11.5183444444597,11.5074841580254
"Acp1",10.0021057023469,9.62167696587388,9.91673556268071,9.85433015801915,9.85818386483836,9.75141278285844
"Acp2",10.5815184760524,10.7116599926684,10.5169320858435,10.7958002974907,10.7077068759913,10.8814107352579
"Ada",8.13503362833219,7.14155202521341,7.46865649050141,7.24163173771004,7.44140450350059,7.5111544568767
"Adcyap1",0,0,0,0,0,0
"Adcyap1r1",1.24630906755147,1.35599901250701,1.37465601413834,1.54162936124132,1.35416569316609,1.37439555309461
"Add1",12.7614733080628,12.6351372822462,12.7115778582104,12.5379979271395,12.4431938847776,12.4773233429026
"Add2",-1.009668048557,-1.0775900663864,-1.05165669721826,-1.04187627974339,-1.0776890985125,-1.05175504938138
"Adh1",0.322315729675975,0.357686579168223,0.328375399521742,0.323510233115265,0.389118307033194,0.367940024974586
"Adra1b",5.26545133060662,5.65862013076814,5.06333452439233,5.24526932973393,5.48550942227522,5.76409058229962
"Adra2b",1.14512414195191,1.11945442274668,1.06890101771069,1.05797860017392,0.952951904693253,1.06885351707219
"Adrb2",5.99328030419258,5.84932289202919,5.87568189440664,6.14298276028902,6.12327576730628,6.17874896750189
"Agt",4.0774343749,4.43959237114478,4.37668504562968,4.38160198998968,4.3078513244362,4.22655498460565
"Agtr1a",8.00373000179943,8.7191702487088,8.16553300581264,8.38502170456761,7.52074175672387,8.14879885008722
"Agtr2",8.17821722148813,9.58744986680449,7.71514923711191,4.73130493173491,4.68590854258382,5.87629104419376
"Ak1",10.6177973568285,10.0687938918163,10.5296029971583,10.7218467393071,10.4790249000025,10.414128446819
"Ak2",11.5909035737074,10.7923723980324,11.1291035172544,10.6336885700101,10.8860027433729,10.822380125307
"Akt1",13.163281730509,12.8141579832053,12.8003515564209,12.6643082442698,12.7391370205199,12.8900909328311
"Aldh1a1",-1.05200771734783,-1.01654295354852,-1.02542226834391,-1.01619813902081,-1.01713851880893,-1.02552139601914
"Aldoa",14.7973806463782,14.3481623083547,14.5272673440926,14.8374323560112,14.6873167436894,14.8078786831242
"Aldoc",8.1716980960401,8.63066964483649,8.0009769798114,9.1163864455387,8.76137639129153,9.339088309042
"Akr1b1",11.6215160917674,11.5162196124118,11.5845409100316,11.6275184890891,11.5775691477225,11.5868707604638
"Apc",10.0372927749731,10.3755636814587,10.0313130659386,10.0770109116032,10.0747876685299,10.2510144523438
"Apeh",9.92355809413288,9.69985064750629,9.84861973480194,10.1100001319649,10.0080934471565,10.0221314255784
"Apoc3",0.744401049945721,0.779169108525218,0.727490403129716,0.675079809424715,0.710512270697609,0.727090716166916
"Ar",3.9771129997602,3.94079985490246,3.87487655526304,4.80664205872872,4.79011502679895,4.88245841483212
"Ascl2",1.9141799165575,2.11320320863171,1.9201186912843,1.91578171046622,2.16575317935651,2.13434031622167
"Asgr1",2.42428288529579,2.46426703634184,2.41637228605378,3.02491466800803,2.49781693945072,2.78926847849441
"Atp1a1",13.6651376208955,13.110271736014,13.5267749656288,13.6239035714724,13.5338712414681,13.4398171192962
"Atp1a2",2.46983128839622,3.62416517348909,2.92576168161648,2.72518947523237,2.4210596722731,2.6943611230789
"Atp1a3",3.00254114566157,1.7710127418537,2.01733623594771,1.71233248132005,1.71118579575109,2.08119984634549
"Atp1b2",3.65405294687561,3.68838069575813,3.55392971135074,3.7739044479745,3.84012901284892,3.92430384037785
"Atp7b",4.35667445110929,4.29499942366336,4.29232605070298,4.47475217921087,4.48234064633199,4.51205729945477
"Avp",-1.95987679886051,-1.97252179322851,-1.9693553334465,-1.97245527568723,-1.97263794294965,-1.96939057191646
"B2m",12.9622643621397,13.232325381511,13.4861993370116,13.460658972818,13.2876827785244,12.985266410485
"Bcl2",4.68648141752212,5.197907123832,4.92556998074949,4.82472988219335,4.49138091958178,4.67467969081514
"Bdnf",6.93858320271787,7.56476827022338,7.32551891450979,7.57684658373099,7.27352913485347,7.35134468125307
"Tspo",10.2442740513002,10.1326063795175,10.2271257771664,10.8374366490448,10.513823422942,10.6369444742358
"C2",7.53010243535506,8.51107699514523,8.27448381432928,9.60914111677465,9.21173706919514,9.15654499390576
"C3",10.6785384765976,12.5931829114898,12.3872505744884,14.0295702111232,13.9357573420026,13.2312738961181
"C4a",6.101470465893,8.2669311274441,7.18459661564675,8.24415961269645,8.08933297924222,8.16635047699114
"C4bpa",4.24473129388515,5.1045980872638,4.46074591210589,5.57508920022757,5.78134769847122,5.89213722781798
"C4bpb",0,0,0,0,0,0
"C6",4.32594340026379,4.81713214300385,5.0199433832877,6.87297755193784,6.8838030064097,6.42998466751989
"Cacna1c",8.44344280042004,8.08812185912433,8.02617656864829,7.51734665595732,7.47575872785089,7.73615845302801
"Cad",10.6927335950357,10.3015361838261,10.5258590906972,10.1342563607605,10.3605043315502,10.218656144889
"Calm1",13.6079491057733,12.8238349727581,13.0251794399018,12.8509317207459,13.0265793051712,13.1294681123225
"Calm3",10.0628875690437,9.85335035723493,9.93727782942404,9.8657415479838,10.1276823535965,10.0175530845054
"Camk2b",4.45245851232103,4.59818547085734,4.74764350602844,4.70394901156166,4.83181080313098,4.54555839290707
"Camk2d",11.4559325311531,11.2490186850145,11.2758408465923,11.4404296994101,11.3679656149948,11.480832418694
"Cat",10.769769472949,11.3355352027818,11.4030668751128,11.6079819975693,11.1510249116421,11.0290889173583
"S100g",-1.03136498018958,-1.03132198461575,-0.994661296844857,-0.994837638481096,-0.99579542430737,-1.03199871695204
"Cbs",3.24823230192185,3.24991115361418,3.41243736437035,4.45320897252751,4.43453542189096,4.2805065606069
"Cd53",3.87195904196036,2.34829227390998,2.9361295050979,2.8329869888013,2.45450266418224,2.81774097932905
"Cebpa",8.06722260346358,8.43633471485907,8.25065443007874,7.81638043250315,7.29202903318879,7.55532896192855
"Cebpb",11.7250697618143,12.0220859341707,11.4514198237332,12.5726095233848,12.367259730065,12.8920926509842
"Cel",2.26738404056069,2.27034840702208,2.13544281098086,2.27173131225641,2.23529506063854,2.386936599258
"Cftr",0.397568669772386,0.39842680203795,0.483951925473521,0.360539320287989,0.397734211977466,0.293182576564374
"Chgb",0,0,0,0,0,0
"Chrm3",-1.48340117675506,-1.48308830644952,-1.45539655274546,-1.48294393102106,-1.48334040785663,-1.51099035829567
"Chrnb1",4.42908856337378,4.67872233010043,5.09776686149278,5.39627492336946,5.26010875000472,4.78433042193142
"Ckb",9.48218954412105,9.56208273817995,9.10831786465679,8.95767019059822,9.33922807916459,9.56226741137513
"Ckm",-1.03985731629059,-1.03981466770009,-1.04070181277852,-0.968556064880022,-1.03984909236356,-1.00333675783861
"Comt",11.0068753615765,10.8611283861707,10.8402683419753,11.2464048868848,10.9972842612507,11.2155781059661
"Cp",8.30643234893959,9.9131674806158,9.46431240040843,11.0316607070599,11.191533961712,10.7570848487552
"Cpa1",0.209275364450562,0.244801275299524,0.275006251837848,0.173887121269023,0.17376195671163,0.125856607027522
"Cpb1",-1.96772983717637,-1.96756665515808,-1.9748405161134,-1.96749135407201,-1.96769814228133,-1.9604024782305
"Ctrb1",2.1292248797673,2.09819036303491,2.25597196512468,2.25550313525763,2.32938747553894,2.1501809616747
"Cyp11b2",2.49849549299507,1.48803442384338,1.77032198414197,1.48832540496094,1.48753107400558,1.71087121376052
"Cyp1a1",0.172782398951976,0.209078641509997,0.265863815677852,0.244434953270417,0.208427302368524,0.151497832372605
"Cyp21a1",-1.05801628601823,-1.05784454705466,-1.05857474937146,-1.05765277367843,-0.987245116206882,-1.02180461210764
"Cyp2a3",0,0,0,0,0,0
"Cyp2b1",-0.727682352863784,-0.727629040162267,-0.692729051695619,-0.623381486608032,-0.692251993807754,-0.6927433850253
"Cyp4b1",5.03417428605278,5.18863107344887,5.18247082960008,7.0806915492842,7.50361109291916,7.22108317125243
"Dbp",8.24146937690334,8.87354487132601,9.17896633237848,10.5379652364218,9.83577122380325,9.5654090218487
"Ace",4.18071531447333,5.15903648803807,4.41014238168961,4.05271931828328,3.87400653290741,4.22309644516144
"Ddc",1.96990472390783,1.89030501196296,1.90460330872359,1.64935158937857,1.64893336231498,1.67464403505859
"Dhfr",9.54232454612425,8.35889141688818,8.98626433892038,8.73769719839418,8.81278619250334,8.7395853380346
"Nqo1",10.9859467446654,11.0776117081506,11.9481295880509,11.9171245008253,11.5642770447206,10.8243504111301
"Drd1",3.03604185922434,3.34386806378065,3.10315365621957,3.04134798964547,3.35808615951122,3.28651837986128
"Edn1",7.92745279346784,9.20272104147324,8.49902635374386,8.7639336875002,9.27566833356021,9.08586157425689
"Ednra",8.92438424611346,9.52919405309184,9.23610086534988,9.56505021471748,8.96134264468606,9.25388471395454
"Egfr",9.670775338072,9.86995152601872,9.6353997573406,9.22628975031501,9.31972358477753,9.40797034225103
"Egr1",11.0857089118345,12.1229576210432,11.1295076766064,11.4249048115551,10.3466953880907,11.3606256896554
"Cela1",1.43784480787133,1.44002754340533,1.37207851635148,1.40741349209975,1.50022949264085,1.52067915165716
"Eno1",15.0176380711203,14.3670612344074,14.6304403197028,14.7629625271947,14.6775110844525,14.7821461388847
"Eno2",9.9127037310875,10.3769674319542,10.2528782055988,10.6427272047123,10.4010465406525,10.4138442486044
"Epor",2.26066102295541,2.2286477292262,2.35556719207847,2.29747554205818,2.3250633998996,2.20035665499122
"Erbb2",9.47771206359395,9.55225592840361,9.45481473839353,9.01149343167326,8.92654651956014,9.02918923322196
"Ephb1",-1.00207105860685,-1.00132112256958,-1.03799912103954,-1.03736128001167,-1.03741563401046,-1.00108542655973
"Ces1c",-1.50252061859945,-1.47740450623702,-1.48988245972533,-1.50211151247242,-1.47763006598009,-1.48995089191916
"Ets1",10.2580224367958,9.99056430767494,9.96466791033288,10.1265834307373,10.1543415590632,10.3000879568027
"Fancc",6.51000727879076,5.94000712165393,6.37809608247674,5.9260573668318,6.12078105101533,5.87033032666917
"Fbp1",2.99260367616382,3.02731375402697,2.971656969946,3.26834731745078,3.21178600580017,3.27836840677488
"Fgb",-0.696509771361976,-0.696455704770978,-0.690782890094668,-0.696430427612066,-0.594623412838685,-0.651226768197185
"Fgg",0.597083772353642,0.707116056768859,0.692680487923689,0.635944731737879,0.830494049132058,0.69263881707253
"Fh",10.5426929827081,9.83047806716085,10.2416783847813,10.0008360909811,10.1630202012482,10.0268352862679
"Foxg1",-1.47779170313298,-1.50209446231345,-1.48986380692202,-1.50196662043864,-1.47773789335393,-1.48993153269748
"Fst",12.0695704606491,11.6499865927313,11.8754021588427,12.3795197372772,12.0942308725057,12.2212516727389
"Fuca1",10.6818047004315,11.4848687854697,11.034472685358,11.5861186865883,11.5633112487313,11.6235790252524
"G6pd",12.2883575109242,11.8381815673715,12.0794965473978,12.1502803156003,11.9699819048256,12.043904101963
"Ganc",7.29343121068267,7.86971248175478,7.60921354248833,7.83634735153377,7.79894930605857,7.79000663252657
"Gapdh",16.4889072251944,15.6974264809139,16.061542428679,16.2952755632945,16.2186750688402,16.2885997404426
"Gc",1.60581694559347,1.60678016339695,1.59063062757304,1.82592215593498,1.67316229346041,1.76521015161987
"Gfap",5.18101740489327,5.73057539462938,4.86761373363902,5.13524521474964,5.70742093907297,6.00951574303361
"Gfi1",0.438219551719516,0.438334395154522,0.472608961646005,0.438388082632695,0.438241697944815,0.403982902079769
"B4galt1",10.7326064044955,10.7402532076278,10.6923549893069,10.8213860238682,10.5634142043065,10.736474930842
"Gja1",14.2784746627756,14.1739267124374,14.0175085203342,14.0977789727716,13.8288359814428,14.1719996443795
"Gls",11.6025960342141,11.2716926556051,11.2977417075825,11.5075083309821,11.6375868815276,11.7119502435819
"Glud1",12.3539155034024,12.2513122933731,12.462887922717,12.4343507421165,12.4387774479277,12.2762900706928
"Gnb1",13.3159861804467,13.0190150902515,13.0169278739881,12.9294960237502,13.049406162513,13.1400238544925
"Got1",9.67742900351765,9.53583003513102,9.63965058020909,9.70093438122391,9.54715249482973,9.59102237714207
"Gpx1",11.1403546308659,10.7595822999511,10.8479598370604,11.1681867023553,11.1434850082914,11.2578444836714
"Grik4",1.20131482735598,1.20221514977331,1.17565514444859,1.27141803525053,1.23574883529783,1.27969327939024
"Grik5",8.37865553572554,9.34101702887356,8.43848014658457,8.26413605504649,8.34332639278566,8.72508735963106
"Grin1",-0.0481828355701791,-0.0480985040474323,-0.0413652462086915,-0.0480590787359646,0.054224490775621,-0.00369271758028598
"Grin2a",0.562353173605861,0.598571324184318,0.619282743839436,0.699359039970758,0.696006085421651,0.658862067751858
"Grin2b",-1.96772983717637,-1.96756665515808,-1.9748405161134,-1.96749135407201,-1.96769814228133,-1.9604024782305
"Grin2c",-0.227855344612029,-0.191485342550164,-0.218540465660436,-0.227746743939368,-0.227841074160165,-0.218923786970427
"Grin2d",7.68050608544164,7.49196896349478,7.48196937292963,7.25569155755153,7.20215652104464,7.33319219083666
"Nr3c1",10.5633928358237,10.980579266525,10.8398449886406,10.9640116608306,10.7265142004591,10.7774039931786
"Grm1",-0.650645413211504,-0.650589428953571,-0.643727485704089,-0.579344472861698,-0.615128295637208,-0.604126319627902
"Grm2",-1.50259047321719,-1.50230918869777,-1.4898911968662,-1.47722310062242,-1.47757955118413,-1.48995995999455
"Grm4",-0.55965177582658,-0.559592741676519,-0.531539635774402,-0.55956514266781,-0.52396137872391,-0.569845883673007
"Gspt1",11.9101939666577,11.3118982392853,11.5869447539306,11.3004602005558,11.4445134890884,11.3965881938631
"Gstm1",8.67017078020652,8.76881869916759,8.86193359860818,8.90670836030199,8.85800838433556,8.73991951339765
"Gstm2",10.3306575282592,11.3614920525455,11.0503383802036,11.3971452687401,11.2148472191722,11.1017326541549
"Gstp1",11.7915421498723,11.6704055874502,11.9216864695947,12.0911340262485,11.9103328866607,11.8100208555211
"Gusb",9.88658345602307,10.0649129213665,9.83616781252839,10.0776073851701,9.91760282361944,10.1371854805611
"H1f0",11.5572621480213,11.9399309305944,11.6845794618158,11.7413234865895,11.5322787569946,11.7008181992841
"Hist1h1t",0.759507026496045,0.890587291372094,0.762415151261883,0.760758369358908,0.793794623001893,0.839908503852587
"Hagh",7.41690543902419,7.29345056156686,7.39469495108039,7.53340591635922,7.50296301561559,7.47866751520255
"Hdc",3.73530844426466,5.23855650803071,4.49303744313287,4.67336746173012,4.87281929984885,4.76698841380431
"Hgf",3.68798127121529,4.05485720570879,3.78107699688866,4.12138771811727,3.25799684916235,3.78003452521319
"Hrh1",-1.96772349488764,-1.96755945497778,-1.9603175126738,-1.96748375801374,-1.96769163336405,-1.9749116579478
"Hmgcs2",-0.26885801388835,-0.0554542524480975,-0.215457735059927,-0.268726165777203,-0.268840683549199,-0.215481822771498
"Hmox1",11.4537721151667,11.5850859739155,11.490747243986,12.0811040259028,11.8538030969543,11.9961353619836
"Hoxb8",0.990724743325043,0.992846611821519,0.883812415480291,0.960250566785169,0.888531920078467,1.03236450552481
"Hoxc4",8.01296615727696,8.11678569405021,8.04384046742787,7.85914037084244,7.77481135898563,7.83801132314975
"Hoxc8",6.85394153172037,7.25763512126447,7.25994774401658,8.3211998779737,7.9266774315246,7.91977923722499
"Hp",9.2005456942796,11.3191221085416,10.4165230911535,12.8632901508013,12.3878282447593,12.4688700080375
"Hspa8",14.8615727020822,14.7574352433495,14.8771282157068,14.7835419809086,14.710475345541,14.6793844202339
"Hspb1",12.1537359783264,11.8284096129666,11.9123348538924,12.2736435488047,12.428668074723,12.4298937535179
"Hspa1a",4.17402714407043,3.89110196604856,4.18804721413424,4.39846389359972,3.88512187243184,3.98631022394103
"Ibsp",0.888814183739785,0.889016617788595,0.735959963658612,0.88911119811069,0.929680925881877,1.06235149910186
"Idh1",10.4156884605404,10.6654497100142,10.4126616359858,10.4592816107718,10.2284520218549,10.4717742656049
"Igf1",11.5114137454412,11.6662551962065,11.2156880562417,10.2837479761106,8.68176417452717,9.85590248990108
"Igf2",13.6808315328826,13.4895455516402,14.1689746759915,11.2319055734578,11.2145064661501,10.6394198860739
"Igfbp3",12.0018543477432,11.9057117674959,12.0981621104571,9.49485183461243,9.32942667552644,9.26776020223186
"Il1a",5.62242811426764,3.92964360778066,4.37155506658911,3.69644997712828,3.79343148636822,4.14942152618329
"Il1b",5.37859938003441,2.93519092021574,3.61608707236486,2.8676009316218,2.86184487052785,3.40553097883504
"Il6",8.72740614549798,8.46829561902023,7.83241506077722,10.1117610388331,8.78127527587304,10.2119539788349
"Il6r",7.28837861228332,7.19375013944417,7.24023347277353,7.10887809439973,6.75875870628198,6.93464930343108
"Il9r",-1.05808441388985,-1.05791209346095,-1.02170795808877,-1.05771998398589,-0.987191590255049,-1.0587460827071
"Ina",3.76318142375194,4.00028840856391,4.05772148480312,3.97313141962272,4.10437591724938,3.86276709979086
"Inha",5.78809895645313,6.07421587774393,6.01071079676785,6.09942769218796,5.83769356037478,5.88900724661204
"Irf1",8.69128073752811,8.86532300711286,8.85436984438718,8.51323491772,8.59248201422782,8.47679049390722
"Itgb1",14.9590424599726,14.6616907188151,14.6196222209677,14.288297455509,14.4215002270724,14.5456432097168
"Ivd",9.91701258621526,10.2786907440647,10.1890362506458,10.5728900555704,10.4227701974767,10.4066455410178
"Jak2",10.3732795234008,10.2885408525974,10.4813898913145,11.4659451231503,11.0660444113853,11.1155150639524
"Jun",10.3614553854264,9.69220810854515,10.1447410458308,9.73430284061949,9.38972230252106,9.44410327272523
"Junb",12.2568951717165,11.9930899477959,11.7300569358299,12.2474374900058,11.8371034890009,12.4372061134297
"Jund",10.9599494916951,11.1590557670617,11.0491472230266,11.289463109958,11.3343680029036,11.3222709627826
"Zfp354a",6.95986093308702,6.98799441074135,6.94069994698982,6.98465250452295,6.88751401540126,6.96931098488648
"Kras",10.113924993282,9.92643158540452,10.0982177880537,9.53455756544162,9.6263982868592,9.50243842743996
"Lcat",6.75389634797645,6.76957018051165,6.80743626421991,6.82172690265929,6.67783658986585,6.70407874628671
"Ldha",14.534800916548,13.6726177534896,13.9512035821714,14.0809330579504,14.0897476181846,14.2378460909149
"Ldhb",7.67262276016658,8.03932522718931,7.46328080832015,7.6024630573393,7.63183148819658,8.00984045812574
"Lepr",4.65420733766451,5.24522945983117,4.7544868768774,5.54038990086581,5.43471660334961,5.68278477397815
"Lpl",8.20163048405762,9.14051419914337,8.14788403118956,7.74211440874484,7.07112672064639,7.92980887510654
"Slco2a1",11.3420414312466,10.9873911549224,11.6283491232881,10.9791485876237,10.8133507332861,10.4326168302513
"Mbp",3.66648603432693,3.64631799558682,3.64897402353588,3.99762022428284,3.85224086754373,3.93235853733428
"Mdh1",11.2131966302044,11.0071569267075,10.993334429712,11.1565970805112,11.1147711761835,11.2525264770913
"Me1",10.9034193582369,10.7102780170641,10.7821728409569,10.2174645753072,10.3262482575957,10.296532263145
"Met",8.93074514873568,8.61100030363504,8.89186166441549,8.50886817335529,8.72581362712647,8.49635196201075
"Mog",2.56812706837683,2.77367179081835,2.73547197017353,2.77679148725403,2.90875419975156,2.77820030292685
"Mos",0.724164297713597,0.725012432258491,0.742227800239984,0.760422827445425,0.758511445302295,0.74182770111992
"Cd200",9.33575222454571,9.71379106579258,9.20373996134993,10.9676292537633,10.8480246632835,11.2288586423426
"Mpg",6.98948513226321,7.00676640243921,6.94345718163745,7.11725933341914,7.13539775194429,7.18099712839547
"Mpz",0.776429225766426,0.613018966281783,0.737583334174207,0.649592921677907,0.61291090917888,0.588392677278291
"Abcc1",9.47312588869333,9.66402393359992,9.56649616456538,9.70792574835997,9.61709468105117,9.66458896128682
"Mst1",0.890525360830599,0.855250162470285,0.874783581133292,1.02335531577689,0.957659883989268,0.988611780400231
"Mt1",11.3098600534681,11.7408089929204,11.4942655396744,13.646463873013,13.0922244248969,13.4004131324748
"Muc1",4.3254844279917,4.22548928002821,4.21227487110334,4.2283791089466,4.3516816886302,4.35324238169501
"Muc2",-0.60010773466268,-0.600042147220536,-0.679427308425168,-0.600011492488377,-0.600095085443283,-0.520700921482271
"Mx1",1.50397566128986,1.72257980890351,1.57198932126712,1.54138855106377,1.60285268977646,1.61340903424968
"Myc",11.2388129157727,11.0860830662898,11.1567466204425,10.8923728018389,10.7978265370926,10.8508010400545
"Myh11",8.50971821999015,9.13368542944534,8.14826243907347,8.2246117830398,8.52701945819843,9.04925500626339
"Myh3",2.05914810497855,2.30904770768299,2.27728668539503,2.19597191365595,1.98517292301199,1.99738363926972
"Mylpf",2.37272392261064,2.50997835767903,2.54405451386713,2.84698556367798,2.37310050306028,2.50733965964684
"Myl3",-0.582913030604498,-0.546675780883572,-0.564599207884451,-0.546317216825732,-0.582901764041934,-0.564804688293417
"Ncam1",11.6365501333106,11.2852668611573,11.4326349858278,11.3118200806327,11.4465672123091,11.407467157877
"Nefh",8.45224738783428,7.24556251583692,8.28982732115038,8.21664968555205,8.00844726898659,7.67162610795454
"Nefm",0.726856363836867,0.533096449685845,0.592893529127349,0.49495180210807,0.532384930039323,0.550751243707704
"Mme",10.1527072433796,11.2951235895599,10.8023507562138,11.5760208034929,11.0519839471567,11.2355670355807
"Neu1",8.8460114825951,9.30981466886987,9.02360330175271,9.17177308923596,9.11704398477275,9.19871831098413
"Nf1",8.77553807639192,9.29249180236144,8.82516142840595,8.98168796946434,8.90926130881242,9.15432815010911
"Ngfr",2.81982106208139,2.22431895559804,2.47857397292721,2.33774532903019,2.29842059585864,2.36157899835692
"Nos1",0,0,0,0,0,0
"Nos2",4.58766813378668,4.09019751775793,5.18147781202763,6.50415838435528,5.62134011822539,5.22020426503501
"Nos3",0.990814613090338,0.99098184929157,1.04144728636091,0.991060027941151,1.06095936433098,0.975460640966106
"Nppa",-0.627501259515361,-0.627444698086021,-0.571105460672725,-0.627418254844688,-0.557851960109084,-0.649002625604852
"Npr1",3.8142989963177,3.56277749657374,3.92655473964475,3.72912091051517,3.90114806664078,3.57711799537894
"Npy",5.00220070492627,4.06532841269833,4.654013884866,4.48346423677584,4.53527385204962,4.38911971835903
"Nras",11.4393947907405,10.9845910518482,11.2520137634046,11.2248994864981,11.2325685342265,11.1887131682521
"Odc1",11.7228769938131,11.8005255900159,11.7634731187679,11.6969383960267,12.1680303077052,11.9307125250126
"Odf1",-0.997717693174534,-1.03309617953565,-0.996493784375716,-0.996615111662773,-1.0331308350267,-1.03378612532411
"Gnal",1.26332835277399,1.29973824649796,1.29026279098906,1.33526859981668,1.39787853063889,1.3578440738747
"Omp",-1.97278560808162,-1.97263684543978,-1.96936900674818,-1.95936959296842,-1.97275671386663,-1.96940537343005
"Oprd1",-1.01868951772332,-1.0179520097987,-1.02686066809721,-1.01760737021627,-1.05339177988245,-1.02695967071316
"Orm1",8.93523858369971,9.07792058145877,9.53923357979711,13.0976118008381,13.1733409355998,12.6028223710011
"S100a4",13.9556650112362,13.2208638914607,13.5039831256169,13.7181345653294,13.6145075109435,13.750602363868
"Serpine1",17.1528474534431,16.2494687471306,16.2054850016368,16.6023690743094,16.8371951093534,17.2154551904815
"Pccb",9.73165397840523,9.83797015030131,9.76611603479484,9.94264937902667,9.87893341892929,9.9294874285364
"Pde4b",10.1567339134722,9.73005122886665,9.73877684743507,11.1261850210764,10.6970629563486,11.1162397124468
"Pde4d",9.02643801000141,8.88432315097371,9.03539440023115,8.95172139414714,8.63443272969719,8.71306324217858
"Pdgfb",1.90290578355464,1.60290172778047,1.81932856256852,1.63943921618198,1.60269188858064,1.55464074548035
"Pdgfrb",12.8640018850105,13.4502383582682,12.8761867399696,13.3177628682865,13.1005246947259,13.4900771631759
"Rhox5",-1.97274744167653,-1.95953216706622,-1.96936465301393,-1.97253218344964,-1.97271883341547,-1.96940065979
"Pfkfb1",5.82968971216021,5.43219103469201,5.89839111096646,5.40450258769015,5.73398743460723,5.30179427360833
"Pfkfb2",8.17275064870682,8.82991340517519,8.52516333903452,8.7466038030908,8.57211898228756,8.63553008059566
"Pgam1",13.904660266844,13.3149795127874,13.5283397520483,13.5505113498847,13.5309806938865,13.622226159653
"Pgk1",13.7449947140286,13.0158210336407,13.2151449895171,13.5608128849076,13.411190376809,13.6512645151758
"Pgm1",10.5910306979392,10.2540148870263,10.2300812647154,10.6334953033741,10.5051653449007,10.7617718519048
"Abcb1b",10.1697888036535,11.6727448500254,11.5059581055049,12.0296011749505,12.2331084364837,11.5466635270516
"Serpina1",3.62320240723809,3.81421952359722,4.62632813782495,4.10744476375031,3.62393127201727,2.9580708454765
"Pim1",7.06072699605946,6.79508253876777,6.85652077774104,6.64986650778523,6.72929009416629,6.76096229064833
"Pkd1",11.637000419632,11.6722272365472,11.4789257296265,11.1581168453773,11.1063034746089,11.3078982584561
"Pla2g4a",9.58040863318005,9.69952842332117,9.56982526426025,9.62369128670318,9.64266683435389,9.7033223245189
"Plcb1",5.83563305727111,6.01373608520815,5.94644853630329,5.69803007754512,5.54061100481569,5.59755657611675
"Plcd1",10.7839861846482,10.6680241492233,10.8009363860624,10.8204805172692,10.9382156156552,10.8044168473355
"Prl6a1",1.80461748604726,1.87181347335422,1.86623769216989,1.9908775072274,1.86954283215633,1.90218795722272
"Pmp22",12.255761389979,11.8544431362503,12.0216765446077,12.1937735623907,12.273531966275,12.2670784828397
"Pnmt",-1.47770506727044,-1.4774256922436,-1.48987887256895,-1.50208364630933,-1.50243767711576,-1.48994716890061
"Pomc",3.63479317242283,3.54375503220506,3.61802382953065,3.62171628297233,3.72345252408512,3.64383467631202
"Ppm1a",10.0233841688642,10.0654755322265,10.0632752046033,10.0621093830931,10.0909339490562,10.0576763120167
"Ppm1b",9.72004928763311,9.93626383419725,9.91843013011384,9.95250846477128,9.95329260290821,9.86262696464109
"Ppp1ca",12.7026657611486,12.2129926366317,12.4363542488098,12.1783860044933,12.276242011502,12.2487889580781
"Ppp1cc",12.0667847962071,11.7918474405071,11.8784824341599,11.9170212773821,11.9347485470501,11.9767185964132
"Ppp2ca",11.5870773711222,11.4723764576384,11.5279722033642,11.2997449760847,11.3355832307804,11.3194188144487
"Ppp2cb",11.2739812422591,11.0597774296055,11.1995203398576,10.989775505934,11.1073026200032,11.0158980590433
"Ppp3ca",10.0957662630971,10.3220936782996,10.1202920822437,10.4941639330191,10.4316025808938,10.5515211454111
"Ppp3cb",9.86713029373521,9.81592524057907,9.84050672701258,9.57971903925684,9.6276104724297,9.60468579598784
"Pkib",-0.990013925019832,-1.06027889735852,-1.06105574653089,-1.06008759299271,-1.06048214994433,-1.02437553612681
"Prkar2b",8.64475266837199,8.60637494534834,8.6907736173977,8.73939691706115,8.50073257152785,8.55485493375697
"Prkca",10.106476564475,9.82382600093434,10.0098059891326,9.90268239226989,9.70046372610323,9.75691835275859
"Prkcg",4.23032648114793,4.29615373166267,4.36536660401955,4.43479813907699,4.37353253970435,4.30203884177643
"Prlr",-1.49348938008702,-1.49319404507419,-1.47360503889184,-1.49305776138647,-1.46722913300772,-1.49988012088586
"Prnp",12.3055154904248,12.7025763779668,12.5957179833492,13.1790750601001,13.2667237357115,13.1312273487525
"Prph",2.86835875767081,2.80670747926052,2.75634063267419,2.67750868071764,2.67181037212037,2.75585201221048
"Prps2",9.61555049610725,9.58922910822439,9.4056841680642,10.2370993693193,10.6823889442079,10.6564497908652
"Ptgs1",10.9655707910851,9.52457483082789,10.6723538618232,10.3362796835072,9.76106542698532,9.62139150437951
"Pthlh",-1.0075597888354,-1.04021358593472,-1.04968410028244,-1.07538820572425,-1.07577091388898,-1.04978214690924
"Ptpn1",10.3771974347355,10.1475691954137,10.2148854642055,10.7755529399795,10.565076224992,10.7178124333549
"Ptprc",2.30999824244888,1.53291534941168,1.70273764415448,1.53313761812375,1.5325311061067,1.75155351389102
"Pygm",3.34282515541181,3.71206537374854,3.47395397994978,3.43603713348432,3.4014052833189,3.47221249303201
"Raf1",11.3621943823896,11.2848158354818,11.3016797337603,11.3576543574559,11.3107188088222,11.3560119583145
"Rara",10.4560085795034,10.4034143656268,10.3421191259426,10.4074840491565,10.4964766076065,10.5395726750041
"Rarb",4.14035211076671,4.42901613511814,3.94273166071503,3.55427379901011,3.57983940088951,3.90900906217721
"Rb1",8.36695576631238,8.55532017862213,8.58308969916661,8.92970648987392,8.86163671297431,8.77371987472475
"Rbp2",1.39930158958277,1.50359967221198,1.57657699457627,1.62646100414631,1.62116732529735,1.49868780104293
"Ret",6.46006649691182,7.86466681468213,6.88843080312791,9.06925720557273,8.77242620816223,9.19477755953655
"Rho",-0.0177931991176624,-0.0177069005034233,0.0282020967743489,0.0538465647371992,0.0178595147226471,-0.0100991068549686
"Reln",5.16994971424923,4.23705015481687,5.00473736758802,4.74378744014635,4.82397779694886,4.48264518549264
"RT1-M3-1",7.54599049223631,8.3283713753082,7.79211810729192,8.21595294046931,7.83353592839561,8.16980726091279
"RT1-N3",8.91539115969792,8.2730404903959,8.77683056639476,8.67468761076046,8.67681786802703,8.4931379980459
"RT1-O1",0.477597365166205,0.548510229939499,0.538617993385607,0.614728337118484,0.513191531015443,0.538395738234209
"Acsm3",2.40335844138348,2.51254995814333,2.43370456559631,2.66917927073204,2.86030060937318,2.78898957421971
"Scg2",1.5633969187038,1.59839301187594,1.52219573089718,1.66289208325323,1.62826953293427,1.70428004248644
"Scn2a",5.52588719571775,5.88533873402295,5.76930041154155,5.63476401389555,5.2507101963767,5.37904965846492
"Sct",0.137709737151694,0.13780663409331,0.181292990873795,0.209216213106326,0.240008894953137,0.181077748778438
"Ccl2",13.461496318504,13.0032393937032,13.3073246084201,13.6350189837442,13.1099414769337,13.2975234780224
"Sdc4",12.7901170952338,12.8966197674516,12.830314010673,13.3486033964477,13.18176876157,13.2782404996786
"Cxcl12",13.775764480963,14.6480339178573,14.2600908709338,15.0540398121766,14.4214472545459,14.6895518618376
"Shbg",3.34786605229356,3.40639008204485,3.45033653121057,3.65541069942397,3.4506025190383,3.47979814518978
"Slc2a1",11.4859315702019,11.0851021230888,11.2486282193774,11.4532467462724,11.2833886433769,11.4052063220926
"Slc4a2",11.5833483805366,11.43386189294,11.4623428357437,11.4447551808333,11.5207322897126,11.5290060362675
"Slc4a3",8.22509330799462,8.67752199068177,8.47289728633967,8.57880512526604,8.50511921085157,8.52037253105733
"Slc9a1",10.2936866749524,10.2522349436235,10.3751481557933,10.3332861879183,10.2153357303141,10.1721236126108
"Slc9a3",1.32709854965916,1.36888621956855,1.59302928405577,1.48370876101599,1.32715228652091,1.16039362432654
"Slc9a4",-1.4934749185324,-1.49318037266681,-1.49977657799838,-1.49304445313469,-1.46728483990809,-1.47371571412261
"Sod1",10.897406646559,10.4587978770341,10.7267676584634,11.0686485484019,10.9603399701821,10.9658288626251
"Sod2",12.8795045780842,13.6810629106916,13.0971536186543,14.5554335314199,14.1750622147956,14.5483779988414
"Sord",10.1836518868664,10.2345458711897,10.3871910708887,10.607123044506,10.3936144778822,10.3222765693334
"Sp1",10.3620042662406,10.6386998224887,10.449606412273,10.3885219131607,10.2736963231315,10.3818547502377
"Sparc",16.6946453843448,17.2217947112349,16.7349540877161,16.8302385641559,16.9412835021779,17.1090269932407
"Serpina3n",7.73995359520926,9.04931952223111,8.68799381128134,10.389829093227,9.50623322720629,9.65467390765551
"Spn",5.62274024077469,5.2129556418192,5.5358117509668,5.07756364897656,5.28108044699118,5.06135823831402
"Eef1a2",3.3259441779457,3.15875788496739,3.24273038427874,3.60036409202554,3.61256790483426,3.60608664560771
"Sts",7.68794588940585,9.01433787242644,8.49211525070223,9.59096785135673,9.19543069611336,9.25222590394896
"Vamp2",10.1704759609016,10.6374295679248,10.4911727319542,10.5070003570149,10.2217405278847,10.2771504749088
"Syp",0.553765521118531,0.520622930100579,0.58504811768171,0.555937881687882,0.554051229097603,0.507140663320588
"Syt2",-1.49354174290539,-1.49324355043335,-1.49992141966754,-1.46664954294118,-1.4934838248872,-1.47353791091602
"Tac1",-1.46732523144967,-1.49318451185135,-1.47363200217111,-1.49304848207534,-1.49342204048284,-1.49985813075849
"Tacr1",4.11569105597037,4.74649067967589,4.39444764149964,5.30890687254789,4.63877201758539,5.01048267139014
"Tacr3",-1.95987679886051,-1.97252179322851,-1.9693553334465,-1.97245527568723,-1.97263794294965,-1.96939057191646
"Tap1",9.50401424981041,9.56733606363384,9.59771354025423,9.62153429719111,9.503388867764,9.50042319894546
"Tap2",9.12102986025764,9.18195096814484,9.19523718806448,9.3720121712952,9.26614226814343,9.27533044585607
"Tbxa2r",6.10529915547229,6.97126865919657,6.33486930946161,5.3528695938587,5.29775837418153,5.52872858189293
"Hnf1a",-0.563900654135019,-0.599373938048809,-0.647405546279338,-0.599347099921088,-0.599420274803658,-0.53361543717495
"Tcp1",12.5152436898222,11.7774708259368,12.1435769122837,11.7657727717108,11.9779850391906,11.8746592510465
"Tmbim6",12.8550417924561,12.9702257556496,12.9040568089873,13.1317245657075,13.1624423381179,13.1556604169782
"Tf",2.34883721496728,2.12682498078698,2.14108561736095,2.08890917884898,2.32122998612068,2.30181506300101
"Tg",4.17246271060272,4.73297303454004,4.71249139229671,5.15349388729887,4.91026068302537,4.7721037654368
"Tgfa",8.48714607069961,7.98765728604179,8.46939019941636,9.00694431829218,8.63720778297912,8.59008752959
"Thrb",7.51228818669373,8.35377880538005,8.18139644958516,8.45882158377591,8.54246410089025,8.25227988878481
"Thy1",12.907299058681,12.3699116807526,12.6150227628538,11.7938745588202,11.5852823894393,11.7131610809928
"Tk1",12.1104318079461,10.7965519971066,11.6722722206317,11.0281945720133,11.4183760313834,11.004504983593
"Tnf",-0.305523044126594,-0.234677565292228,-0.239687794924857,-0.268923692644425,-0.305509353201083,-0.317629032707308
"Tnnt2",1.64134712995858,1.70656193228797,1.65063487805116,1.64459571912517,1.60885755724997,1.65004629125968
"Tnnt3",5.1961786069696,5.58546488595576,5.02327884137107,5.34596304079754,5.23320367999691,5.65712626548884
"Tp53",12.291219095536,12.2727448051426,12.3883983431924,12.1799193369394,12.3550199953572,12.1610532732951
"Tph1",-0.997717693174534,-1.03309617953565,-0.996493784375716,-0.996615111662773,-1.0331308350267,-1.03378612532411
"Tpi1",13.6467348432534,12.7270926125005,13.030292168861,13.3944676557128,13.2887214094227,13.4982160915837
"Tpm1",14.4385823154017,13.8625585280679,13.8072239489935,13.139041618874,13.3231824386725,13.5744585015146
"Tpm4",13.9479204818324,13.1569578487339,13.1448792778094,12.7207346394103,13.1012905430135,13.3185724786857
"Clu",11.4078347314873,12.9594614804351,12.239835694454,12.6529640602636,12.6551065412674,12.5978477122727
"Tsc2",10.5874348445245,10.7668865938027,10.6230818426174,10.6719662093478,10.6425734196573,10.7113486910488
"Ugt1a1",-0.616960615945258,-0.546118192264878,-0.560250275543518,-0.616876877491508,-0.616949612665308,-0.638202373639958
"Vdr",8.26506995378272,7.91034975428602,7.96788589005236,8.09869303059699,8.12263304937,8.23048700396551
"Vhl",9.65454365471144,9.96580997390357,9.78727579452413,9.78266022818653,9.83788536074013,9.8331738142467
"Vipr1",-0.720904320377975,-0.720850810619921,-0.685793490884054,-0.649828121823953,-0.651619483972137,-0.68580787751294
"Vsnl1",4.22934643352991,4.23852879214728,4.7521436673037,4.07461919392164,3.89925537413365,3.46873122956254
"Wt1",3.42584990863338,3.23862599357071,3.39322463942606,3.15427001333831,3.17822452975177,3.10526058322103
"Yes1",9.63555738654836,9.63501048111974,9.74846095594476,9.67663724516989,9.62598423798842,9.53813371946844
"Tbxas1",2.30619970763137,1.79251003650829,1.88563661535187,1.62675419407846,1.62618268703656,1.79018669727547
"Bax",9.79511104378985,9.92906392514239,9.81807722121486,9.72165216247351,9.78743372453734,9.79855320675668
"Bcl2l1",10.6177733711775,10.6339561574463,10.9684387809098,10.7928017234294,10.9247109032311,10.5161822967323
"Esr1",3.14041050229886,3.24151983045454,2.94100040090765,3.4374092366907,3.29623695075358,3.61678785919119
"Abcb4",3.81949161319616,3.59926085043488,3.64906413000934,4.18097262305766,4.05910743853194,4.18035213260099
"Gnas",13.1278263727912,12.9885784555141,12.8739285953424,12.9924789041421,13.0386298180932,13.1998281799279
"Kng2",3.26984461948361,3.27247774858571,3.70982665039573,4.41016303831687,4.69090758151237,4.11186984355355
"Dmd",7.05216893119559,7.26379929277782,7.04174399602638,5.97200981768158,5.9194037805873,6.06194691509477
"Dnajb9",8.92243788171284,9.02859373674425,8.96197401154743,9.18007386996559,9.13809988840699,9.17262867686741
"Pla2g16",5.87449744537085,6.65119400955288,6.33154128289,6.47381321911397,6.67672392498293,6.50657301662032
"Lox",15.5443065771072,15.4284075641068,15.3365325076138,15.7312065037387,15.9912483965953,16.0110520131602
"Pdlim4",9.51916127975392,9.72757409061921,9.37035871633801,9.13443464279144,9.00256504369982,9.32150881209419
"Rnf112",1.97932707696764,3.00809687008632,2.18723026165137,1.82890161471476,1.93215193949694,2.18700848898146
"Kpnb1",12.9114997640371,12.2996312956403,12.5988210372144,12.184669771486,12.4765236799775,12.3373412183561
"Stat5a",8.87733984547311,9.24908871598502,8.95084829368906,8.92111502798275,8.71868808653849,8.93226754430063
"Yy1",9.84443253993953,9.67460890938938,9.70742863960165,9.66252210763998,9.69041425166949,9.72856026471754
"Gabrb3",-0.971675786622376,-1.00798339633274,-0.96052953149588,-1.00796207504624,-1.00802021036049,-1.03729120268504
"Stx1b",4.39072337991556,4.88778221052185,4.48249890339459,3.87252751328845,3.96866560869245,4.07735045281456
"Ptn",7.90099487435734,9.02941016134855,7.2794984557075,5.09441374895873,4.95877279460794,6.21229733392879
"Adrb1",-1.96772349488764,-1.96755945497778,-1.9603175126738,-1.96748375801374,-1.96769163336405,-1.9749116579478
"Ptger3",2.96967952801508,3.38103744785149,3.08306392139932,2.69472703533744,2.72704041189346,2.80317829014942
"Cd8a",0.63841115871228,0.738879971606763,0.671584887077396,0.603206376666747,0.705391886979681,0.671359809905339
"Cd4",2.63673597279586,1.77175501094166,1.98889310952944,1.72239039619046,1.72162901530394,1.93736208808653
"Cd9",10.7047985040106,9.94404759030187,10.4853349434167,11.1399426729647,10.5923087385611,10.7052138095024
"Grpr",2.01633979811369,2.1746003271817,2.18422538370502,1.90918814106166,2.08176220549781,1.90671985222241
"Atp7a",9.38232647222724,9.75276341389372,9.44348122592281,9.50607446965954,9.46990090464606,9.61205140429048
"Chm",8.29768941443922,8.65336705920022,8.44694713229028,8.49071221458693,8.40264903995214,8.47526173179898
"Plp1",5.21097095550251,5.97701082759149,5.65537163620606,5.57809344592113,5.50046351734691,5.47789773697497
"Lamp2",12.1408279472915,12.7797642281713,12.4475131235296,12.8087207805033,12.5524219835518,12.6933543462294
"Gabra3",-0.989320721969349,-0.989275026248556,-1.01847440635598,-0.952041381238213,-0.989311910090859,-0.941500113417506
"Fmr1",9.97654141066633,9.88331688742516,9.91745014758069,9.84202101686568,9.83033838712275,9.84865870345928
"Syn1",5.65811915326314,5.5926231994943,5.75177760617534,5.65625145755512,5.50057415055074,5.45200637425631
"Srd5a1",6.99471923355682,6.36421516042409,6.83805696750227,6.64286093213139,6.82813551889663,6.5769084550022
"Gcgr",0.35305060802304,0.220495850182615,0.288775356314618,0.291677956496057,0.289820974262897,0.288747338167687
"Insr",8.05301428338038,8.75493008988522,8.38147449899308,8.28482642049328,8.25089376719536,8.29035778148405
"Glul",11.6488104189148,11.6715330171416,11.9675656521006,12.7763999547905,12.543431437993,12.3525217623194
"Pgam2",-1.07533961068991,-1.07525931805498,-1.0492141209444,-1.03948125195016,-1.00697350845634,-1.0493127236313
"Cth",8.47752528853186,8.46709821439936,8.76178683595382,8.38327305289155,8.68658555329982,8.24545421860748
"Hspa1l",3.58071112553144,3.5281691544468,3.32443349172406,3.76860014442326,3.63596590933195,3.93228967514267
"Psmb9",7.6541446957172,7.60649368480071,7.66300396397976,7.67266260593546,7.75554972850312,7.68142139349849
"Psmb8",6.09755610145353,6.31013231458575,6.16157228166378,6.00803568818501,6.19073074451012,6.14165514270343
"RT1-A1",10.3541230427663,10.7509395547525,10.7118546875281,10.9329547756072,11.0491064092245,10.8317072036471
"RT1-A2",10.6722270788256,11.020283247928,10.9618962217864,11.2555334313046,11.3019370991506,11.163094206818
"RT1-S2",-1.50259047321719,-1.50230918869777,-1.4898911968662,-1.47722310062242,-1.47757955118413,-1.48995995999455
"Tacr2",-1.07533961068991,-1.07525931805498,-1.0492141209444,-1.03948125195016,-1.00697350845634,-1.0493127236313
"Lta",0,0,0,0,0,0
"Vars",12.1792316330778,11.792265543652,11.9821328025314,11.6860105505656,11.890033175947,11.7916376490898
"Scgb2a1",0.11766026865772,0.117755737652581,0.160315655342755,0.154246191601056,0.251170783512682,0.160100835369264
"Snap25",3.62252632220358,3.74026695221127,4.64249560636999,7.47661491712531,6.14590622833225,5.85016160356621
"Acat1",9.81455771872373,9.87011063756072,9.70804768054748,9.78766758080206,9.76575145666832,9.91099601632994
"Myo5a",9.70626786056197,9.29246182630912,9.55542061133876,9.559880205117,9.36008424977529,9.40392645954293
"Xrcc6",9.21843484842033,9.09615988753968,9.26585554556451,9.01667476653629,9.08479793329673,8.942178172332
"Itgam",3.42323997365829,1.99308595130643,2.47267905808628,2.1122037500462,1.99212193015007,2.28764674449421
"Fgfr2",11.8311738138979,11.6508476036413,11.5642573283085,11.2641188410774,11.8131257326587,11.7153756673292
"Prkcb",0.9151415957057,0.788001442566244,0.83886952385982,0.788400754598952,0.787311700988038,0.800558223069647
"Gipr",-0.118627023917392,-0.118545642713895,-0.0950416831911757,-0.0472834057058822,-0.0165582065251504,-0.055465456239984
"Adm",9.33782389602195,10.086991140526,9.60584662056908,9.79777847460621,9.81435637352942,9.91262832177271
"Slc16a1",10.2531809055368,10.3623317117363,10.6377491297225,11.2434418181712,10.8501960490547,10.716826112527
"Ampd1",0.366577737455895,0.368042516235173,0.339254839887365,0.368726608626129,0.332819440073428,0.378828311307948
"Calcrl",5.84911788165685,5.8516481205483,6.50403658180584,7.30180631005446,6.0527064153351,6.02360278199151
"Plcb4",8.39409964533951,8.91673902925053,8.45164625391642,8.46114389809127,8.1311822099967,8.49993613742258
"Cyb5r3",12.2380548702255,12.2896863415998,12.2158745617812,12.3674046055575,12.1871295317098,12.3252631127652
"Mobp",-1.96772983717637,-1.96756665515808,-1.9748405161134,-1.96749135407201,-1.96769814228133,-1.9604024782305
"Gip",2.25552477587569,2.17381896663664,2.14696451925304,2.17540272073361,2.20057713828035,2.2556972815101
"P2rx6",2.11538072796334,2.18239701200099,2.16367294652428,2.35376777166422,2.1483292960025,2.23626445729124
"Eln",11.266045499803,13.8892429205851,12.2245611911701,10.0219088770144,9.93868215087237,10.3333785329674
"Dbi",10.5026059489816,9.95489007745056,10.0646927167139,10.0532998278313,10.0993677561373,10.2403890884865
"Atxn1",7.23334885637229,7.88709656833895,7.0469104154542,7.79702813716277,7.49919834361697,8.16142553729129
"Camk4",2.4769766263932,2.42268713915693,3.1211576927213,2.42368716235459,2.3602744999703,1.72065502121621
"Cyp2d2",-1.01868951772332,-1.0179520097987,-1.02686066809721,-1.01760737021627,-1.05339177988245,-1.02695967071316
"Ntrk2",6.89071078441688,6.71132485723371,6.42158033617474,6.33694146652668,6.67787343224676,6.88684493403728
"Lipa",10.8782933406946,11.130872134542,10.8389788214231,10.5991220795661,10.5074324381488,10.7188811750526
"Rbp1",3.91887051915305,4.51182200295422,4.33399909431805,4.11316975755508,4.55527578041482,4.21556993572054
"Hk1",11.5253370200711,11.3941652665795,11.4946592652716,11.59352068071,11.493588839326,11.5086466380717
"Hk2",9.86676662431219,9.57336005065163,9.88123558430496,10.2262964782025,9.88655725707492,9.89525462081564
"Hk3",3.4973244295649,2.50892650645649,2.782405727174,2.89681775393758,2.41564693591278,2.87695208576187
"Crabp1",6.83754798834006,6.07912017457137,6.0625484996468,4.04328018397083,4.0871129477291,4.46098214765887
"Gpd2",8.87560515041302,8.65104782053956,8.84520874065847,8.77111531958022,8.85301407529906,8.73018244225746
"Slc12a1",-1.97268164239045,-1.97253688946378,-1.96935713136964,-1.97247009256603,-1.95981067398316,-1.96939251783206
"PVR",11.3079056332933,10.1387133828375,10.8447822121168,9.89382884705057,10.2063321705343,9.928607804741
"Tnfrsf8",0.228439985611729,0.299086686128798,0.29725773140822,0.299768032815764,0.361679799903303,0.297229520821577
"Scarb1",10.6507624330795,10.2292122773443,10.3179613840264,10.2158378577427,10.4237277201271,10.4418087601204
"Htr1b",2.55152262141062,2.55222836179086,2.99816834707244,2.68091401135124,2.88357784363525,2.33595307202154
"Apoa4",-1.48342451107294,-1.48311320153183,-1.51079995994088,-1.48296954632523,-1.48336404532228,-1.45563569218526
"Apoa1",1.13156173374649,1.09609900967235,0.98131151293761,1.05734063332699,1.05708336350402,1.18973085718732
"Adra2a",6.83789595843627,6.26122106023156,6.31300075172166,5.02107126620078,5.14157344336232,5.31788011239381
"Il4r",9.89586583032673,9.70239049389656,9.63452765923652,11.0947646768159,10.5099647504682,10.9669652165171
"Th",0,0,0,0,0,0
"Cyp2e1",-1.5026408282968,-1.4522728315362,-1.48989749470644,-1.50222831758994,-1.50258600477548,-1.48996649639277
"Mitf",8.3158595635993,8.25660447484441,7.98174873938809,8.54572533324064,8.48865777303091,8.82167483296954
"Ampd3",5.66212665811108,5.92966703635649,6.51635227663012,7.38727620910337,7.48350617276422,6.71493576153746
"Pld1",9.87269255813364,9.62019968523283,9.71286877678296,10.0866209972732,9.89167080796989,10.0227232475218
"Pld2",9.2257573798042,9.14515685783423,9.21795799865404,9.40420748640653,9.22376699058685,9.28148635866187
"Foxa1",-0.973006064272314,-0.972957791267098,-1.03169372163752,-0.972935226575667,-0.972996754890836,-0.914254196865438
"Foxa2",2.39439163766584,2.33573191772884,3.03104902339187,2.39748764307236,2.39480010498008,1.73015662833169
"Foxa3",0.731408168784672,0.696477139123278,0.808280386116963,0.6583416187691,0.695757976751584,0.582712065597354
"Chrna5",1.11433375477567,1.07538617576617,0.956826717194337,1.0754886960058,1.22232967206837,1.28694243211367
"Chrnb4",-0.940046508158904,-0.939998760864738,-0.920150456663822,-0.939976440473724,-0.940037300486349,-0.959879048328036
"Pc",9.59695963748651,9.75469989654725,9.81769338415525,10.1799247208196,9.92985894987527,9.91302821820905
"Nppb",-1.97268164239045,-1.97253688946378,-1.96935713136964,-1.97247009256603,-1.95981067398316,-1.96939251783206
"Rgn",2.25819136121316,2.56620798165909,2.33856512283365,2.51558791023151,2.36124252630185,2.51204976686915
"Avpr1a",10.8996158096252,11.2748830520627,11.1822918985064,10.7969166514052,10.9191971967179,10.7630144563991
"Cd1d1",6.47591230042393,7.28351489396717,6.98118995564786,7.92505528421489,7.63505898411151,7.67858077571089
"Chrm4",0.608265898417967,0.609103116384273,0.627236251878896,0.6094943139206,0.608427389125153,0.5904091070451
"Gadd45a",9.46904171609256,10.2398572903726,10.0479087962531,10.5056049068738,10.5363055430907,10.3274959319618
"Ddn",1.57245690885902,1.63570183492264,1.61117384782584,1.47539793602045,1.47419755367988,1.46770326891516
"Fgfr4",2.63204437144651,2.4996981183192,2.55177905351187,2.6677424121174,2.6632994514358,2.67961312314759
"Hsd11b1",10.6014620050018,10.7134216014197,10.7970571134362,12.3276643561662,11.6925854180667,11.870509576891
"Hsd11b2",2.89659750911915,3.04896353342308,3.08428537857796,3.07870599060219,2.98852478886362,2.92211053242606
"Itga1",9.80972567738745,10.3397728502774,9.71683557425367,10.6097911338634,10.8199559569253,11.0727872349731
"Mr1",5.21988011418437,6.48934917480531,5.63075068774936,6.88056997245607,6.45112149339085,6.88970968966894
"Aanat",0,0,0,0,0,0
"Pcsk2",4.64251601760534,5.89774839268396,5.55841943564462,6.56615745275046,5.84024696059401,5.91491497617227
"Scnn1a",5.42779907388066,5.89066802101886,5.78255823726938,5.79476609233343,5.53280143265218,5.54045907267318
"Tagln",15.9509878261091,15.150939798191,15.2891701676987,14.5790406590828,15.0664929929935,15.0845604704895
"Stat1",10.9053236549599,10.6714354150046,10.8562477687663,10.8657326614553,10.7191480012335,10.7245720975604
"Stat3",12.5811120538657,12.46797521178,12.3309285637212,12.47009858051,12.4501029054915,12.6537158121025
"Stat5b",9.2860633281354,9.2780156401621,9.14498438341503,9.17489815230398,9.05289079068442,9.25094957222792
"Egr4",-0.372757609652982,-0.336641526980409,-0.318315032114968,-0.372657887041807,-0.270783488268698,-0.358105223856979
"Stx2",9.7310748758325,9.65541417916766,9.59111672502787,9.63685755948826,9.64941464738907,9.74526390591088
"Myo5b",2.68953990221135,2.2946459079753,2.51137896093102,2.25437559954685,2.25374162436077,2.23477255611611
"Pcdhb12",4.48775490932587,4.89514424466648,4.61843439990185,5.14311585423218,5.02041776771425,5.15478198806754
"Ncl",13.6071281845199,13.1921829858748,13.4105669886814,13.186941150187,13.2864907474791,13.2258045453491
"Gfra2",2.93135705516539,3.39007106127461,3.1712440107896,2.93617765979875,3.10928212547581,3.01219994006769
"Slc2a4",3.09124510365753,3.26949277870196,3.30416403966034,2.95102209539399,2.9136293074385,2.80853060293565
"Cd24",6.75633619151451,7.33838731687487,7.60872815546332,6.27917454039475,7.07073026186577,6.11358599986164
"Egr3",5.69655014628435,7.24981299953983,5.98450351082158,6.8933467218389,6.06065033349001,6.96567658975497
"Esr2",0.200912596321923,0.236376781729869,0.258140585778531,0.165584224027919,0.201068085313782,0.143830257918215
"Fyn",10.5075082403126,10.6839800880323,10.4069385507402,10.7713821418782,10.3877616748529,10.7683775217978
"Igf2r",12.0747876278817,12.5600197158515,12.4428996304324,12.3386493196375,12.1753387076456,12.1314980550758
"Map1a",11.6993262377694,11.9032189159028,11.4737808909255,11.5920198036568,11.7346492462522,11.9908262108651
"Pgr",7.58174947607643,8.03854260150244,7.91772530042919,7.82316530329862,7.42004268782084,7.51402473391998
"Syk",2.52410609969224,1.82512928166474,2.15060663741216,1.82536098088468,1.91031689835565,1.89184999288649
"Vav1",1.48040129858195,0.998399937686012,1.15314243185699,0.998522424695407,1.04054702847646,1.10579291286293
"Plagl1",9.41547068192836,10.1889686681815,9.64308088811091,6.72805870565594,7.09958105817123,7.07295866885761
"Gata2",6.91038572667349,6.79159382243216,6.83182118812221,7.30838973721092,7.23682881705387,7.29177786356302
"Sp4",7.30881280110684,7.72871909715557,7.54946781467029,7.69072069555854,7.57548420032229,7.60240058240133
"Cdkn2a",6.46579314872249,7.04030113635367,6.90251106550777,7.73969738325762,7.20348910519934,7.32212932125879
"Cdkn2b",8.38589778874186,9.72712648581831,9.31850217742078,9.31553194247904,9.20336027557032,8.99745606888398
"Zfp386",8.308574214032,8.57974678103696,8.46077415793791,8.60421091479719,8.34151641500206,8.45625000449621
"Casp1",3.82199662817796,4.00028991959594,4.09833927415857,4.5472644360884,4.27550088495299,4.22418666024908
"Ptpra",11.1017188080852,11.2733499846846,11.1619735295605,11.348034136344,11.2746449496228,11.3369004098078
"Slc25a5",12.2150889559152,11.4627794510527,11.9033297931006,11.6275584715674,11.7127388675951,11.6057530799646
"Fhl1",13.9764721389285,14.2211456911272,13.6799706391395,13.5378774151344,13.9539394409959,14.1647467039535
"Idh3g",10.6061684911749,10.3425421702826,10.399087529635,10.4178221136085,10.5435352716835,10.5559464937397
"Bgn",16.5137628729578,17.0876584165253,16.7732344176761,17.194292122058,17.1742959545086,17.2117702653488
"Gdi1",11.5412809608295,11.7803860371896,11.6386897820163,11.7734739844153,11.7085514242049,11.7631564213033
"Efnb1",9.86389484374463,10.4450660836344,9.81453355265007,8.98958684160934,9.10554133299429,9.38751099834127
"Ccnd3",11.6371446930221,11.5860387548549,11.4896714549365,11.212537051912,11.0843920787535,11.2703848343347
"Gnrh1",0.702561220987196,0.738110222949067,0.756785747610136,0.667291982300417,0.769686107930936,0.682039019473672
"Inhbb",8.34638732151599,9.72254325854217,9.06830705990878,11.121196749619,10.8440494239697,10.9487813169146
"St6gal1",7.49932936371267,7.65267721399872,7.59814731533229,7.81108546043573,7.83110661668627,7.79895201208441
"Gucy1b1",7.20438848129107,7.61978634720555,6.98742639207324,5.75794448801869,5.71004488662909,6.15865570949896
"Ccnb1",11.0535949150297,9.84629963941774,10.6630274863962,10.3359668980029,10.9100622709057,10.4099343752818
"Pcsk1",3.05689354927356,2.94047755091403,2.90367895751528,3.34751297250012,3.66868923727099,3.60310769746407
"Il6st",13.4822214099774,13.7602714660303,13.5818126065933,14.1251102612086,13.926021627859,14.0649997759443
"Lyz2",6.96551494043999,3.54906525817534,4.44643877770898,3.36332050950422,3.48295211141953,4.23398763206056
"Sdc1",12.3179394334082,11.7720872644007,12.0339053589983,11.8609470342643,12.1810226054525,12.0320928097646
"Tapbp",9.64364813990691,9.41158708870666,9.78343218088902,9.79755280890004,9.80436254588411,9.54514311080984
"Vps52",11.0362637537595,10.9101458996014,10.8498906256393,10.7662843552397,10.7901985513915,10.9015556543568
"Tspy1",-0.67880108445954,-0.575161934953109,-0.632955945578796,-0.678720545687056,-0.678790501704855,-0.672781087823484
"Arsb",10.3135437030326,10.4921909436453,10.5412379718142,10.9418176791406,10.7255340916186,10.6953052369043
"Add3",9.51496918087218,10.8020205692239,10.4492133706439,11.3813297782194,10.514297330003,10.6570950585153
"Onecut1",-1.00203574183322,-1.00128458543582,-1.00094561392161,-1.03738619908806,-1.03744073748988,-1.03812801800189
"Tyro3",8.89860387348162,8.91733583183264,8.99996876803017,8.91858280678595,8.95946418043799,8.84702457823893
"Akt2",12.0150555239727,12.0007466980549,12.0127568756607,11.9059730180332,11.9108630976382,11.9035622931888
"Ghr",8.05585984828787,8.58248737899146,8.13530817930957,8.46443930942834,8.09359614198256,8.46288316003556
"Gpc3",7.15964234811528,8.35932770092613,7.85502643782984,4.8503196619421,4.99770369144799,4.82847026338591
"Acvrl1",8.71360492958187,8.80535770419889,8.34726305204522,6.56993084120849,6.63665813924573,7.01551275507228
"Grk2",10.2577218378856,9.84051178117042,10.1187266200698,9.99517018524554,10.0744330185461,9.96519179135399
"Apod",-1.02397313637762,-0.987782750109341,-0.987024810395704,-0.987431331106354,-1.0239647960837,-1.0245511964428
"Aqp1",14.3883486647689,13.4494421094367,14.3396116619874,12.4843043105183,12.2887583727301,11.9658150667396
"Aqp5",-1.97268164239045,-1.97253688946378,-1.96935713136964,-1.97247009256603,-1.95981067398316,-1.96939251783206
"Arnt",9.9628685452787,10.1528674576883,10.0036385297962,9.87863912273928,9.88409701766346,9.93559754188868
"Arnt2",9.79068430152248,11.0479914125664,10.3299941081126,10.2888485971102,10.5718547101115,10.5196954025427
"Bckdha",9.31741972733334,10.0940837419317,9.88736667154712,10.5837866891383,10.3912436963635,10.3059002558363
"Bdkrb2",4.59691576293786,3.75491049861272,4.1043481180675,3.3459582888845,3.2979980396169,3.39354317695849
"Bsg",13.374020356196,13.8990009452946,13.621468411594,14.077048737287,14.2135809613576,14.1603570884736
"Nsg1",8.16438974508957,7.53166145127554,9.1727107916391,9.47392106868579,8.83753445479575,7.83104256828422
"Cnr1",2.83916287826851,3.43206221596374,3.34667303974004,3.13516700663547,3.12737442439424,2.92021022289093
"Coq7",7.44757249093,6.722030252537,7.10618449927767,6.79252651815591,7.02200429503822,6.8858822790529
"Dlg1",10.2178326060352,10.2858006615807,10.2348511704863,10.2862128868835,10.2004092412126,10.2602765273698
"Dpp4",3.45586485390807,5.2551452062963,4.35441265286409,3.37581397048273,3.41407371553286,3.39603622024589
"Dyrk1a",10.5392173628909,10.4823104404737,10.4678820343567,10.4454826493031,10.4654281321634,10.4983372580589
"Fmo1",6.13248690711863,5.74119504281532,6.21469912598353,4.53275318941619,4.15201416485603,4.06452552611956
"Gamt",7.19536820403815,7.21769421472219,6.89783402048874,7.19529223197059,6.97752281721913,7.39510471348629
"Gstt1",5.40057080065954,5.85293088035079,5.66182005956338,6.16942460226018,5.76997654291202,5.93463135352788
"Id1",10.6596878495706,10.1059701656707,10.5017156133655,10.4758899498256,10.6488503735902,10.4434835559631
"Itpr1",10.0790471067284,10.6014659417138,10.1994591196695,9.84859268059561,9.93651748274881,10.0333524862238
"Mal",-0.610898102093772,-0.610840749907024,-0.554005195781474,-0.53936374579981,-0.610887042749773,-0.631989624493714
"Nmbr",0.7613290867225,0.796140657798937,0.753708597119378,0.691928507768922,0.691749579026257,0.71686531853893
"P2ry1",4.22620386341873,5.40374603487197,5.25161348061577,6.68240266336106,6.48165033749115,6.14538796895568
"Pdgfa",9.91648869183734,9.75050292613171,9.72811526187669,9.70132878694796,9.92987818226513,9.92098403171438
"Pdgfra",13.0385743767435,13.7208059279375,13.1424160078519,13.729819864668,13.4374009823791,13.8208845680121
"Proc",-1.05200771734783,-1.01654295354852,-1.02542226834391,-1.01619813902081,-1.01713851880893,-1.02552139601914
"Pvalb",2.2630020409434,2.51796843733485,2.52472240804705,2.94023269520479,2.54452190885411,2.60814013312152
"Abcd3",9.39650451857261,9.42123273800223,9.3870009792081,9.4682092987382,9.38339788320803,9.44767124005244
"Rxra",9.03551083427784,9.24888077009573,9.13887418855983,9.22492704901005,9.01946329595972,9.12551678611184
"Mapk10",-0.620868246653377,-0.58561056287873,-0.609806099903058,-0.656143057513599,-0.656214083865574,-0.649611875552582
"Smo",10.0989378148851,10.3955838245179,10.1422578850425,9.99754533595531,9.99826543860785,10.1029083219406
"Tst",6.22040896887353,7.30110032763722,7.27420337291247,8.5530095203424,8.18972257148714,7.85791732125767
"Cnp",10.1061749564916,10.2615805144573,9.91929866686843,10.575758748398,10.436736216312,10.770826550961
"Mfge8",13.4273418838599,13.41073244161,13.4587501555929,13.9024818061716,13.914747801145,13.8689018108003
"Cox6a2",4.76984811680588,4.74912733665847,5.42914344471251,5.06618718624591,5.01898112867925,4.37292843948225
"Nup153",11.0864229232886,10.7058456981128,10.9963290639923,10.5853708121337,10.6582550963407,10.5216182009456
"Cox6a1",12.4381627014432,12.0780683493599,12.2508090677583,12.2900740289405,12.3321667494633,12.3184268468451
"Gclc",10.4467481360232,10.0890902625921,10.3751607674405,9.80295285130911,9.78217582996034,9.68532277250182
"Amacr",7.28343606088638,7.22228339263739,7.09230078937934,7.20854137174414,7.18600740029359,7.35783332340141
"Igfbp5",6.9515068509422,8.96866251334342,7.25751032749515,5.7537781666715,5.10099745947566,6.12996216772124
"Acadl",9.60649595236461,9.71878185641229,9.69896421890981,9.91846010876187,9.70884928754519,9.77732938363217
"Acsl1",8.46276170191571,7.87801570758344,8.26710888411765,8.35170465656212,8.0466011249824,8.10243271140418
"Adcy6",10.8317024364482,11.2283489259333,10.9550814426778,10.9832125687867,10.8758888460539,11.0044949459333
"Alox5",1.60663222164715,1.78025674490769,1.84757773075588,1.74970651652538,1.80782986367124,1.62463494261985
"Anxa3",10.5783236519387,9.4980211363177,10.2529573656966,10.0093746904066,10.7563371567095,10.1680709519897
"Aqp4",-1.97274744167653,-1.95953216706622,-1.96936465301393,-1.97253218344964,-1.97271883341547,-1.96940065979
"Azgp1",3.14431847360205,3.14553130480327,3.34030190647645,4.13720404532319,3.90184270276232,3.82414635676897
"Bglap",1.18357571262086,1.18512446422332,1.28443730486414,1.21949293569108,1.18387453277021,1.1015965177886
"Bmp4",11.1058696350324,11.9494987194811,11.5191657023234,11.7605476961602,12.2265737596804,12.0020792028537
"Cacnb3",10.0809290634021,9.93378107639452,9.91146416883035,10.6886540263664,10.7018787610888,10.7911572947956
"Cebpg",10.3227369563835,10.4377333913957,10.3379974606016,10.2810100469925,10.3472188137607,10.3563521436646
"Chrna7",-1.97274744167653,-1.95953216706622,-1.96936465301393,-1.97253218344964,-1.97271883341547,-1.96940065979
"Abcc2",-1.97274744167653,-1.95953216706622,-1.96936465301393,-1.97253218344964,-1.97271883341547,-1.96940065979
"Comp",8.35435876662002,8.09074420786599,9.22583893343022,8.11241220852792,7.89709867064,7.00146799339675
"Cpd",11.2862433315024,11.5662987663609,11.2618023004295,11.6676470305837,11.5744581288211,11.7855213282045
"Cst3",11.9022887060093,12.5331966632918,12.2304214268932,12.5231337696833,12.6938587204009,12.5958175027994
"Cstb",9.95916535658581,10.2302584023085,10.234979900395,10.4355367631128,10.1277884519663,10.1413945865917
"Cycs",11.3449642152096,10.570075720931,10.9636980162567,10.4382365010538,10.8225648442934,10.6242226244872
"Dcc",-1.96772349488764,-1.96755945497778,-1.9603175126738,-1.96748375801374,-1.96769163336405,-1.9749116579478
"Dmp1",1.27220632155535,1.27376604867326,1.34308319241958,1.23946232024575,1.36729409051874,1.23328119807697
"Egf",3.23667506777787,3.58500969062564,3.45804034399,3.48085553185701,3.67288974810063,3.52967467519057
"Emp1",14.0636271449985,13.9625683913017,14.0307837352143,13.6465431022224,13.6894439954432,13.6503075817686
"Ephx1",7.86374178369269,9.64238209280737,8.94368268757297,9.52136166616218,9.27240315896411,9.20626166324021
"Fgf1",6.66708223928622,7.24672820222259,6.87712229797417,7.28395921776837,7.21100851835106,7.32726679083996
"Fnta",10.1405793607838,10.0299589971483,10.0443358309319,10.1722274834207,10.1792679692945,10.2166810743917
"Fth1",14.5500178765556,15.0087228106815,14.9631473335519,15.741885724426,15.4345461917914,15.4044389681754
"Gast",-1.50259047321719,-1.50230918869777,-1.4898911968662,-1.47722310062242,-1.47757955118413,-1.48995995999455
"Ghrhr",-0.558727441154356,-0.594215549640815,-0.528153534536834,-0.59418859537217,-0.59426208697846,-0.642543302036067
"Hsd17b1",2.46705268921619,2.47050855604,2.48549463693065,2.47212053500245,2.46771992881223,2.45320621760478
"Htr1d",-1.46732523144967,-1.49318451185135,-1.47363200217111,-1.49304848207534,-1.49342204048284,-1.49985813075849
"Htr4",-1.48340117675506,-1.48308830644952,-1.45539655274546,-1.48294393102106,-1.48334040785663,-1.51099035829567
"Jak3",8.45514617331296,8.4627371411428,8.43461074992887,8.81251839951213,8.69673847758886,8.7789593458495
"Kcnc1",1.59926326455551,1.64563396451363,1.31828670424787,1.59983996861974,1.64462900549951,1.92639639734633
"Lamp1",13.622277326997,14.0036101456234,13.8104332518794,14.2408325321082,13.9442287158066,14.0950411083882
"Lhb",-1.97274744167653,-1.95953216706622,-1.96936465301393,-1.97253218344964,-1.97271883341547,-1.96940065979
"Lipe",5.55307862473739,5.53751401972517,5.48499731426006,5.58517076272117,5.59583024253688,5.65079951060024
"Mat1a",5.29445417535436,5.43526683238907,5.35939664719652,5.82602759965851,6.21968710050552,6.02832120675721
"Mgmt",8.27934416695084,9.7437105780253,9.10718125784861,9.95329102635835,9.82843586501586,9.79520956032656
"Mgp",13.5099697335783,14.5551155552382,14.5045755652042,16.0578703040426,15.6102306162516,15.3620175393512
"Bhlha15",-0.627501259515361,-0.627444698086021,-0.571105460672725,-0.627418254844688,-0.557851960109084,-0.649002625604852
"Nfyb",9.79860932557309,9.17444678410488,9.20506916759841,8.93128403393273,9.14032125743142,9.31726153292265
"Nfyc",10.3244982399879,9.82683251030922,9.97582159392896,9.7740211135977,9.81202049406433,9.89286458505061
"Ninj1",10.7488447339646,10.436089770097,10.7279107732726,10.8737598131193,10.7608360446712,10.6818544076535
"Npr3",10.4992254285157,11.8371447511962,11.2653666114845,11.4280223536246,11.9428996129458,11.5882794616567
"Npy5r",-0.727682352863784,-0.727629040162267,-0.692729051695619,-0.623381486608032,-0.692251993807754,-0.6927433850253
"Tnfrsf11b",11.6936960386707,12.2869210413939,11.209665510293,11.7406360889134,11.5794494188308,12.4406857836114
"Oxtr",-0.00985399590885348,0.0256023737056343,0.0384614209252968,-0.0452224489130922,-0.0453303799691973,-0.0758636464680511
"Phb",11.1615863373663,10.7517344434985,10.9577470203053,10.7897162007557,10.9071319359137,10.8473374384618
"Ros1",-1.00452966541128,-1.1051066910085,-1.07994803157092,-1.10492284534369,-1.10542771343792,-1.08004542602977
"Rps29",12.557431474689,12.4545396743967,12.4288099256637,12.3069991082716,12.3905603599646,12.4259553829973
"Scn2b",5.63177200814441,5.04480524799067,5.09488937790219,4.95367104158229,4.59647112968173,5.01847033579736
"Sod3",12.5369573454589,12.7840650169319,12.8703972615931,13.9915340131653,13.6560567414214,13.6139092968957
"Spp1",13.9681243287302,12.7996488854766,14.1870791777677,13.305193455207,14.0904246280082,12.8946164709433
"Cntn2",4.15158640491896,4.28346142365745,4.02297294936146,3.74863020479098,3.50832603731048,3.82302908597747
"Timp3",10.4219167333097,10.8927229611542,11.142742708468,10.8262066411262,11.5543141791138,10.704837548884
"Tmpo",12.1406314482088,11.3237136545054,11.8959658267323,11.208141360626,11.4493305090366,11.1649426594561
"Tshr",1.09360763198696,1.12925940019334,1.15557546614721,1.09490951326708,1.16090229151934,1.08376395233614
"Vcam1",6.94150845378391,8.12127197639981,7.72743403368035,8.77092599646819,6.8751239114123,7.62698113535176
"Slc30a2",0.828843783317925,0.865126224622252,0.913074749849733,1.02650666177899,0.931359506469171,0.912843338244436
"Acadvl",9.77366334410955,9.81953504062123,9.81951628293025,9.98985275356224,9.9444574580742,9.94423801525337
"Asic2",0.450056744813136,0.31671959033564,0.42459199535058,0.316770286516006,0.316632059513555,0.275497345238589
"Actg2",10.6217904680844,9.59797295381112,10.0890676711298,8.06887234152195,8.37247968975512,8.24149005545647
"Acvr2b",4.87605717295398,5.45916796072369,5.26806837816092,5.34485578611474,5.26204838830667,5.20299627588862
"Adarb1",9.92563837901336,9.88965875880303,9.58523555266589,9.10545797561057,9.13869480240549,9.44448940525034
"Adk",9.4058115148892,9.38703855741545,9.26815911616341,9.43534056168732,9.46855467283877,9.58021353725197
"Adora2a",7.21829718513296,7.42914052606237,7.19252290328533,8.69108583802327,8.46754162079703,8.71050968172249
"Adora3",-1.97274744167653,-1.95953216706622,-1.96936465301393,-1.97253218344964,-1.97271883341547,-1.96940065979
"Adprh",9.85822859959599,9.88938051017275,9.87172808473126,9.73466651364183,9.76382954402383,9.75132449898594
"Grk3",0.703677566107915,0.401021347120314,0.454544641185495,0.401091127536582,0.400900818579042,0.498800788486432
"Alad",9.41661893295471,8.88040653675897,9.13420974213009,8.9901604778125,9.09181557757424,9.05529102042012
"Aldh3a1",4.772734129454,4.35653849544078,5.48647877989972,5.4421026169875,4.22860524650425,3.91351146429355
"Ambp",-1.96772349488764,-1.96755945497778,-1.9603175126738,-1.96748375801374,-1.96769163336405,-1.9749116579478
"Amh",1.80211067955571,1.97014752667092,1.93212127967815,1.87406061084787,1.83769950750742,1.80988788261281
"Anp32a",10.1232651922233,10.0626537759592,9.90989471856394,9.59080615480118,9.90116688256393,9.92905128420986
"Anxa1",13.6577320107563,13.334240461178,13.6735927784264,14.069929728628,14.0827071385776,13.8987118911435
"Apobec1",0.498705933630428,0.189772523592401,0.267012520714613,0.189836060946062,0.189662771638772,0.266976124189219
"Faslg",0.873652906406251,0.831708601321464,1.04974485310942,0.831806450705649,0.831539547208248,0.634608899711383
"Arrb1",9.53518574609369,9.44241204755745,9.90070395141187,8.49347918072341,8.70756332447444,8.18861619801262
"Arrb2",7.06749546603925,6.82406770401591,6.86101551267582,6.80120634581629,6.93615011922001,6.95344430486991
"Atf3",7.69522970349606,7.26539187991921,7.44170393357887,7.63061366877993,7.29595923509725,7.50189331006736
"Atp1b3",11.6735106367426,11.5618172432805,11.8719923206468,12.1907471455963,11.9113201191018,11.7967052517138
"Atp2a3",3.40110678815294,3.51880656416707,3.36677753094434,4.09062477426862,4.01800307638849,4.14749307054422
"Atp5if1",10.7357583098624,10.362424415753,10.5142477650257,10.4792837243233,10.4719710176243,10.5104709687558
"Bcan",-0.562586730946039,-0.597963561255797,-0.580128901362761,-0.597936587842931,-0.562438977814776,-0.580334027567011
"Bfsp1",4.17768104108951,4.35059287155315,4.27600409525322,4.23057320519691,4.34170000634063,4.27426946683688
"Cacna1a",6.29166281940335,7.18024354801183,6.78112095877843,7.63166757037165,7.19551267721916,7.36842234872456
"Cacna2d1",9.90132823101873,9.58746263304605,9.64608849851544,9.17569941672004,9.17316202495907,9.27273765435651
"Camk2a",2.8552025785211,3.12560581703655,3.0967411373633,3.12849272287695,3.04109915244352,2.97845899807576
"Alx1",-0.28307278353159,-0.244716198210001,-0.194832946913928,-0.282956109322881,-0.283057449487906,-0.352068323362261
"Casp3",9.37726570990987,9.46597080921939,9.4577766538885,9.43791478603262,9.50323737150627,9.43441768444558
"Cast",11.6741750564001,11.576756491565,11.5683345809704,11.5650128090318,11.5701924428382,11.6247338189471
"Cav1",13.9473137174092,13.1967400710724,13.2057762371451,12.7335586762162,12.9463889678124,13.20622447911
"Ccng1",11.9834074202879,12.4621572195806,12.3861573062576,12.5443280733425,12.7071639420015,12.4623710213486
"Cd44",12.857408315158,11.9317840041918,12.4794988381511,12.9219874191159,12.6489777738017,12.7005799179826
"Cd59",8.37925625181732,9.32935583624094,8.57927086327319,9.2444698807151,9.1204549501168,9.45749759617189
"Cd80",6.64669444402674,7.44650825945394,7.1679468000827,7.62787981824979,7.65333975664767,7.51926433910637
"Cdh6",1.7843906964314,1.74903766131179,1.99574344869415,1.70990319292081,1.70845132473228,1.48014798900399
"Cebpe",0,0,0,0,0,0
"Col2a1",13.0419461170957,11.9786344070685,14.1955746546812,11.2744268018835,11.56586949071,9.73486375369766
"Cpt2",8.84872925352543,8.93323155711433,8.89735954632134,8.96467381141752,8.89145369046666,8.92168460994063
"Bcar1",12.1441847513694,11.9065046702501,12.034368496564,12.0120191201201,12.1690189758984,12.081495262255
"Crmp1",1.9200468640555,1.9599172973451,1.88709973198864,2.03483400690248,1.99616313013141,2.06838091722861
"Dpysl2",11.791986808671,12.1437646521395,11.715751622084,12.0006261047373,12.0375639165393,12.2712191189596
"Dpysl4",2.18331170854953,1.94215753491862,2.27349102063343,1.90044553537721,1.9805018002769,1.72971726892769
"Dpysl3",9.21142481621999,9.24607241956414,9.15344818173558,8.47908995364757,8.11345506609088,8.37157294602572
"Cryab",9.55373782184825,10.2453388586873,10.2029866085276,9.84638160447199,10.8040506126739,10.0217678403131
"Crybb1",-1.95987679886051,-1.97252179322851,-1.9693553334465,-1.97245527568723,-1.97263794294965,-1.96939057191646
"Ctsc",7.50462044587882,7.78955626151265,7.68782505959308,7.53068402791015,6.86792136893468,7.15856599252507
"Ctsh",11.1778194570741,12.2935427394979,11.6923792811673,12.0537649168667,11.7770235174012,11.9586960342527
"Cyp1b1",13.7095504567904,13.9856825785006,13.9658210095977,14.7032166326532,14.5015794817101,14.4841935652294
"Cyp51",11.7476317420301,11.1507319530254,11.3703415610476,10.8464417445413,10.8373831211615,10.9207527193316
"Cyp7b1",8.62669734806957,9.34432724403288,9.03922724621312,10.494156033701,9.94061608889915,10.1636711111382
"Dlx5",6.76429591960619,6.12279517083926,6.50970996075581,6.71395107861657,6.7954808521152,6.6885515498328
"Drd4",-0.989320721969349,-0.989275026248556,-1.01847440635598,-0.952041381238213,-0.989311910090859,-0.941500113417506
"Hbegf",10.6884618845044,9.85548672253295,9.78262383821663,9.6165193420368,9.73545199269696,10.1653361326689
"Sparcl1",2.89188068623264,3.01868810417651,2.75116270939079,2.99163309635122,3.01452766961946,3.20720206879912
"Eef2k",9.93214246829818,9.99752708598454,9.83450163289571,9.71784546162533,9.39295788952448,9.68573481982056
"Emd",11.1427495019948,10.6007029817056,10.879918134357,10.31036745708,10.45857766944,10.3762806707531
"Eno3",9.14327321350798,8.65441149426014,9.15296267634836,8.86364703702667,9.39294236102876,8.87417437656341
"F2r",12.4727026424853,12.7043038079785,12.4505016821304,11.9366320524572,11.5972445616825,11.9049398501713
"Fcer1g",5.24708550015068,3.80937122634137,4.36822349980739,3.64460197693769,3.68417876113786,3.82439523247641
"Fgf10",7.82719413967129,8.27496068133998,8.55997462576865,9.67166138229963,9.29706599509656,8.97546647343509
"Fgf9",1.88438001185018,2.05626251180325,2.04715133490871,2.05785787103904,1.98987617665643,1.94703695076574
"Fosl1",9.95324241679871,9.3587328517881,9.85042871058558,10.1579144098556,9.98850047973178,9.87876636850153
"Fosl2",8.73611964828414,8.91344930248523,8.71048056778966,9.28671925869126,9.0709097479779,9.29311841092961
"Fshb",-1.96772983717637,-1.96756665515808,-1.9748405161134,-1.96749135407201,-1.96769814228133,-1.9604024782305
"Cenpi",8.94960498736225,7.92649837840505,8.7759964230307,8.2079704034389,8.58270770037075,8.05739431175778
"Gabrb2",0.667935041833256,0.70415578497104,0.771300895813043,0.772940508739367,0.860508041946892,0.731468792932235
"Gdnf",7.17078052362794,6.41505062823264,7.16340271681601,7.49857360973011,6.66511330609538,6.71135631702704
"Gfra1",7.88638981070942,8.48114373556182,8.80437535489986,7.92190022924451,8.08522553436493,7.38295430004047
"Ggh",6.96638620453085,7.09473073748649,6.99625345175308,7.26487328297941,7.16790435250809,7.25069383699934
"Glrb",3.62652706539962,4.51770331696876,3.89860581588153,3.63450296537712,3.59544617254513,3.78848394426379
"Gss",10.0494642458795,9.42716718432407,9.85133692469033,9.4239362378427,9.44804849706496,9.32297115786531
"Hmgb1",11.5883321488831,11.1375803064457,11.3467674636479,11.1439240357013,11.2789896327936,11.2276455982639
"Hmmr",9.83573410735793,8.81219212382656,9.57561094427823,9.39469834678468,9.85379721698067,9.37259995319669
"Hrh2",-1.97278560808162,-1.97263684543978,-1.96936900674818,-1.95936959296842,-1.97275671386663,-1.96940537343005
"Hspe1",10.0623043508773,9.46507267505291,9.78058555830299,9.44098729321451,9.70023874482657,9.55371597368263
"Icam1",12.5790293559613,13.2768469085979,12.7792319587238,13.2516261329626,13.1050903676492,13.3270644238617
"Il1rap",7.59531445114722,7.10330694163478,7.41156172850078,7.19083874260279,6.80414399070467,6.93524033454395
"Irs1",7.98187773792558,8.45015677926027,8.26559348186571,7.90643087105059,8.01638529087219,7.9118318576886
"Kcna2",-1.96772349488764,-1.96755945497778,-1.9603175126738,-1.96748375801374,-1.96769163336405,-1.9749116579478
"Kcna4",2.23393628664793,2.15193967959269,2.4706702985136,2.99005188989505,2.50637285103597,2.47048005507223
"Kcnj8",2.98166556807763,3.31043275031643,3.0408116974769,3.01751795394666,2.92577877465981,3.07688582602337
"Lamb2",12.3916721383787,12.8847936938632,12.4398637742642,12.4381560289681,12.4143431450337,12.6246187288577
"Lgals4",-0.31393685449439,-0.313866354973369,-0.248413436150432,-0.277358822579553,-0.244285591409866,-0.326310375578157
"Lgals9",7.64271820781027,7.48689874601611,7.63554052253774,7.78931369376849,7.60561971636852,7.62673465944395
"Man2a1",11.9098230174544,11.7945521812903,11.901813235763,11.7859148250627,11.4422196831691,11.5644416177252
"Vps35",11.5976198133342,11.3700281690768,11.3959028887899,11.3555921511578,11.3505729902858,11.4410036731374
"Mip",4.53823472097044,5.05894532252414,4.82126113389323,4.72547205820912,4.91906887673725,4.79959935532725
"Mmp11",6.0466851913179,7.58232919100333,7.53896307917103,6.0531485852942,7.78673545472564,6.1954861319995
"Mras",11.465888364431,11.4478187567522,11.5356039920963,11.6062250639101,11.6299357877079,11.5393299943043
"Msx2",3.53152088133246,3.48632416643716,3.64060653594368,3.23863584537639,3.23488265276205,3.10507523701035
"Myo1e",9.94667720218391,9.45299173838466,9.52123180216804,9.38891558464476,9.46627311471697,9.60619701779711
"Myo1d",12.3556949309749,11.7086330546701,11.7509159292559,12.1004675281313,11.8849380993583,12.2739508773114
"Myo9b",11.5744049761908,11.5144245288951,11.3869671529846,11.2950569549883,11.2651073917003,11.4375297729026
"Ndufa5",9.61105829493919,9.27534055957059,9.40432636501624,9.36202351058448,9.4798057427576,9.45978768890969
"Nedd4",14.7952737546019,15.0191142003775,14.7958892289676,14.8626193691405,14.7714409660103,14.9283349160975
"Nedd8",11.0389350551663,10.7077708359515,10.8428868203872,10.7641274713042,10.8812406808253,10.8531502012365
"Nes",8.34687590066918,7.89832924642357,8.23552461719179,8.27360723434348,8.29001878943467,8.16889096824366
"Nfia",9.43197634388102,10.1714525910803,9.51820104162732,10.0974681542747,10.0259363368947,10.345215671438
"Nfkbia",10.3591802366816,10.7711115046492,10.4215076431521,10.8275242146591,10.7479564618111,10.9313785657484
"Nid1",13.0855065895826,13.7356886931389,13.3299991285746,12.8814704380259,12.7054652724855,12.8740663680419
"Nog",5.83854710480187,6.49978758771704,6.3574220148364,5.70435394072229,5.82087302505152,5.57435881430996
"Notch1",8.18282661251478,8.50747420827502,8.12558764276204,8.09128789314371,8.36969983933768,8.45005663387356
"Nup50",10.6203527335982,10.1428870640351,10.4723484194204,10.2178223127633,10.398793777403,10.2175795244794
"Npm1",13.7004068078699,13.5085152753329,13.6439329352358,13.5421586679192,13.4945000829846,13.4788574818174
"Nrdc",10.7582767411139,10.6422449359237,10.6111318601994,10.7563084103216,10.6346689264908,10.7846176467256
"Nxph1",-0.0485511437580966,-0.0484672645622162,-0.105206931498001,-0.0484280510485751,0.0213160629002902,0.0431417332637021
"Oaz1",13.2022375104216,12.8353660786016,12.9652505301605,13.0485893570925,13.0712850244979,13.1134884551462
"Ocm2",0.580441953304927,0.545078028434283,0.589443899349212,0.616678514425377,0.614783950155844,0.589047323811003
"P4hb",14.8977033445815,14.9402003783062,14.8775269471738,15.2527920799161,15.2118568327917,15.273749370624
"Pcsk6",9.84669120840263,9.96627204626241,9.93790821585041,8.88509052522766,9.20372055369302,9.01297895094245
"Pam",13.2962734573409,14.0190021098852,13.5079338116877,14.1254794281517,13.9695750104867,14.1972311912445
"Pax6",1.57232918861512,1.6086791995889,1.64035451631248,1.57270374227085,1.87318258261798,1.67309284023394
"Pcp4",3.02547972516222,3.02726070390587,3.62645163474402,3.77134535981978,3.66299578017493,3.11708914978739
"Pemt",5.60880134033951,5.30682966379151,5.40456917465844,5.47072189121263,5.49307740168366,5.53514597385521
"Phex",3.44397964107853,4.15062894364338,4.05405860246577,3.2099357691865,3.25165069480534,2.9740389218911
"Pik3r1",10.801980014836,11.5062987889043,11.185882914672,11.8200073415203,11.8234336065225,11.7899769612196
"Lypla1",10.3799771462222,10.2555088766508,10.4482931817846,10.4675682537511,10.3650952236858,10.2857815683704
"Plk1",11.4390238488727,10.1612881524728,10.9628875438869,10.573330803982,11.1088922913835,10.6783800044685
"Pnoc",0.851537395521846,0.816160555705249,0.931326951240506,0.852799310959352,0.918821472969383,0.788332416337409
"Ppia",14.7045511404838,14.029489962156,14.3329957370623,14.2448407564258,14.3493624471909,14.331126416066
"Prkag1",10.4617356996516,10.2633412275207,10.3100900974048,10.2827108244423,10.2724131610055,10.3300103589053
"Prkar1b",7.66531521469858,7.93159995743655,7.61693680870665,8.63753216286903,8.46387469832467,8.73222420795776
"Prkcz",5.58113211321193,5.45764316321841,5.37786945649396,5.17022140996399,6.09517979065718,5.7742187820318
"Prkg2",1.05433781974363,0.956798641489099,1.05052934834325,0.920629254618209,0.920421502053046,0.875564260608745
"Psap",13.4732177982985,14.3022860805421,14.021822953309,14.3834364104921,14.1021801551211,14.1087372689179
"Pspn",1.00267020984931,1.03834544730714,0.960002656389996,1.00395525163963,1.00283914634961,1.06390237118285
"Ptgds",-0.0596109364318184,-0.059508646689323,0.0592407624133001,-0.0594608466190612,-0.0595912067827679,-0.178326580674785
"Ptgis",7.61562996767051,7.49389741133082,7.47066439377186,5.9622084973159,6.26835963713951,6.19938336295652
"Sirpa",10.771824243422,10.8042371907655,10.7180612076936,11.1549821515639,10.6169005422354,10.9559108562998
"Ptprs",11.1876930817251,11.4548748294423,11.132485320648,11.5499264498978,11.3607121074157,11.6441179135925
"Rab12",7.84414236840846,8.05159239089022,7.73173095699773,7.99653030870775,7.90906511527492,8.16893413464295
"Rab3a",6.68630652510661,6.88375392498094,6.80992128647086,6.70767130658348,6.7080045718102,6.68294687776975
"Rab4a",8.08175117886292,8.08083983260699,8.07834252347246,8.12966038824985,8.19421716633157,8.1648917595532
"Rabggtb",9.93788945590491,9.54602561502018,9.84558815597525,9.51052111041696,9.58525632266419,9.44425809602787
"Rock2",12.5689215390984,12.3671656236287,12.1644370470735,12.1831916118925,12.3817815471121,12.5860931137924
"Rps5",12.9802243448568,12.9955767434928,12.8781516832279,12.7488786723664,12.7642783719727,12.8663273831164
"Scp2",10.3104436219975,11.0011082166291,10.6409961224272,11.1754905075813,11.1820681754071,11.1935591383803
"Ccl3",4.63663599285032,2.78552884158834,3.47765796127275,2.78790676447987,2.59286384353702,2.92380975995503
"Sele",-1.50271057662207,-1.47726417061305,-1.48990621752076,-1.47713329653281,-1.50265549056086,-1.48997554964363
"Selenow",10.4485811636509,10.3220937876253,10.3885473971934,10.3790068858441,10.534750995182,10.4536690189578
"Shox2",9.02098651690943,8.49941153945743,8.68114718001163,8.25947857632062,8.18020459366089,8.29889343316256
"Slc18a2",0.685376531179583,0.687463104032874,0.681424389200017,0.620111982643191,0.653107319985395,0.641605079720504
"Slc1a1",5.238751032409,4.91316245579827,5.20656410452405,5.38933839482547,5.30898278636892,5.21855323017679
"Slc2a3",6.39810793097807,5.97456833933657,6.30091698782816,5.88511982454067,5.88080869792318,5.76838540856109
"Slc5a1",0.0284653220458915,0.0285563732584656,0.0881175095557935,0.164923683579369,0.130475712020387,0.0880930358962627
"Slc6a4",6.71393500628706,7.30677849067437,7.78574085614344,7.5920281984287,8.65908029569879,7.35017013940102
"Snai2",9.96820837017124,10.2366581367454,9.91041598142449,9.14139186014522,9.09359565797879,9.30951103109583
"Sstr4",3.17868301172687,3.52179221671665,3.8917390955056,3.18484183576733,3.09398865874799,2.59791376597382
"Il1rl1",12.1702015701889,10.8382137749236,10.6552596665306,9.42633112364567,9.79596841091695,10.4600977733069
"Star",2.78738045205457,2.82286388523498,2.83545762381335,3.16307440285563,2.9633920062793,3.03289774939889
"Stxbp1",9.8910355413738,9.74547238032122,9.90358537845244,9.92114903296536,9.7193856723265,9.73493593504101
"Abcc8",-1.96772983717637,-1.96756665515808,-1.9748405161134,-1.96749135407201,-1.96769814228133,-1.9604024782305
"Abcc9",5.18767420433949,6.49748319377611,6.13287685832386,5.68168126487232,5.58105771344444,5.34107132989232
"Eloa",10.9327578137796,10.8086941393671,10.8439729611469,10.7888270396725,10.8338647240133,10.8380988972693
"Tle4",7.80101715851317,8.29673199298694,8.23506568923046,7.93432112170775,7.93009045575619,7.74601467525156
"Tmod1",4.48335201377942,4.44451660439077,4.48814064017543,4.62273552443625,4.34245818081419,4.45839052153489
"Tnr",-0.352329022399582,-0.352259990401773,-0.297195513485855,-0.281004467540875,-0.282819861108201,-0.337011157239361
"Ttpa",4.88808638135048,5.16478403367927,5.22729403134768,5.32321185689254,5.42360148420347,5.1725478467152
"Tnfrsf4",2.35802674813952,2.26069944561313,2.34992190772315,2.36228452494257,2.35858712847894,2.31987701586393
"Ube2i",11.9561372219528,11.8221595393882,11.873190442606,11.7951447641574,11.9823357957165,11.9046982180014
"Ubtf",11.8707607919687,11.655253920405,11.7560812867141,11.6289354497425,11.6989268950622,11.6708572418751
"Scgb1a1",-0.496086625592764,-0.318320132324134,-0.451604778492131,-0.49597915212647,-0.496072500248594,-0.45162442665385
"Ywhah",12.9871153907708,12.0042342851873,12.6070641437206,12.0515230712073,12.2923202652737,12.060532362499
"Ywhaq",13.1003945970925,12.6648795990714,12.8988318253332,12.7437015784836,12.7997219365325,12.7555170302568
"Ywhaz",14.111707070674,13.6971069132012,13.8762810737406,13.656072958438,13.7754190290074,13.7438719119196
"Map3k12",8.84115495553877,9.11033219049573,8.99192964412666,8.95584910753436,9.0506269506266,8.98705195797106
"Psmc2",11.3275252791997,10.9496958134468,11.1513983273595,10.9677039984911,11.0904331305992,11.0162807835089
"Agrp",1.10960391919156,1.23521039073806,1.11168809896232,0.968305450586819,0.968049317240633,1.02889643991622
"F3",13.6794872583804,12.8564166284267,12.2654889383737,12.6698948960614,12.9717027818024,13.8232618439617
"Id3",13.1012873996216,12.4312110506649,12.4729630552287,12.4682335300361,12.6298890741068,12.8423474719859
"Alpl",8.01727635562409,7.87585073352777,8.06134336745578,8.12900290467183,8.12720150104094,8.01332237997654
"Id2",10.2972447725535,9.65784909915227,10.0087551894982,9.70266915454897,9.86804718824547,9.75414991775191
"Kdr",-1.0075597888354,-1.04021358593472,-1.04968410028244,-1.07538820572425,-1.07577091388898,-1.04978214690924
"Chrna4",-0.968369081145514,-0.968320461516571,-0.909148464640295,-0.968297734968793,-0.968359704879746,-1.02752502661502
"Parp1",11.06462950383,10.5874396378766,10.9112816933546,10.6270233409804,10.8749373809114,10.6657332384446
"Agrn",8.65964956068335,9.39848794131934,9.17698202604398,9.05691324973585,9.09453406885768,8.92781038425413
"Hcrtr1",0,0,0,0,0,0
"Ppp1cb",11.7196845296665,11.7405513862733,11.8282288626666,11.8013678972147,11.8004690174743,11.7028075526477
"Map2",8.22848455118946,8.20405870139034,7.71811140093309,6.57593238891335,6.90244265472189,7.23734774717443
"Rpn1",13.4506970972241,13.3936292965599,13.2824734495842,13.4640207540288,13.4818468209599,13.6126235348021
"Rasa2",6.84782633349839,6.83490402665433,6.91619000994804,6.75384039128987,6.79081077218141,6.69750075186396
"Cd74",2.38483585817627,2.57936027599923,2.62928339155598,2.4902173373683,2.38519975802604,2.29052322322894
"Utrn",10.376737492405,10.2894661011897,10.1021624740155,10.1169854016068,10.2496508070132,10.4142574270918
"Marcks",10.7472822695523,11.7521618755312,10.8307448670878,11.1466639642282,10.8987049656366,11.4416616703863
"Pcmt1",9.48925897101447,9.24851557062717,9.33734058325406,9.16638637471725,9.32393482159792,9.27670728572435
"Hcrtr2",-1.95987679886051,-1.97252179322851,-1.9693553334465,-1.97245527568723,-1.97263794294965,-1.96939057191646
"Lep",-0.312951523839642,-0.277677542760891,-0.332689815475704,-0.348194397312838,-0.312801934516896,-0.293122883739429
"Tub",8.0381815421758,7.77613956586924,7.78080862836818,5.91788400257694,5.9853006757413,6.07794426481346
"Csf3",3.56145799174167,3.50915225743774,3.66742431782064,4.31352143963652,3.82883193442762,3.93905749380113
"Otc",2.34165962606905,2.40719840020966,2.41293437652229,2.49624853596576,2.5424509113033,2.4808443602516
"Asns",11.4163286622709,11.5487912266606,11.5370986276239,11.3930706715283,11.6347770759304,11.4593851905712
"Ptprz1",5.63879063294173,6.44961124120131,6.31419438307875,8.27238942376061,7.953643868701,7.84302320022358
"Ptk2",10.9085634514351,10.8001928516616,10.6341610079288,10.629714108485,10.6834081081275,10.8767782519258
"Sdc2",13.5916521466371,13.56168951068,13.2664402748481,13.4568353678286,13.7095046524397,13.8934005639447
"Rln1",-1.06708725119315,-1.06704500262064,-1.04065554198811,-0.996667522806173,-1.03202125593964,-1.0407549742917
"Hspa5",14.6529436565746,14.4283112860445,14.1885119827224,13.9936630687922,14.1400108338677,14.4189524399171
"Acadsb",9.11799741095837,10.248955244254,9.7766616784233,10.1893619774455,9.80969091966287,9.90634109773706
"Plau",8.00288269021692,7.16589518872763,7.46634261419756,7.53430329001192,7.41270351757553,7.59154972906845
"Crem",8.09790450226094,7.90629602983484,7.98675765045326,8.28990114798142,8.29211874969037,8.30635256443053
"Cd81",13.0382258242902,13.5487482601402,13.0081028911914,13.3282810270496,13.1644879501585,13.5317686396279
"Ptpn11",11.8111646010607,11.7394159102042,11.6639909622476,11.5782053325132,11.5847242412619,11.6927640802724
"Gys2",-0.989198075938469,-0.989152098343862,-0.941115447512807,-0.951806752915822,-0.989189209652354,-1.01855762091245
"Vamp1",6.07435138949533,6.65661726782084,6.64332722972562,6.99086822984485,6.63616152954075,6.53567197862527
"Tnfrsf1a",12.751248249806,12.4924259622854,12.4831922704125,12.70720787961,12.6091142462641,12.7968058985702
"Krt8",5.65630791539584,5.75870658054099,5.66407229780511,6.33831013746914,7.62962769953839,7.02740386866707
"Nkx2-1",0,0,0,0,0,0
"Plin1",1.16539510462925,1.16568743122224,1.45406776940574,1.21185554522196,1.1654515090165,0.900127025639239
"Pkm",15.3942271788697,14.6168945244593,14.8460015057942,15.2783496608099,15.1328178403179,15.3651430964342
"Smad3",11.6407391424632,12.0333618098251,11.7574994033586,12.2951907625448,12.4179474196853,12.4361201639005
"Dnase1",1.35681897824215,1.5808088227472,1.4312679187121,1.39432470080522,1.39225283885562,1.43083475161299
"G6pc",1.15148649534022,1.12035730213035,1.15174864059235,1.12107706207369,1.21359715810888,1.15151036823422
"Mc4r",-1.00953491274196,-1.0448921226041,-1.00867587728601,-1.04487223903869,-1.00939012024439,-1.04566882002856
"Prkaca",10.8075582220909,10.8265749797649,10.7621550478889,10.5740376896458,10.6328062678973,10.6583335318105
"Ptger1",5.12418642770287,5.04310727544421,5.00156770786846,5.03452258523247,4.99002998419106,5.09435542841684
"Pde4a",7.85205932788579,8.08822465238073,8.02249664225005,8.34552035192506,8.0490939145568,8.14495248112415
"Fkbp1a",12.7087882636541,12.2440193801933,12.5525304942685,12.3250612963304,12.2656372582143,12.2192226049275
"Hnf1b",2.57642123045655,3.20923538276914,2.81238845485564,2.79342826540981,2.87661017193544,2.91545907042983
"Igfbp6",9.87076596605521,9.77843670909743,9.58766819842874,8.55639136952245,8.65139106509102,8.84082435645431
"Gnai3",12.0439031278528,11.7970908483781,11.7668073508874,11.6329712458902,11.7339469620928,11.8371487412195
"Bmp6",7.04038735290888,7.65339306638533,7.35493179807744,8.16489430813873,8.03445693621072,8.09163403374439
"Adrb3",1.99411749262339,2.2625624715404,2.137080688842,2.10642650771778,1.99419089511446,2.04156799465602
"Otx1",0,0,0,0,0,0
"Il7",6.09011242521338,6.42042493220148,6.5600127480276,7.65243813840434,7.22648875460718,7.13471937718559
"Slc7a1",10.5827747033011,10.5275944323939,10.5241322629258,9.857293382232,10.1834334836531,10.0514157378642
"Atp1b1",10.2989150110025,8.27709632033557,9.04222724740223,8.33213826850105,8.85037644179154,8.83703577341312
"Selp",2.65175021705849,2.6252500244525,2.68634932248531,2.40859190985984,3.05807554487107,2.68548452563564
"Ptgfr",9.38564023629111,9.20831081600999,9.22063335114031,9.49653206389778,8.5373001617404,9.09325828782933
"Col11a1",13.5129817769465,13.4481191622687,13.5566522671727,12.6552908022149,12.9634234980325,12.7332553525586
"Gja4",3.94752764148089,4.12409292478769,4.38435152102145,4.98467728575142,4.69028878909551,4.48894179953632
"Guca2a",0.251779183109327,0.182422569889312,0.19894067721033,0.218968044569899,0.217939746196467,0.236614094672172
"Gckr",-1.07533961068991,-1.07525931805498,-1.0492141209444,-1.03948125195016,-1.00697350845634,-1.0493127236313
"Khk",4.80527739253101,4.81644084645263,4.76234028910606,4.77174213155746,4.6881079979198,4.77844389512439
"Cd28",5.3837574962933,5.2973148924158,5.92554406437102,6.56915938539673,6.73534058849616,6.06724211692996
"Fn1",17.2171123507911,17.7550067355771,18.0372401624405,18.6829243974485,18.5624719250927,18.0715175420142
"Igfbp2",9.49996898809049,10.5927813444285,10.4647426141517,10.6810325350143,10.599132659398,10.2217151493139
"Il1r1",10.7793961469879,10.3439361710078,10.6921823336452,11.0378392612011,9.87048483201544,10.3236458719609
"Pparg",6.39741504804777,6.97529888625731,6.62121029862039,6.7626663843547,5.99940731993392,6.44618352067646
"Scn5a",2.56203393120506,2.60152042242065,2.76100004944709,3.01864632462039,2.79978274232915,2.72999166084054
"Dgkg",6.00263078790813,5.42695277401207,5.8818461281651,6.0547518316927,5.52621879315751,5.62343096522011
"Bmp3",7.45666695619433,8.06043547840286,8.09866225292395,8.09670872655147,7.60183193797004,7.5091592966354
"Cd38",8.91152271482693,9.41188136567107,9.11465461820024,9.62882016683487,9.48830008105913,9.60560754599576
"Cpe",12.1928078448221,13.0919995278256,12.6432499882905,12.5657736192719,12.7743498984172,12.6692154568778
"Il15",6.24760898499576,6.53664511673964,6.38029585788417,6.78109439174185,6.18541320989969,6.4950849938043
"Smad1",10.5296386203566,10.3884557033402,10.3974209728774,10.483913258431,10.4985085406867,10.5528370885299
"Nr3c2",8.09720480997334,7.89373956049935,7.58997618857274,7.3591438732074,7.32140952163246,7.74577269408354
"Anxa5",12.2901732024783,12.1544515446096,12.254920819418,12.2391720966604,12.2229654429041,12.1984603239083
"Glra1",5.82394841076403,5.21230171680955,5.74834621527794,6.31350132487227,6.37070021652642,6.1118796192082
"Hmgcr",10.176894118208,9.80729105342593,9.93912033455841,9.59746037414109,9.42341291118558,9.56340889392188
"Rasa1",10.1423117504019,10.135462214158,10.1192801961365,10.1164437029404,10.0044059052571,10.0800315902422
"Mak",-1.02427626939251,-1.05889821767874,-1.03257686398666,-1.02319569613557,-1.02413422763306,-1.03267534143328
"Ddr1",10.9831488535646,11.4147923930121,11.3715290609503,11.4990688340302,11.8573623879079,11.5056571733071
"Itpr3",9.64179106099187,9.62084411091139,9.82923136780894,10.4729038383444,10.2442816011988,10.1606789379143
"Col10a1",-0.0369075170539715,0.0341853090894652,0.0554915882560199,-0.0367832304062495,-0.0368911852931171,-0.0936899000879564
"Ppard",10.7088731388393,10.5663247527282,10.5022825959521,10.5236324211623,10.4658529755734,10.6300590481995
"Col12a1",10.9057661628638,12.0684374580842,10.970638707503,10.0544138029901,10.1777765224563,10.6325582656942
"Gnai1",10.1573047365513,9.79427033881289,9.70099559892915,9.47108882060457,9.81932213078187,9.91999741444615
"Cald1",15.0763703344255,14.7714339410204,14.6169646889951,14.6666827945489,14.9824619099851,15.1315098009949
"Clcn1",1.83831374961923,1.77688255761169,1.8967443670469,1.74325040667252,1.74110351552554,1.65303074766759
"Ahr",10.1330565190969,10.8580686227758,10.596095764955,11.2101461829021,11.1005999713541,11.0548398831095
"Plat",11.5529947141129,11.6324469184539,11.6426374684314,12.4873746193245,12.6983617360441,12.5429515255363
"Slc18a1",-0.316483818785843,-0.280275837180482,-0.25105440108096,-0.316380580663269,-0.246844625462126,-0.3289380299649
"Has2",10.2751077977928,9.89152004058317,9.55969702234434,9.76218433368666,9.12468421691134,9.96705117214266
"Cebpd",12.1760340739463,12.5045352119826,11.7976020574142,12.4273363144019,12.5167660676453,13.0147337765739
"Vldlr",9.79755356355478,10.0903721466795,9.85627538763248,9.89857218971897,9.83494967733364,9.95444840101096
"Ctsl",12.4176659324894,12.6938913290913,12.5184072390253,12.6476139562996,12.5947815312721,12.6585691355509
"Ass1",6.18037855184602,6.41719497875,7.71807115108795,7.21055787115307,7.36237136818181,5.8671802338775
"Dbh",0,0,0,0,0,0
"Ide",10.8906419920651,10.6116270986111,10.802350624157,10.7206877848608,10.7864470850197,10.7023513561213
"Mxi1",8.82123935207579,9.01939230055264,8.80291382078296,9.34891340990866,9.1017224714581,9.34271994621464
"Rbp4",7.75780018183179,7.72594123288575,7.75934633160124,8.50085557094825,8.42651936744552,8.44621184495442
"Zeb1",10.6778773737061,10.3386829311815,10.3876375724615,9.8628716119092,9.9209540029652,10.0125553874195
"Cntf",4.71271123639081,4.51581716550262,4.76492154260088,4.56160425516752,4.60826400555333,4.43427678870626
"Hmbs",9.40915289606479,9.09382779767824,9.20036657213323,9.19354617592781,9.16519543943318,9.23049458241879
"Gucy2c",0.386912602913376,0.25409194927801,0.333361504940134,0.358792896219712,0.254006359435189,0.293540398983009
"Itgb7",0.697392357974883,0.664249934501606,0.698209646115172,0.733064188943483,0.697680616040104,0.697983902614866
"Myf6",0,0,0,0,0,0
"Slc11a2",10.7288841980067,11.0272608445747,11.0450526198621,11.1320037843867,10.8764628048105,10.8372531960271
"Syt1",1.53107124252942,1.65856306590988,1.57725385215632,1.63047145683064,1.56425572885989,1.6149268949086
"Tgfb3",13.7925942651265,13.3294052954878,13.0342212461423,12.7206982341214,13.0615488643016,13.4179020833764
"Igf1r",11.2183169559899,11.2262701639606,11.1623311779224,11.3356792406367,11.5540310526774,11.5048175287099
"Scg5",2.35785951727667,2.52437358378604,2.5354586265822,2.61363418698212,2.7764501237624,2.60070007932142
"Tcf12",10.933039344486,11.1418369644691,10.9997165986085,10.9854950404542,10.8825482120755,10.9717431821339
"Got2",12.2393142262724,11.6775796007472,12.0004020214688,12.0567875820474,12.0145711603574,11.9937242632434
"Scn4a",2.8678167151284,2.69613713180961,2.86564012148183,2.9523924798612,2.94433607593994,2.86470107988775
"Itgb4",4.07434846866576,4.1315610464977,4.07809201576117,4.55990500970453,4.28120140385134,4.4454159485985
"Prkar1a",12.3870271346994,12.5060822684185,12.4123440779521,12.484896227774,12.467803835546,12.5105606552668
"Mc5r",-0.379916051009023,-0.311804790249372,-0.371634861198111,-0.415087041802735,-0.379767247576993,-0.371652704120951
"Apoe",7.38074109625921,7.42307222405802,7.36940771029332,7.02337163952653,6.47625763433237,6.78231358679475
"Ccne1",9.85081904920906,9.45368355281156,9.86295097753855,9.0868499763471,9.34187476751471,9.00366269540267
"Ntf4",2.10971872402096,2.24291729468201,2.3445282247854,2.18118101581889,2.17738973783804,2.01107516139455
"Syt3",3.63553468245406,3.82926561389213,3.93018461773753,3.90305118027394,4.05500816290371,3.78124520202439
"Acp5",7.33172371397836,7.64046734785185,7.66207400860577,8.61412986546508,8.49768384134285,8.37992837571331
"Hck",2.9879847556001,2.01322904571646,2.28665159686977,2.01439398314208,1.91271978120746,2.17751218596328
"Kcnb1",4.8446160168842,4.87245066854126,4.78207676547405,4.68614462573181,4.81097542698839,4.82501660359878
"Pcna",10.8392164787608,9.96938757877594,10.5922978275829,10.0193039033325,10.236963950405,9.94013812805426
"Plcg1",11.3562439808119,11.686492247491,11.4120135126119,11.6526853193075,11.6093128212291,11.7403536718078
"Pygb",10.4402498137902,10.6462028788322,10.4409584948913,10.4711855629531,10.4539615100528,10.5648413879229
"Gnaz",3.05246705318468,3.17012570015358,3.35788112663677,3.2742661103489,3.19186829044023,2.98648245042692
"Pfkl",11.5326855110828,10.9274105187158,11.1045582856923,11.7185304501244,11.5603066678045,11.7649082881715
"S100b",9.04858221760993,9.86449434959658,9.43446417526236,9.66934592731486,9.81114364268263,9.76231889333965
"Nf2",11.2167523242552,11.3329309376374,11.3104648936575,11.437185205272,11.3411445998489,11.3535416398492
"Myh9l1",11.4505228598931,9.74433103463564,10.1521216285876,9.74504471452651,9.74309973683298,10.1893775443565
"Il2rb",-0.30355691505583,-0.302780430095216,-0.323006551851092,-0.267592779957829,-0.338911141225228,-0.28341408131596
"Ppara",5.71552676447612,6.3145764269174,6.08720144597748,6.37855381052702,6.17882214793511,6.20653812895034
"Clcn5",7.55593889194825,7.87044780586083,7.77728799932109,7.51145295824362,7.81704176615571,7.60015271178312
"Maob",6.0008102049433,6.5944827030285,6.6898641935831,8.18229158353198,8.40187934099753,7.89986772266756
"Dnm2",11.1389049889981,10.990758027517,10.9955171219547,11.0442657170237,11.0864265157455,11.1346605026874
"Cd6",2.39733799549681,2.50368034031991,2.55669019922938,2.56900497479524,2.82190494190156,2.58927392702738
"Cpt1b",4.86896346087959,5.17043931633345,5.07764480073721,5.12736685154578,5.27793121845607,5.14470562287024
