MZ1808/GSE303426/exprs_3m.csv
"","WKY_Joint_3m_A","WKY_Joint_3m_B","WKY_Joint_3m_C","SHR_Joint_3m_A","SHR_Joint_3m_B","SHR_Joint_3m_C"
"A2m",5.86140265465747,6.30850647386917,6.11715959143385,5.73345510801988,4.83556553976603,5.25230529672242
"Acaa1a",9.29976798968763,9.04081855783534,8.91094651644547,8.54095146789986,8.42378162332687,8.74171330292937
"Acadm",9.30144605678163,9.15100403876061,9.07853032120251,9.18261881007061,9.00340588650815,9.24070707485799
"Acly",11.5345717311338,11.6174506804041,11.4425163859611,11.6731481566396,11.8439939847842,11.8920658905197
"Acp1",9.78144832035532,9.79046381660559,9.67922373923883,9.70680937636586,9.58203351988446,9.75115377736678
"Acp2",10.9710764028346,10.8924708026328,10.8590614497123,11.0603635079919,11.0563088068451,11.13104831044
"Ada",7.32935439562253,7.52482596115996,7.35110825334127,7.89064490400497,7.21605187459223,7.62933031434857
"Adcyap1",-0.592824920262256,-0.592885076414856,-0.584737054210855,-0.592804821558772,-0.49387865806531,-0.551459683939742
"Adcyap1r1",1.75414479362427,1.59451164255079,1.61270693556395,1.62570983008184,1.54147373639373,1.64521306576137
"Add1",12.4351054321739,12.3453775809683,12.4051357001955,12.4193725428357,12.5303009374364,12.4599425465117
"Add2",-0.0718605006335162,-0.102654770196761,-0.0557603117939601,-0.0131261364301875,-0.0354374270195087,-0.0557791053460267
"Adh1",1.24625410788661,1.30584250760154,1.1353882075035,1.21376845374425,1.25091933682462,1.37300399552501
"Adra1b",5.58440462954226,5.80972106939638,5.42691544931638,5.36531592598233,5.46417417667321,5.68489245148071
"Adra2b",-0.289990123091396,-0.37869422570369,-0.340181629074406,-0.347759711118436,-0.344313269494888,-0.340197035629799
"Adrb2",6.47676246237317,6.46211256910542,6.50314042988694,6.44104819963261,7.35457012714996,6.86410624924364
"Agt",4.69806879125131,4.63274090874348,4.35337656160731,4.67094945888735,4.67079389192155,4.98289996379454
"Agtr1a",8.36783377038552,7.49877362101016,7.62910088367931,7.73145979674561,7.10496920767775,7.72241731423022
"Agtr2",0.244706643461936,0.213797030618586,0.221918962122722,0.213932063238748,0.214458689277284,0.221528251175555
"Ak1",10.6437538239058,10.4146188850264,10.5268566436675,10.6694733531723,10.4941680364005,10.584150405585
"Ak2",10.4417725626263,10.7025744798515,10.6015294960867,10.5791558501125,10.4217549907735,10.4710994455951
"Akt1",12.6926063616522,12.7710663416926,12.7313751662461,12.8153603927979,12.8168543883052,12.8165685759779
"Aldh1a1",-1.02565031804433,-1.02628703489157,-1.03278345756996,-1.0562169490947,-1.0231271519944,-1.03285726944254
"Aldoa",14.9581707507136,14.8181224919419,14.7110239552963,14.8065274298349,14.6644735941775,14.9126231780376
"Aldoc",9.64371255704525,9.30966226070816,8.94492625897379,8.99642264991754,8.40794631827165,9.23394563399752
"Akr1b1",11.6210741369991,11.5777025183061,11.6063884706474,11.7780742687473,11.6663328427109,11.7152034127343
"Apc",10.0417615075455,10.0442742757582,10.2386488573291,10.0794051662741,10.4056628806001,10.0469030577599
"Apeh",10.130356789718,10.036327516674,9.97721066426156,9.96447339382388,9.81411563535339,9.99542600352307
"Apoc3",1.57422990475182,1.60552907658943,1.67358619613721,1.72518506254337,1.85279229711926,1.70528197436473
"Ar",4.93959990609048,4.92782106900934,4.94713635712585,4.38703169505436,4.2272358396641,4.29370789778328
"Ascl2",2.4027106651987,2.61375402633735,2.52432286159468,2.54489064534068,2.53421878106973,2.52346419737855
"Asgr1",4.02832201131978,3.58173283017193,3.56931084425136,3.83627534900636,3.63336903083594,3.97053876641565
"Atp1a1",13.5241861733341,13.4418087329773,13.5307197557319,13.532241060276,13.5424271961171,13.4896118256203
"Atp1a2",0.580979844285426,0.376225047722186,0.454217058434314,0.376401614884271,0.413009790444215,0.419091090233735
"Atp1a3",-1.48661576798809,-1.4868788584998,-1.48628738774141,-1.48652886232205,-1.48523451170535,-1.48634161251624
"Atp1b2",3.75508487390761,3.81559770875121,3.82284054758387,3.60391530036944,3.62248365832589,3.5757002230932
"Atp7b",4.58022130026969,4.58928922947949,4.51447054945272,4.52693996576994,4.3869221956705,4.5272157961421
"Avp",0,0,0,0,0,0
"B2m",13.3104730190042,13.1467971946692,13.0690015331585,13.2032583817192,13.0530898660497,13.2878076975626
"Bcl2",4.80508988038263,4.5135160585893,4.84209772025274,4.95404631602863,5.30326575763681,4.94586128606594
"Bdnf",7.80153469972895,7.53017139964018,7.85906867721209,8.12396356865708,9.06277269248738,8.40015250304471
"Tspo",10.9781542007386,10.6691177055199,10.5609236781992,10.6817565471622,10.1271397752017,10.667160436112
"C2",9.86495671454312,9.49824456752,9.30658282219747,9.70937395890316,8.38115458473016,9.42028209065075
"C3",13.627286694412,13.5412640018603,13.6352853442179,12.7327459679167,11.2994171440756,11.9650715599144
"C4a",8.17137793113638,8.02129618395813,7.78693087394294,6.91990925532698,5.94384937974255,6.74128550113908
"C4bpa",5.48905162693408,5.69443474117883,5.57891128716741,4.37753071868652,4.23500455341909,4.31909953294185
"C4bpb",-0.994565080754351,-0.99461204908551,-1.04306850927961,-0.99454938955025,-0.993148367501422,-0.945368934166154
"C6",6.93100869330824,6.94670668854374,6.64903354057251,5.74122454618111,4.91672045815277,5.61879665252042
"Cacna1c",7.17756119124975,7.14061777273771,7.70299920503323,7.57654772454826,7.97375084086966,7.23123955966946
"Cad",9.91132670101507,10.1383462575848,10.3073377063482,10.2440754882183,10.5537275628007,10.1164002984613
"Calm1",12.8422367809888,13.0238859256773,13.0870121824947,13.1453654812188,13.3317231289407,13.0845934759181
"Calm3",9.86814769007433,10.1323887201868,9.89115597432123,9.95203584738263,9.67670776727088,9.92348403813609
"Camk2b",4.74347843724842,4.85954990212991,4.81912412866233,4.90254112955374,4.89395843360518,4.8806398226063
"Camk2d",11.4151220739929,11.3502011386498,11.5150317822076,11.4495126403356,11.593045557936,11.3889089232495
"Cat",11.3547325751446,10.9041610509582,11.0678511580609,10.8849552973414,10.7129926382116,10.8605696227671
"S100g",0.723834506051267,0.72302788394378,0.779981076002675,0.72410381244916,0.948880590144785,0.779942320291821
"Cbs",4.62414131922051,4.61094966105793,4.5566661512876,3.97078068417078,3.79869055027395,3.94561495607398
"Cd53",1.78366970207487,1.5441346635487,1.53273190779828,1.54609586869132,1.51943035538072,1.66393338704952
"Cebpa",7.39443387999596,6.86445709399402,7.16649672743703,6.96751143632931,7.06478447947279,6.97909671745901
"Cebpb",13.0031129050979,12.8162816611485,12.6929090144378,12.6697006871743,12.3068914437539,12.7050843341495
"Cel",2.48579998768784,2.45502441288156,2.63363607279302,2.48668919565715,2.66759683710236,2.41391914387143
"Cftr",-1.50288212890579,-1.48184327901397,-1.49194109620576,-1.48152244204877,-1.50161594915272,-1.49199080335487
"Chgb",-1.02418019612173,-1.0242258794903,-0.999522922852128,-0.992773059185818,-0.957066531404313,-0.999599910248952
"Chrm3",0,0,0,0,0,0
"Chrnb1",5.31152112324476,5.19086372321241,5.0872299509918,5.07247691732055,4.80329502676548,5.1018484442798
"Ckb",9.41323767146738,9.75421629336132,9.64290394961625,10.3090961747648,10.6520461169047,10.4213941786328
"Ckm",-0.989435802086318,-1.04999811163976,-1.01861897216607,-1.0499402359744,-1.04830179790537,-1.05021900163685
"Comt",11.4413039680819,11.2069956906873,11.0903880602051,11.296779747601,11.0353827639084,11.3998430249342
"Cp",11.1840128795108,11.3373074803402,11.1127382342924,10.7842014217325,10.2819751549871,10.6810102339929
"Cpa1",0,0,0,0,0,0
"Cpb1",-1.49539490627679,-1.49566186272519,-1.47739532513148,-1.49530672359091,-1.4704381859381,-1.50100551413401
"Ctrb1",3.05435053066969,3.1223889100786,3.06700316180997,3.26035088201247,3.22905551873645,3.26606975893863
"Cyp11b2",0.548610447854677,0.548447236227981,0.63062451389128,0.61520821895784,0.810159853585112,0.630588364421525
"Cyp1a1",-0.618065567460282,-0.648200658130976,-0.67203822194513,-0.678135324944352,-0.67784617109351,-0.639085638869429
"Cyp21a1",-0.334225896400042,-0.27519961114142,-0.286559744106567,-0.303326219833124,-0.299868045539902,-0.319750142350677
"Cyp2a3",0,0,0,0,0,0
"Cyp2b1",-0.65551747721406,-0.713900310365747,-0.714161569242222,-0.743764645564894,-0.743487507727417,-0.714173401193837
"Cyp4b1",7.22046759435153,7.60670780482357,7.61575183193154,6.27451471625825,6.63419873371367,6.25219259264198
"Dbp",10.6153426430782,9.94940637326889,9.71628475404393,9.7535507674358,8.77286031171704,9.82929529370601
"Ace",3.80807882520362,3.66888039236258,3.57999461200748,3.67572776810973,3.88925121020063,3.9409744859308
"Ddc",-1.97026328481269,-1.97040163442314,-1.97619430939572,-1.97021758432367,-1.96953693300546,-1.96401540888677
"Dhfr",8.49482980897538,8.57596786340217,8.49730427726189,8.36023704143676,7.97394011248998,8.20518313589026
"Nqo1",11.2075170733068,10.8479983920471,10.9559062400639,10.1452064235008,10.0729939986305,10.1809517036787
"Drd1",3.10057712278327,3.40211207945299,3.45233389448778,3.64294440291863,3.12020278667822,3.18058430142878
"Edn1",8.90025180252015,9.35009218959079,9.63767893919784,9.58665878610107,10.4312440259603,9.49644446288832
"Ednra",9.43407966121173,8.82666504809783,8.93052899904921,8.64972816518979,8.22692200442431,8.63816844041262
"Egfr",8.97465155446842,9.07530669099994,9.17256563551956,9.10359893413293,8.83219563033262,8.8203107694474
"Egr1",11.3829839669909,10.3388327205107,11.2994053690843,11.3888783171877,11.6606948984039,11.0862895824624
"Cela1",0.790588567256435,0.870592217971704,0.843379452083397,0.730384762966761,0.731151127239578,0.717978885633842
"Eno1",14.8356987596876,14.7575930494139,14.6876241194241,14.7830806549213,14.7277012844006,14.8644127547876
"Eno2",10.7023776190055,10.4676917844496,10.1747489062982,9.9477722990547,9.79910254609736,10.2837232180054
"Epor",2.08636585943358,2.11031949648265,2.13285872434091,2.08719799645096,2.12947307764155,2.07381949066346
"Erbb2",8.85715954902475,8.77649435832787,8.83424837753784,8.81830551584269,9.11560614348025,8.94953440579995
"Ephb1",-1.97025932546453,-1.97039828782076,-1.96395513680321,-1.97021342256958,-1.96952975666958,-1.97624525945902
"Ces1c",-1.49507606349897,-1.47324336858008,-1.50028442495569,-1.49499339224186,-1.49376210782157,-1.47825304111555
"Ets1",10.305996996234,10.337740527303,10.1354448967424,10.1567755952173,10.2973414867396,10.4134824060046
"Fancc",5.71603330948172,5.90438772241618,5.7450682561212,5.84963865473254,5.81900753225359,5.89946535332082
"Fbp1",3.57247418985964,3.52402494704512,3.45143605453677,3.487865050149,3.26357740691414,3.47253474244718
"Fgb",-0.714384365146164,-0.627696820593623,-0.676093840467096,-0.714366304727363,-0.714084986494891,-0.709172398013925
"Fgg",0.66461915792316,0.830469947140093,0.714959024293315,0.695822988327123,0.668855283667533,0.71492466423564
"Fh",9.87113557730878,10.0366091850961,9.9346397112493,9.89461068024371,9.8571862199184,9.89513112003417
"Foxg1",-1.01427586619767,-0.984208128349561,-1.03845704111152,-1.01426122032471,-1.01292462333766,-0.97437787799328
"Fst",12.140070742251,11.849928320187,11.9076204798842,10.9942546420987,10.5547727076644,10.8618927262164
"Fuca1",11.7357976812265,11.7193812368521,11.6449937492144,11.5779235945782,11.5659910690653,11.6545530416466
"G6pd",12.0769017140243,11.9048996092243,12.0167701898672,11.9750678678181,12.0305158142796,11.976922312806
"Ganc",7.86973851370911,7.83858859605814,7.77892356813228,7.78296877266484,7.68016984404291,7.80680929510523
"Gapdh",16.3541033384987,16.2848080334965,16.2186104850564,16.2869894961541,16.1060285061278,16.2973542020821
"Gc",1.52650757843818,1.39525370955382,1.47580047303942,1.30832113780591,1.30946452605101,1.29397300288504
"Gfap",5.36186510104226,5.90054699489396,5.57268051115545,5.24199387385218,5.10372592019865,5.23138543383808
"Gfi1",0.00380284583116729,0.00371542057286301,0.0041033367970635,0.00383205508331037,0.00428693563087632,0.00371529176204502
"B4galt1",10.8412974510426,10.5950252898365,10.6856887613856,10.7184336084164,10.8579656706386,10.8206722485815
"Gja1",14.1012993327318,13.8297604499385,13.7095307835429,13.5184974496495,13.1269246135847,13.5787101394094
"Gls",11.5594648084564,11.6855651780777,11.9244660987539,11.8249249479728,12.4196822595505,11.8203524982748
"Glud1",12.3336420723045,12.3433950131381,12.2133443842761,12.1685890420378,12.0352511706255,12.2270942647769
"Gnb1",12.9612963873931,13.0833971512854,13.0701150308843,13.0847191460792,13.3005572444294,13.1448699337092
"Got1",9.64628089416759,9.50070576130877,9.56098667003475,9.4143774793606,9.71442901485278,9.57690990481012
"Gpx1",11.2426095829283,11.2241259065621,11.3230059218813,11.4532059465998,11.264257872715,11.2690937325213
"Grik4",1.33601223443962,1.30598347623622,1.32886207489369,1.30778891104828,1.24813636533325,1.27009841863499
"Grik5",8.39108735963193,8.47359646837184,8.39167128428491,8.36716602826203,8.65791026968119,8.55320877868859
"Grin1",1.05266124879005,1.13991916054769,1.0766080442347,1.11352767124178,1.12043089234806,1.1366614422291
"Grin2a",0.669725791859904,0.667453468276991,0.635559737912236,0.584479768139553,0.554389140375867,0.602464346413921
"Grin2b",-1.49539490627679,-1.49566186272519,-1.47739532513148,-1.49530672359091,-1.4704381859381,-1.50100551413401
"Grin2c",0.180530988513755,0.180428345249657,0.253406153552101,0.211635819401666,0.30999686329048,0.187889854675678
"Grin2d",7.16561093427669,7.1194641681216,7.42183987919651,7.68283180527229,7.66503682060288,7.39463198494022
"Nr3c1",10.9237904620074,10.6960353021028,10.7414543333679,10.5707812389925,10.9249330205927,10.8163156784799
"Grm1",-0.616486162299165,-0.646625791780233,-0.637431154235775,-0.676564766262048,-0.67627521972669,-0.670544815798294
"Grm2",-1.48163192290393,-1.48187226706751,-1.49193543686344,-1.50275953699287,-1.50157709367965,-1.49198497345854
"Grm4",-0.293447057812476,-0.263393686700171,-0.29393094709942,-0.262503254677976,-0.293047689600259,-0.262264897296021
"Gspt1",11.0963847502599,11.2453141877268,11.3835861143927,11.2652411130178,11.3958060686947,11.1177869454569
"Gstm1",8.86181412068059,8.81942348435582,8.74253451758911,8.91117109170517,8.63286615334506,8.87010290745422
"Gstm2",11.2163926780968,11.0440426346048,11.1772470040278,10.7842573190264,10.8779269027096,10.784062763191
"Gstp1",11.9002936012288,11.7272680079498,11.8856211994036,11.4937128753454,11.8655597617127,11.6077959237148
"Gusb",10.1936999744531,10.0432910094613,9.97805260085347,10.0764143826401,9.87598269277182,10.1166414288097
"H1f0",11.7973820612235,11.5958721073972,11.5070873838847,11.5449927760559,11.5702793192529,11.7471757480801
"Hist1h1t",0.70997051833004,0.738332369193596,0.725741557594936,0.740054317775244,0.714038346940907,0.725456218524958
"Hagh",7.6836008152131,7.65911895157693,7.5499151767679,7.85082262418442,7.75010681587489,7.92190942665677
"Hdc",4.38955154781713,4.5764956936229,4.28680419557203,3.85630804615529,3.7287083252726,3.98872761086193
"Hgf",3.60571608331435,2.8257696651874,3.20282049765652,3.08346899748466,3.0053082257865,3.05731098822994
"Hrh1",0,0,0,0,0,0
"Hmgcs2",0,0,0,0,0,0
"Hmox1",12.3006590342908,12.0887535107285,11.9442459885719,12.1134341089784,11.8377179401033,12.2260363084787
"Hoxb8",-0.00278144844221718,-0.0632903714229145,0.0147825638526054,-0.0631777711435388,-0.0627386027834663,-0.110776660748674
"Hoxc4",7.81982095157097,7.74120846679361,7.62397628931722,7.76224078354158,7.63767065824859,7.85649414076015
"Hoxc8",8.27404457336553,7.91506991216455,8.2557148109292,7.99983251947598,7.72597024421429,7.70174381368098
"Hp",13.0267338388345,12.5629664124605,12.2254087849396,10.7611499128297,9.7370084141261,10.8185205041858
"Hspa8",14.6496671670689,14.5820258000361,14.6205372323066,14.5797757655728,14.5344135839551,14.5524039260099
"Hspb1",12.1997760667379,12.3518466448014,12.6372592192057,12.4669190903185,12.4681822547517,12.1061028090991
"Hspa1a",3.8822674941176,3.38845178970998,3.62520154076431,3.0153158448125,3.73415644659635,3.38489424685391
"Ibsp",2.04250452773649,2.07213670791878,2.07102069757291,2.10319010085493,2.1108524358217,2.09332118859304
"Idh1",10.5202862837574,10.3021188373178,10.4035612178449,10.4823166084049,10.7345516000115,10.6160754469008
"Igf1",9.71333729954992,7.67290999475017,8.51021324972119,8.85091316449071,7.36291669855487,8.28982532895165
"Igf2",9.60550322786208,9.57917184260973,8.8936734246299,8.54223330215113,7.63428790163606,8.78692471249961
"Igfbp3",8.65820936908076,8.44295448781184,7.68216886900246,9.23774961247919,7.51189709782014,9.24323641459351
"Il1a",3.60144190421457,3.66895478126724,4.23143720106703,4.4463800594844,4.69881737375322,3.97635985829267
"Il1b",2.23468465338249,2.23370861747519,2.23243775741577,2.37493178795844,2.39258039211281,2.38551496804869
"Il6",10.7795908133401,9.64448472095432,10.3023447876843,10.7816188416703,10.1250424040171,10.3630236023066
"Il6r",6.94258321116419,6.59968377693548,6.46770502668748,6.52947173668337,6.08924035126918,6.61278451133863
"Il9r",-1.50270991905979,-1.46096987258806,-1.49191853456152,-1.50263134339913,-1.50146105773802,-1.49196756183098
"Ina",4.07232830281574,4.17666550599748,4.03437687400554,4.28557211840151,3.96358117670586,4.21469667795476
"Inha",5.95040451771576,5.7097378734109,5.95876677290586,5.83812540164017,6.03544478326494,5.80808951511002
"Irf1",8.46042872444588,8.54559615020925,8.07636949496358,8.16607024172954,7.83993598052573,8.42964605349162
"Itgb1",14.2780391587389,14.4090257780238,14.672826262183,14.9233006365433,15.3755885931851,14.8201508210626
"Ivd",10.6258838231958,10.4849564890383,10.3473477269009,10.3039906831347,10.1132672544377,10.4167013980023
"Jak2",11.591626611232,11.2075207850851,11.0196167025664,10.6718867300488,10.3864752382379,10.9091379797356
"Jun",9.5231284606438,9.1899924111984,9.49800204230833,9.75471314447482,9.99595996225971,9.73389494698003
"Junb",12.4638796361504,12.0760891513879,12.2551734289872,12.2574838217916,12.3203004973252,12.3037031243403
"Jund",11.3861351971945,11.4349442865937,11.2641275130426,11.2001084964488,11.2541725573886,11.3735527557702
"Zfp354a",6.99904203327784,6.91016863439301,6.85132809161654,6.83996679430396,6.92340330388978,6.98496229131576
"Kras",9.19927007030456,9.29619776135045,9.55191239776299,9.52005166268624,9.78139948997063,9.34654709439294
"Lcat",6.74346673497124,6.61685108937107,6.87706843680243,6.83905078288726,7.1957273643672,6.82047954899595
"Ldha",14.2283140475405,14.2422076975157,14.0501629528032,14.1721579400795,14.0106578482722,14.2765058139008
"Ldhb",7.81638742648779,7.84896279478141,7.88109846448049,8.15512696878841,7.91386839369644,7.98607432739653
"Lepr",5.74912816713501,5.65661574423569,5.99456743165784,5.45489202722098,5.97047953900081,5.42099030713841
"Lpl",7.46905495276455,6.76309367901748,7.01255259259031,7.24458071976063,6.10343695891106,6.77753056263655
"Slco2a1",10.4312762695555,10.2668897161494,10.5803318379912,10.7465337479873,10.4886946764704,10.3863653670902
"Mbp",4.24338624662353,4.10655716761203,3.86645469062011,3.78365576812006,3.80079847964641,4.1007441403809
"Mdh1",11.1869473076294,11.1510727640491,11.1428848547114,11.0732474583224,11.0376550410824,11.0815764308303
"Me1",10.0774236610696,10.1909119705575,10.1954774911352,10.4614527313785,10.4523605181309,10.395596949433
"Met",8.37275078132022,8.59117341388442,8.42768280213554,8.32203786924208,8.69726677488125,8.56393161752844
"Mog",3.30634773796141,3.42898921724049,3.49951093492337,3.68752131696649,3.50174200818739,3.46278920525452
"Mos",0.184255962944311,0.183011632860725,0.194212692960538,0.154935523694112,0.124603894798311,0.129190814188191
"Cd200",11.5409570374745,11.4351343454687,11.0560963229602,10.6940229023573,10.4487613711478,11.0033415052639
"Mpg",7.14463023769738,7.16635698473485,7.12359956591608,7.03253294903773,7.0348019605747,7.06556150010625
"Mpz",-1.48151331947292,-1.50325440580799,-1.49195794710285,-1.48143284019254,-1.50173165300325,-1.4920081621355
"Abcc1",9.67208670032532,9.59014924774455,9.81286901163306,9.78182624486267,10.0976657757582,9.75799497271232
"Mst1",1.36928082840082,1.31307372575795,1.36786504249883,1.37021665465142,1.22734652895871,1.27209382638562
"Mt1",14.2982079582005,13.7870976837011,13.0736353536268,13.0121125052288,11.9351810689274,13.4426642544021
"Muc1",4.32293852968116,4.42991501006811,4.52995031695218,4.43932223811455,4.66113760750622,4.39670637573284
"Muc2",-0.0234743904878794,-0.0235607014657604,0.0306682913610647,0.00756141175126925,-0.0229964599573414,-0.0619033614409206
"Mx1",0.479540328584326,0.53073276899198,0.464783304387525,0.391038418902833,0.391651833827742,0.431698370765916
"Myc",10.752265793732,10.6612902838485,10.6748337052359,10.5353337456009,10.7652427044696,10.6822325585896
"Myh11",8.34004256052941,8.60294681527384,9.34040844758719,9.81992612680046,9.35675857263108,8.71942859003021
"Myh3",1.15819270151152,0.988893913932493,0.979074416386497,1.02001457938913,0.990037322605055,1.0994948423326
"Mylpf",2.87012896325978,2.45378237961051,2.47606348821264,2.48702559388952,2.43002890860169,2.6444194344681
"Myl3",-0.248536204153731,-0.279391842822001,-0.302718381803524,-0.279295071260882,-0.278917625759031,-0.240351990194298
"Ncam1",11.3536084183891,11.4786640829993,11.7719374715324,11.9425943465348,12.8219791503626,12.0264855276105
"Nefh",7.97139349943512,7.77402708528849,7.91236116456171,8.53302245242817,7.47907325767836,7.96639698285336
"Nefm",-1.49507606349897,-1.47324336858008,-1.50028442495569,-1.49499339224186,-1.49376210782157,-1.47825304111555
"Mme",11.4183440781805,10.8946279314318,11.0564055598442,10.2688658078511,10.0357048935851,10.2523657956801
"Neu1",9.21861464781302,9.170097801663,9.07148891164108,8.95470864311918,9.09443535568121,9.14743931249713
"Nf1",8.88455815831136,8.8185937783132,9.10420901415277,8.77296014731253,9.01343518392483,8.64056461977819
"Ngfr",1.77578425751378,1.74611554717282,1.6949616434128,1.82966093934936,1.66078645257945,1.81121195489491
"Nos1",-1.50373101706486,-1.50398845041643,-1.49205225412377,-1.48093109258439,-1.47966457401936,-1.49210531291875
"Nos2",6.91219931026177,6.08978035175944,5.27887671254389,5.19818672475565,4.92904686593223,6.28572991381066
"Nos3",1.07937410502575,1.13855621962222,1.1418850737724,1.11040921207918,1.1788484116327,1.11170890040753
"Nppa",-0.73313432737951,-0.674403541050985,-0.703289172586226,-0.672805403364435,-0.732837254486664,-0.703301090554571
"Npr1",3.90720510397914,4.06127131597101,3.91718382006232,4.23957452109544,4.00737564846222,4.19052947469159
"Npy",3.74837014938746,3.79666959155479,3.92296477875076,3.71085927153741,3.49820064965506,3.4540850523166
"Nras",11.2333345681554,11.2459475658668,11.1252022049715,11.2043695327692,11.2203215898603,11.3267844233544
"Odc1",11.6082748167788,12.0690298229958,12.0808903565593,11.9386231964746,12.1359791493645,11.7950631362475
"Odf1",-1.48104553446946,-1.50394504234098,-1.49204667898177,-1.503603657524,-1.47969826283261,-1.49209956960175
"Gnal",1.43855362078527,1.49253841273675,1.5207285781311,1.49571105106967,1.41346065815962,1.39940329324457
"Omp",-1.96330578072834,-1.97467771779471,-1.97158009411096,-1.97450818547655,-1.97388122359951,-1.9716063596886
"Oprd1",-1.96330578072834,-1.97467771779471,-1.97158009411096,-1.97450818547655,-1.97388122359951,-1.9716063596886
"Orm1",13.2201106581577,13.2986175681587,12.7799133939262,10.8243394235918,9.77640353979762,10.7798222009268
"S100a4",13.7803209881551,13.6841922234525,13.6529922686499,13.7146591085004,13.5153593504124,13.6942735666103
"Serpine1",16.8430385787551,17.0526057408348,17.4441895673726,17.5077127928471,17.9814790624288,17.2482285200603
"Pccb",10.0233744013222,9.9663917109744,9.8140523557793,9.90149086400704,9.72117410064911,9.99216318269711
"Pde4b",11.3951188403867,10.9988886482596,11.1450926121889,11.0464268510976,10.527351293934,10.83880020465
"Pde4d",8.83040860493309,8.52016084194974,8.57870925661288,8.75000270300252,8.42857039474197,8.68586201570078
"Pdgfb",-0.551072474718313,-0.581923940033126,-0.565498150660206,-0.581844353167612,-0.547442838840376,-0.565643652719507
"Pdgfrb",13.622176238432,13.433729695804,13.6705116873594,13.9711496602478,14.5230739420433,14.1045530809041
"Rhox5",-1.50440059948183,-1.50467086095554,-1.49213987388297,-1.50431132505978,-1.45528811555418,-1.49219557664269
"Pfkfb1",4.95359756387689,5.26313327654933,5.32173701582941,5.45072822701951,5.04102146661021,5.03250325119856
"Pfkfb2",8.68507118980301,8.52121983876714,8.68907500260124,8.51247168417393,8.74296091117546,8.54178680935854
"Pgam1",13.5960738438114,13.5820426729666,13.4525204693342,13.4487608798952,13.4479155970824,13.5848760275436
"Pgk1",13.7151502930503,13.57693224211,13.4465641968256,13.48741108549,13.2240109815037,13.5551881042514
"Pgm1",10.7623459233935,10.643563021455,10.6645447771126,10.6404392251553,10.5401270762728,10.6286928460257
"Abcb1b",12.0237527208338,12.2225627212554,11.8643351128522,11.8976419533193,11.5954537333215,12.0053704515128
"Serpina1",2.55105376088111,2.24684040142019,2.31954922729753,2.27891149023041,2.25731486939828,2.34751103366747
"Pim1",6.56182515793444,6.64288821975499,6.48975015385043,6.63708904246436,6.26149715590796,6.56189963418045
"Pkd1",10.9897127198439,10.9437408717689,11.3940073712657,11.3880577297103,11.899557603591,11.2165270911913
"Pla2g4a",9.62782920349853,9.65144485843719,9.5501479289285,9.66991220428743,9.23185428358518,9.54037234597566
"Plcb1",5.28640501230144,5.14143988590448,5.24547974922631,5.38569898492564,4.84366703779329,5.08312571123612
"Plcd1",10.7317276978119,10.8536323999226,10.73624331941,10.5286404873407,10.5602792990938,10.6008966226745
"Prl6a1",1.52284638720246,1.41507899636478,1.42381952503672,1.32914215509568,1.29840749823849,1.35891799341398
"Pmp22",12.357556309459,12.437834234671,12.2847757233753,12.5673232572061,12.4942595582772,12.6437109564313
"Pnmt",-1.50305384653459,-1.50329830753716,-1.49196358927043,-1.45983257584136,-1.5017703973768,-1.49201397437453
"Pomc",3.96540849122215,4.05876854594362,3.90797395606307,4.06907837849725,4.06679249168696,4.17204999761192
"Ppm1a",10.0169487699363,10.050398592985,10.0489758339955,10.0378031836659,10.0741519048313,10.0406753917137
"Ppm1b",9.85945766338772,9.86541545906992,9.90892786652817,9.88010415730446,9.86885158081322,9.8279865637595
"Ppp1ca",12.097649298459,12.1996891532246,12.1625536731859,12.2542649539501,12.2290722814779,12.2277841703699
"Ppp1cc",11.8976881196277,11.9202580395534,11.8587420490299,11.7941689018564,11.7309349557953,11.8127829593866
"Ppp2ca",11.1652870203221,11.2063745911326,11.2177346115068,11.0681462842328,11.3021054411984,11.1532220569362
"Ppp2cb",10.8976503912295,11.0188677533914,10.9780491111009,11.0235675862334,11.0493511511298,11.0166693298911
"Ppp3ca",10.6524518322297,10.5964326439456,10.3356283659095,10.177052801371,10.1777664529383,10.4662234993327
"Ppp3cb",9.49269831948705,9.54530749203003,9.49154914735757,9.39909908797715,9.72619833303024,9.59010246890467
"Pkib",-1.4951490641232,-1.49540315536852,-1.47801692134931,-1.47264513769335,-1.49381505505271,-1.50048928476958
"Prkar2b",8.63720841137869,8.40789466581452,8.5186000211776,8.47815659314189,8.50378340957447,8.49492151877718
"Prkca",9.87468420706214,9.67452274572916,9.6297074930578,9.67648395444606,9.86577320128884,9.9160245612053
"Prkcg",4.50018141092545,4.45017059575227,4.59780918769529,4.54422657674223,4.77708449853577,4.53802235328257
"Prlr",-1.49507606349897,-1.47324336858008,-1.50028442495569,-1.49499339224186,-1.49376210782157,-1.47825304111555
"Prnp",13.2579979117966,13.3464285550034,13.3012639014155,13.2633425236164,13.1340963357701,13.1996687616778
"Prph",2.55231147897067,2.54836993236288,2.41431510641619,2.57873161500759,2.42409756139167,2.63744018745021
"Prps2",10.8428856842885,11.2390919555706,10.8097556198493,11.3543023749475,11.0838881422412,11.4503284586746
"Ptgs1",9.96766333285627,9.41473933191396,10.0379560944074,10.1431546416119,10.9020229815693,10.1758340495683
"Pthlh",-1.97495542800283,-1.97509807349177,-1.97163076635526,-1.97490830847296,-1.96162005589799,-1.97166016657752
"Ptpn1",10.9729253979868,10.777937404304,10.5766212881412,10.5237087032922,10.4389776749566,10.7801533021286
"Ptprc",0.376251706103261,0.37612546847185,0.315040357592543,0.376293871827553,0.376949820948997,0.437770076083287
"Pygm",3.24149902645093,3.21309971540073,3.24141966408011,3.16896604865524,3.29304646984968,3.21688596609818
"Raf1",11.3454063718229,11.3045519405701,11.3028129592294,11.3086844354854,11.3206446148788,11.3368307221491
"Rara",10.348285769915,10.4418882264916,10.3834769010023,9.99600935450728,10.2327285597289,10.1259790543191
"Rarb",3.60374304520568,3.62656125697814,3.91104115311934,4.1723011143914,4.34747579125824,3.96399945079739
"Rb1",8.91115803594852,8.85082753948304,8.86261120894924,8.66699661583149,8.83861883078735,8.77118930207596
"Rbp2",1.85760085642889,1.85379029427518,1.80260583627052,1.80625516983922,1.76050591334061,1.83647028067143
"Ret",9.91095720930098,9.6326693592043,8.55587979169471,7.92559363355024,7.3585587113305,8.8580096649983
"Rho",-0.270754661926219,-0.300998011571319,-0.283249363450882,-0.330993661788788,-0.296649571471713,-0.316448589928138
"Reln",4.21888462260874,4.29545724102251,4.30827347792434,4.1418585906977,4.11729447667948,4.07847398757988
"RT1-M3-1",8.38160704716524,8.01575336791597,7.93722788023992,7.98282513150542,7.73109583460838,8.11841281035758
"RT1-N3",8.40853059286321,8.41581302393809,8.34663476716652,8.04991640060534,7.89134407550679,8.03616727929019
"RT1-O1",1.06119964401916,0.974589550377654,1.05079521211278,1.08878276325941,1.01226696699214,1.0176242502114
"Acsm3",2.54504088276149,2.71714662319334,2.62840840701313,2.3185635121468,2.32446146304839,2.32419783356188
"Scg2",1.83405448876587,1.80476993259268,1.81665117408426,1.75125190771785,1.75864926467801,1.75771162279295
"Scn2a",5.45599362513935,5.09904962679196,5.46299446562653,5.62606232801376,5.70127622464763,5.47819643666982
"Sct",0.363586346859961,0.390306263361687,0.348127301141928,0.334276398996783,0.304028649830418,0.347971528382497
"Ccl2",13.8095691501936,13.2990953891275,13.052405948526,13.7816515874923,12.52706071894,13.6562824743507
"Sdc4",13.360542006811,13.2012599787605,13.1679945103966,12.9203180223493,12.6014357465147,12.8737833668212
"Cxcl12",15.0513648850172,14.4505740928374,14.8797622160079,14.8046890022097,14.768452752511,14.6577781502798
"Shbg",3.7412967716893,3.56278945841708,3.64756117039522,3.65268236272655,3.57993596101349,3.620791106528
"Slc2a1",11.5043847474897,11.3448978227468,11.3219281041728,11.4293298150652,11.2462979939742,11.4405270854652
"Slc4a2",11.5213134573543,11.5995633139237,11.5158989300536,11.6957939158227,11.7860377793262,11.7854553031598
"Slc4a3",8.53050269265536,8.46491709173658,8.64358440314282,8.55270397401669,8.91409994212395,8.58752744712347
"Slc9a1",10.2207753395776,10.1104433880733,10.2006092743211,10.2310783090075,10.2834394646399,10.2222589763281
"Slc9a3",-0.321277429085031,-0.44167639734499,-0.403437743842192,-0.409619245703829,-0.44120961410659,-0.403453599278029
"Slc9a4",-1.49508671949413,-1.47320538746398,-1.47817452251465,-1.49500386406867,-1.49376983669258,-1.50035838134503
"Sod1",11.166399952106,11.0685084448256,11.0878870503714,11.3681395033563,11.1084670383505,11.2678704189478
"Sod2",15.0029284927302,14.6478498313191,14.3705134684558,14.4471221690756,13.5481108867193,14.4524922214663
"Sord",10.5425184358337,10.3354639647045,10.2013773261119,10.3774789873468,9.52983185445962,10.1912692950604
"Sp1",10.2840633960124,10.1754071296336,10.2930053104951,10.1483000030906,10.3377334477191,10.1797466777327
"Sparc",16.9979898072657,17.1083512050325,17.169338520463,17.3901528925306,17.6261275209781,17.3919721924404
"Serpina3n",10.5422847504934,9.64726930756713,9.07719500881098,7.56054932704624,7.37205993861475,8.48388665304978
"Spn",5.00315789248939,5.19107457069523,5.1189870882712,5.63273967116754,5.20333638480071,5.39616717130523
"Eef1a2",4.2760056485346,4.28809350759991,4.33824851527224,4.31758100976772,4.54112869344632,4.37315591440203
"Sts",9.84289139050673,9.49171617848043,9.46069448142616,9.66539855161831,9.33918032858139,9.70889874316727
"Vamp2",10.4115070224557,10.1377315263311,10.2886004774105,10.3210515560438,10.4462342051009,10.3696616775552
"Syp",0.547659353572443,0.546385880239846,0.508642143902003,0.548084523432491,0.522035039005464,0.573440254223119
"Syt2",-1.47278563700759,-1.49538669760881,-1.47805645765149,-1.49504976203009,-1.49380371192491,-1.50045644663421
"Tac1",0,0,0,0,0,0
"Tacr1",5.28972907153249,4.67670714644807,5.01184894257553,4.87647098661839,4.21127876537364,4.51524404241076
"Tacr3",0,0,0,0,0,0
"Tap1",9.47933616798759,9.36534738160745,9.30412541243974,9.13389887204235,8.84984128807047,9.11008644241419
"Tap2",9.33793489562123,9.23731941340974,9.01866056054659,8.88879144010803,8.46610998247939,8.94641730526261
"Tbxa2r",5.24621180234067,5.19936817772879,4.98462510575742,5.78756552225895,5.42492046014047,5.84440787547702
"Hnf1a",-0.991047195324045,-0.991094464229923,-0.941515739473894,-0.991031403825237,-0.989658294478125,-1.03989993945477
"Tcp1",11.6288498115972,11.8468964060793,11.7432677647391,11.7606229936695,11.7057567598675,11.7277952208677
"Tmbim6",13.2042915242856,13.2389985696404,13.1510431241774,13.1908445244471,13.15439577653,13.2432220732741
"Tf",2.19627691804089,2.39282695995553,2.32832331035002,2.31742458479628,2.29963879671288,2.27476031940277
"Tg",5.4029760530092,5.18440543871558,5.32947213185926,5.68473748330779,5.17634415133597,5.39475943132501
"Tgfa",8.82160984792048,8.48308706820462,9.06933498068329,8.86229957984318,9.25701215174645,8.64266934317407
"Thrb",8.48304905784177,8.56815929371041,8.23928035535035,8.11882090716793,8.05413794673341,8.37280324737642
"Thy1",11.660039719409,11.4653360257126,11.8761020047871,12.6392129577038,12.9697582490645,12.4910714711578
"Tk1",10.6345698197724,11.041930327048,10.906619243565,10.8177865426776,10.5080280725682,10.5945381374681
"Tnf",1.05025109933503,1.01397467134758,0.821400226801504,1.01428841556787,1.01550758918818,1.22561066091783
"Tnnt2",1.12275297243554,1.09274157530526,1.134785858123,1.06464508168848,1.13294684265977,1.07175737792153
"Tnnt3",5.56029165452443,5.45947210211554,5.51468643204498,5.61997339698367,5.34163243534307,5.47599836243838
"Tp53",12.090356010005,12.2683016018129,12.111771912567,12.1396101978503,12.1285209273021,12.2016224559182
"Tph1",-0.56950092156903,-0.6003774460901,-0.592411194731606,-0.60029806183505,-0.533108481654169,-0.559231260842569
"Tpi1",13.5356322206185,13.4371996591966,13.2960844611958,13.3314684486871,12.962470042561,13.3373007243358
"Tpm1",13.0313388124078,13.2157624330258,13.5922299832531,13.9821628875926,14.1920001752392,13.6184021708796
"Tpm4",12.7857052850533,13.1616033857846,13.208326393702,13.4907021660131,13.5771371296975,13.2992475895722
"Clu",12.490155861313,12.4981242965792,12.2039152799489,11.2806809453995,10.8537015470209,11.3574160452074
"Tsc2",10.6421674905241,10.6184919984495,10.71577114321,10.7316199275973,10.793228113922,10.6769826220364
"Ugt1a1",0,0,0,0,0,0
"Vdr",8.13797300563474,8.16423242655142,8.24967297659199,8.38735905451472,8.1969401113609,8.1935793224389
"Vhl",9.76961496013008,9.82892434567315,9.77441119153469,9.7227568512672,9.82636467232908,9.79941922316507
"Vipr1",-0.321155087263076,-0.322371201058957,-0.34293567282656,-0.381250236585931,-0.346996861997416,-0.342951020626131
"Vsnl1",3.94408838950711,3.80612594407245,3.87129367677833,4.24141108824814,4.63517199661499,4.44210503244302
"Wt1",2.27751707967487,2.29930386571729,2.19981697808896,2.22466251511028,2.10729767199618,2.25457358816035
"Yes1",9.49831872822737,9.4535913405375,9.60506363318864,9.44754274677656,9.70508790785877,9.44720672851147
"Tbxas1",-1.97026328481269,-1.97040163442314,-1.97619430939572,-1.97021758432367,-1.96953693300546,-1.96401540888677
"Bax",9.75486419677008,9.82366298997748,9.81337635936916,10.06958436709,10.0119016127151,10.0166302239072
"Bcl2l1",10.6425969990775,10.7749930704817,10.6968886710508,10.915850266461,10.7839991256697,10.8618310597942
"Esr1",4.24612177899447,4.11351602017823,4.62175780865029,4.14870389510851,5.37249160755049,4.31865884226556
"Abcb4",4.6586944773736,4.55358164867977,4.58746380079797,4.7067167515578,4.39142521514144,4.56774524557833
"Gnas",13.0411820827264,13.0955833875923,13.1523868450575,13.1408490872514,13.1526916026126,13.0627662350339
"Kng2",4.27692134317171,4.54823507048931,4.06463814149078,3.25749511940592,3.22570552555624,3.58954038782082
"Dmd",5.66024025105417,5.61412275915645,6.06948006885953,6.21190009729089,7.30313599294795,6.3252194813652
"Dnajb9",9.15633974504295,9.12070029973378,9.22187997240617,9.08856574341174,9.24033921988931,9.08109253163272
"Pla2g16",6.50206988618357,6.69861503601805,6.62414541590354,6.46581131840927,6.65898683414286,6.53859612147334
"Lox",15.8717548971794,16.1217697368105,16.0270027764538,15.8588882329123,16.0366594565478,15.9175333852712
"Pdlim4",9.16471415446322,9.04031057506696,9.16675430053978,9.18476463985956,9.74030301862586,9.39829189346803
"Rnf112",-1.50270991905979,-1.46096987258806,-1.49191853456152,-1.50263134339913,-1.50146105773802,-1.49196756183098
"Kpnb1",12.0085278538977,12.3062081967629,12.2747971772107,12.2365600068747,12.2992113881339,12.1504565456239
"Stat5a",8.93236252528317,8.73627481401163,8.68329353336689,8.7296850128733,8.65445812216516,8.84309670379974
"Yy1",9.6587600532432,9.6909074520222,9.59556162165398,9.53997335021335,9.65099163251862,9.67475462234471
"Gabrb3",0,0,0,0,0,0
"Stx1b",3.32051394294759,3.40695113961651,3.15529926770097,3.35285102512005,3.3694406233527,3.56957909781746
"Ptn",3.65028470490536,3.5427968371157,3.49030465050902,3.41578118642941,3.35111052032753,3.48968197387998
"Adrb1",-1.97457454023506,-1.97470288671596,-1.97158314789738,-1.96320736479374,-1.97390070604031,-1.97160960099515
"Ptger3",2.35568987615024,2.39415508857774,2.66666462183099,2.21493615681016,3.70129678714913,2.66637433251264
"Cd8a",0.128007571827014,0.215108776169559,0.190926283486223,0.158940908172466,0.195208717880737,0.157706703538664
"Cd4",1.30476068505026,1.30447354025185,1.1070061313053,1.30485654397827,1.34631196776582,1.5231952372178
"Cd9",11.1320630590354,10.5855211319861,10.3806494833474,10.2111130149324,9.23094908288421,10.1991736610716
"Grpr",1.67132914729663,1.84020986346489,1.88772208860078,1.67148129584425,2.28727821600479,1.8474271727045
"Atp7a",9.49163700748198,9.46124529290257,9.55986792621747,9.41750903751352,9.69235582079269,9.4715056531279
"Chm",8.42220175300248,8.34039644713605,8.36819201807434,8.02193074635316,8.50741678801823,8.27778084918063
"Plp1",5.32157279176615,5.25276789816693,5.34287103136953,5.18422316228463,5.25677812261442,5.16479995604654
"Lamp2",12.833608166128,12.5921370661607,12.6680936299814,12.5752432436187,12.6180112283156,12.6414062221301
"Gabra3",-0.973766411384984,-1.00457976710898,-0.964169085688784,-1.00452065457195,-1.00328369838805,-1.0289061800382
"Fmr1",9.75565958652997,9.74921336211638,9.71547121723376,9.56772914415895,9.66171744523977,9.65168855178877
"Syn1",5.10146844027915,4.96708133004025,5.42059542995949,5.18540575883837,5.04282153582122,4.72779310253
"Srd5a1",6.43286451518094,6.61375681222503,6.49212346343193,6.45241277124293,6.25617624744586,6.38548170961545
"Gcgr",-0.67780941449954,-0.679006921921328,-0.707976915572429,-0.737696552584413,-0.737418514191575,-0.707988786026
"Insr",8.15351901532816,8.1249523520327,8.20882330971967,8.00742370678292,8.27063357115055,8.0694410129275
"Glul",12.8035996273684,12.5757994730336,12.0867879701377,11.6734183429975,10.8249564290934,11.8520989661087
"Pgam2",0.842098085270285,0.870415011867227,0.90108019089364,0.981345562897922,0.910390302191432,0.901044290219793
"Cth",7.87650993297179,8.18629713009083,8.36556485426714,7.75300834700562,8.22640036884476,7.65554303518936
"Hspa1l",4.2467620537402,4.13363659195084,4.51685792701915,4.51132240547884,4.48055679573334,4.16928099643245
"Psmb9",7.67375316391075,7.76190945528877,7.25710234925946,7.2873053812873,6.58013028351061,7.39444679273926
"Psmb8",6.51470185074205,6.68687010987452,6.37546052949462,7.52155299320527,6.87030515117283,7.42125452300272
"RT1-A1",11.3025126145228,11.4139782227109,11.0514590829472,11.80232971666,11.6548717086588,12.035387048329
"RT1-A2",11.3394112658771,11.390287725515,11.0363388540099,10.8810892770313,10.8364195849978,11.1872650727007
"RT1-S2",-1.48163192290393,-1.48187226706751,-1.49193543686344,-1.50275953699287,-1.50157709367965,-1.49198497345854
"Tacr2",0.174803957127036,0.203173403819065,0.174557489161684,0.175035837081572,0.211315802258903,0.207607010981604
"Lta",-1.49513843884088,-1.49539197412214,-1.50041471944797,-1.472683752101,-1.49380734864738,-1.47809603740773
"Vars",11.6071604651248,11.8103645648908,11.8278565294281,12.0027090481397,12.0623235552918,11.9134222872954
"Scgb2a1",0.288081479702058,0.371220561799427,0.325396773586387,0.318005177111098,0.258092116185831,0.29230289381282
"Snap25",7.48102596298402,6.2218680344499,6.18944281655647,5.00616286385476,4.29743913426108,5.31380518121841
"Acat1",9.84884602833769,9.83248653481093,9.81407622993017,9.84341985435827,9.89362926584134,9.89511461174394
"Myo5a",9.4442865960951,9.25495289119222,9.44558398020662,9.50749771441813,9.50376519804406,9.40966721966814
"Xrcc6",8.85401530350581,8.92654265467596,8.887985711289,8.94802708575842,8.80763795471826,8.88012578804023
"Itgam",0.934490096473128,0.868627973201033,0.754025546201273,0.902571688973842,0.869853344128795,1.03374600518713
"Fgfr2",11.2678745425452,11.8072304039937,11.6716996354784,11.6507173182632,11.8765702324398,11.6294966131425
"Prkcb",1.11966038950007,1.11879289222174,0.952755958804083,1.0856027318929,1.08675943712157,1.25265176656406
"Gipr",0.52512885534929,0.551851726044177,0.517122661328238,0.52555270962899,0.465640041174876,0.516964004770428
"Adm",9.88322359238869,9.90492598147418,9.64388337968332,9.6909040398846,9.14829789285159,9.66979237361622
"Slc16a1",11.1703999587044,10.7844643304987,10.6068177145714,10.3491992099573,9.76599024542381,10.4282091577207
"Ampd1",0.867365718574265,0.836890456590031,0.853772444241903,0.837893945087804,0.936462414426579,0.885533823097437
"Calcrl",7.2022611902383,5.98804920860831,6.16413219349554,6.33299743430502,5.55700246621333,6.37602295618694
"Plcb4",8.5024743707957,8.19565575458826,8.57047557423063,8.86240230401262,9.05551502757209,8.73754815425372
"Cyb5r3",12.4598234668126,12.2907611630685,12.2460897209089,12.3357693125814,12.4661656383485,12.5301700694966
"Mobp",-1.48661576798809,-1.4868788584998,-1.48628738774141,-1.48652886232205,-1.48523451170535,-1.48634161251624
"Gip",1.9991030773114,2.02174237810304,2.02136497721445,2.05149209225145,1.89144169157333,1.96052464240516
"P2rx6",2.53011488707364,2.3555288663975,2.4952793612246,2.50938838237764,2.40159921090506,2.40303631215232
"Eln",9.53887393833683,9.43331297774135,8.67539227253889,9.00306057865036,9.07066753856018,9.84756524410547
"Dbi",10.1747370902752,10.2247620041353,10.1090650701858,10.2698414298036,10.2677032582609,10.3594568210517
"Atxn1",7.97943326482241,7.70510877157708,8.11487147060437,7.74030674032624,8.07917222803096,7.63713903177397
"Camk4",0.17729889429217,0.146485232371971,0.152806576945481,0.236077107768617,0.181134127694245,0.21769110411802
"Cyp2d2",-1.96330578072834,-1.97467771779471,-1.97158009411096,-1.97450818547655,-1.97388122359951,-1.9716063596886
"Ntrk2",6.18290833661157,6.50917180773137,6.7769718925901,6.82717942005405,6.14144740765377,6.05338159343528
"Lipa",10.5418842643825,10.4557514693035,10.5837949730117,10.6134533707515,10.8444917687114,10.6439954635627
"Rbp1",4.63457925902242,5.10368293205196,4.04209357469723,4.54215161559468,4.41769944501372,5.30696305114416
"Hk1",11.6137324288615,11.5221343462714,11.4981591389867,11.6020541526983,11.6183081487102,11.679955399284
"Hk2",10.1600969909241,9.82711897334962,9.76586695352088,9.66786386144784,9.23130395360071,9.67732493614027
"Hk3",2.1026940784824,1.75171599238467,1.90856589290555,1.95984877079623,1.75402006305843,1.87557355945532
"Crabp1",1.43462666752559,1.46445218384756,1.5355021691548,1.46640641711855,1.70873797429442,1.50160945223827
"Gpd2",8.50686916430347,8.59157692428728,8.84066743151728,8.72106127362534,8.59600862552833,8.36709056235493
"Slc12a1",-1.97447781168251,-1.96359778406793,-1.97157095447903,-1.97443661358197,-1.9738230196787,-1.97159666002652
"PVR",9.51415641538489,9.84137426970586,9.80515515011465,9.83771135177842,10.0331312101967,9.80803147341827
"Tnfrsf8",0.315662326933348,0.369286600104669,0.290425244527027,0.286395248351894,0.256176359947268,0.323335023141563
"Scarb1",10.4696351051628,10.6745240184218,10.2198533729206,10.5972170300442,10.4787982358444,10.890233821816
"Htr1b",3.34088631507285,3.50406743588337,3.21486588082003,3.43059651372219,3.81982565444887,3.83282207874361
"Apoa4",-1.48660805950074,-1.48687170139014,-1.46301628701905,-1.48652097170025,-1.48522390841998,-1.5095960334865
"Apoa1",1.14055017920934,1.14033650545981,1.28777136536325,1.2349380120842,1.21195232211912,1.07611714407298
"Adra2a",3.7442160677659,3.85469006534608,3.72920903129819,3.81829169609387,3.20955623822481,3.58416800241715
"Il4r",11.3883297216112,10.8477696560531,10.9689391339197,10.9031293615464,10.3798798243368,10.790615147854
"Th",0,0,0,0,0,0
"Cyp2e1",0,0,0,0,0,0
"Mitf",8.82646651114144,8.77638953468197,8.56840796245735,8.64228676636887,8.14406994036999,8.62619841382379
"Ampd3",7.11875617957946,7.21729046563722,6.83886294395398,5.98635688533335,5.6396678112567,6.14217272694939
"Pld1",9.95902580870567,9.77167832507818,9.99399206599259,9.56794649158536,9.61984273100125,9.46525461219264
"Pld2",9.36371368416558,9.19098909169058,9.18664571096184,9.10133326004001,8.98837752294322,9.13556106845786
"Foxa1",-0.279638104683596,-0.279711413968255,-0.215186874022456,-0.248598097229077,-0.245116770572596,-0.311345319204306
"Foxa2",0.653687274414737,0.652893860964282,0.510719227407537,0.620325416917481,0.621143373900203,0.763305735690815
"Foxa3",-1.05360476900825,-1.02364556919045,-1.03008876053175,-1.02279568109323,-1.02045695400538,-1.03016272611691
"Chrna5",1.40321655503027,1.52374158053806,1.52817729236713,1.43599242918916,1.40461646729857,1.3556062236609
"Chrnb4",0.540059694319404,0.539930117251703,0.548121074659635,0.629830727285581,0.607626706627958,0.610602548082689
"Pc",10.1702444343949,9.93369385497153,9.95505326526995,10.0473278963692,9.73997568695629,9.99056767107599
"Nppb",-0.20642953358024,-0.175010773462328,-0.160844794320098,-0.0560252678578485,-0.205951908485209,-0.160863947372715
"Rgn",2.68232640395328,2.5529923563097,2.6717377740657,2.68387312288439,2.5993237800472,2.58752005753159
"Avpr1a",10.7550195185499,10.876506451998,10.868210651092,11.0648328304647,11.5921837987373,11.276060648783
"Cd1d1",8.1191378356691,7.85084318655954,7.7705770015988,7.86755080089323,7.19380091211177,7.74508936601802
"Chrm4",0.738189339575879,0.737451405313845,0.709085595993673,0.738435796070418,0.742268128792129,0.769086738882462
"Gadd45a",10.5111422902772,10.5464546905271,10.3372898006624,10.0720372043742,9.97560555188976,10.2153300678717
"Ddn",1.22645515248831,1.22562325975444,1.27250982487688,1.287304193058,1.41607284289033,1.30521789921866
"Fgfr4",3.09569473235495,3.0921533157451,2.90115945731284,2.96956345610128,2.9768192472191,3.16595591839738
"Hsd11b1",12.5780610807113,11.9900704214458,12.0169644201688,12.2790776458545,11.2187109009757,12.0159956043248
"Hsd11b2",2.37935830177255,2.30247592814095,2.34087310173545,2.19710301063184,2.20497768554678,2.20108436131061
"Itga1",11.0677738165948,11.2546413486385,11.3127024653988,11.306781226422,11.9581760340546,11.4809837474561
"Mr1",7.16454659049381,6.77645933727995,7.03026765148415,6.68338469121168,6.69793769008755,6.63089650305235
"Aanat",0.546618451699652,0.546470044327794,0.598233078549238,0.751877081072253,0.617575481340455,0.633037450670839
"Pcsk2",6.47535737512984,5.80381177614995,6.18434656648807,6.06782622783548,5.3911864989915,5.68474437256531
"Scnn1a",5.59467179426311,5.35387933099559,5.45522390738489,5.53578417861036,5.28057204534428,5.42722976722178
"Tagln",14.5156772516132,14.960420823426,15.383490135344,15.9317715446491,16.1746187564836,15.4077540527419
"Stat1",10.7625480898421,10.6229797955563,10.6699685432203,10.6111414485072,10.6066051793967,10.631668713431
"Stat3",12.5393624428637,12.5247938759885,12.4929235382682,12.4331680703952,12.4358598878664,12.4736686002887
"Stat5b",9.19241977015696,9.0755098934316,9.09855129993047,9.101270077753,9.13200359195025,9.15205036671543
"Egr4",-0.390377844547101,-0.303662502425081,-0.377366585546052,-0.359578432845002,-0.390001843611414,-0.344443726168247
"Stx2",9.72646815041791,9.74267601809907,9.74041305597224,9.83488793021965,10.0682244846912,9.94571523574169
"Myo5b",0.18425390835254,0.184145328277372,0.255753147593682,0.216695622631669,0.184854588384667,0.129221576229442
"Pcdhb12",5.30131025816576,5.19224534582279,5.16298623620125,4.92463709773523,4.95145408417593,5.02183715674861
"Ncl",13.0498564180164,13.1551517969821,13.1095255302275,13.0332301162687,12.997210820958,13.0081990458851
"Gfra2",1.82507594044946,1.96858756669534,1.88612894800054,1.79802624771219,1.71035202905418,1.76489194395505
"Slc2a4",2.16650312868467,2.1342936212068,2.25867843377556,2.5410552281958,2.11903102786491,2.22176306920053
"Cd24",6.01135583750921,6.68339154690016,6.40320949087524,7.32465727589787,6.67448334730932,6.94373451293304
"Egr3",6.88756604127187,6.10372308113351,6.66775357017072,6.34095019899739,5.92388762397316,5.96030990251724
"Esr2",0.654587763618559,0.684600499242421,0.616401713800994,0.744275039797424,0.689388488100378,0.770024181578397
"Fyn",10.8914793678048,10.5168506651085,10.4885871000921,10.3794086213493,10.3044745151882,10.5575194846333
"Igf2r",12.1117640023752,11.9579777063789,12.3773977975131,12.3496952775844,12.7518558624039,12.2082486268581
"Map1a",11.6647908055467,11.8016161268105,12.0464452301224,12.1169279620819,12.2283027768836,11.8593736055389
"Pgr",7.89493981660273,7.53139217748212,7.85807635413507,8.11790331112376,9.13854846430129,8.48331553061988
"Syk",1.6102496482421,1.6690696643322,1.56546765751785,1.8541470353188,1.64558673182727,1.82405888234233
"Vav1",-0.630775784367799,-0.600683791808325,-0.670923031161586,-0.630756735294825,-0.630460043582571,-0.575415146365174
"Plagl1",4.75499119226263,5.33071190295057,5.17927300889778,5.25764409870324,4.77322252638893,4.87901185125491
"Gata2",7.31787240167882,7.2554473679827,7.48687550482539,7.04849244616813,7.63391173126941,7.14098646872414
"Sp4",7.64412927551881,7.53840438617515,7.60583558500362,7.49344781720191,7.64076210182732,7.55253620535798
"Cdkn2a",7.97270865162359,7.47771063914559,7.4858839090075,7.55575432585552,7.54329186481062,7.78884883171015
"Cdkn2b",9.35884113080939,9.25583381007758,9.04277513977608,9.43437308946888,9.17151265085112,9.56750520082741
"Zfp386",8.60455666192045,8.35741634419353,8.51550581926444,8.53584798544481,8.81018331041708,8.63849633172349
"Casp1",4.63067722690243,4.38384306769788,4.27670060484277,4.21709824738848,3.97086623036278,4.32454178133301
"Ptpra",11.4300714590718,11.3636868425725,11.2390823962275,11.2543204490532,11.2672154507209,11.4185647044817
"Slc25a5",11.5057951538719,11.5957914426894,11.5380520006955,11.6229817570207,11.5524348506203,11.6004496014056
"Fhl1",13.6320703814161,14.0204923366881,14.3551851355037,14.3340766091109,15.1453518733624,14.2108104647851
"Idh3g",10.4696689164182,10.5976350659483,10.4228507890125,10.4752823297932,10.3420167017298,10.5194507179322
"Bgn",17.2455001595645,17.2316170821895,17.3423072553134,17.1356201722842,17.5670523096467,17.2475876065291
"Gdi1",11.796519769604,11.7389476489187,11.8399464873973,11.8986638220904,12.0962486580008,11.9252434619097
"Efnb1",8.81469539857013,8.93545160919367,9.22790236353447,9.36206471564345,9.91591503743292,9.28616101688562
"Ccnd3",11.1275660624267,11.0048786511234,11.1470787285708,11.2456661766811,11.3757614295278,11.2298574313087
"Gnrh1",0.462991982837708,0.550061120878933,0.540552100654275,0.552448265757233,0.53030764224332,0.507352405204322
"Inhbb",11.6048836391698,11.3627487019473,11.2520741446166,11.3422049299606,10.8048981325714,11.3052935572079
"St6gal1",7.88177616731896,7.9045531792533,8.1302650679325,8.37301980855123,8.45072198143496,8.17477050034673
"Gucy1b1",5.30798990095535,5.2653465823713,5.67432306656741,5.66453067765276,6.55831073696272,5.72376588240366
"Ccnb1",10.0782876754722,10.6677367044105,10.2642259456356,10.0915739665152,9.52021326189926,9.91467985851295
"Pcsk1",3.99605221003092,4.28713287627774,4.49268374533931,3.86989818780928,4.8040499704287,3.98588287693401
"Il6st",14.2162244529174,14.0250105182302,13.8616245382021,13.7494264535278,13.2238389026518,13.7456256254614
"Lyz2",3.58796139678097,3.66962308347085,2.90825172216184,3.63346816710998,3.50332770319482,4.28893845311647
"Sdc1",11.7276642106101,12.0477836752393,12.1127055108663,12.092974977983,12.0973003578994,11.8701560999996
"Tapbp",10.0212045700077,10.0326308192034,9.51645487758658,10.0391874508115,9.80880054563361,10.4344568152415
"Vps52",10.6743369595379,10.7041360124734,10.7272133180391,10.4890851517492,10.6211286844717,10.517130086077
"Tspy1",0,0,0,0,0,0
"Arsb",11.0116844124318,10.8095447770794,10.7329295546907,10.8988540819621,10.6315912592159,10.9429077106539
"Add3",11.4309602395011,10.5588787452807,10.2244634163024,10.1800497712584,8.65442057869157,10.1876912510635
"Onecut1",-1.49538440143149,-1.49565080808946,-1.50092854612043,-1.49529640035574,-1.47047907886174,-1.47747679824879
"Tyro3",8.80951742903681,8.85453684746101,8.79778502358187,8.84095525546738,8.63525697978013,8.7723482322908
"Akt2",11.8855602608095,11.8955214317198,11.7497618896551,11.7814730038901,11.7389961434922,11.9010135303007
"Ghr",8.50768271507749,8.14759190968214,8.20953913473636,8.21927737637454,7.80030773147129,8.12789073156637
"Gpc3",1.36468108520175,1.47769803649731,1.43826863950962,1.60929006661546,1.30128569343894,1.43820880136711
"Acvrl1",6.59449307688399,6.66678599046758,6.32566726199075,8.60252972918321,6.76039263672075,7.98643345463701
"Grk2",9.94778684413784,10.0306295924952,9.8924537851586,9.91374044920405,9.94735141708056,10.0273003663002
"Apod",-1.96330578072834,-1.97467771779471,-1.97158009411096,-1.97450818547655,-1.97388122359951,-1.9716063596886
"Aqp1",11.5873528497099,11.3587936236737,11.27740069178,12.8350916861919,9.87848652188158,11.5524616489485
"Aqp5",-1.97447781168251,-1.96359778406793,-1.97157095447903,-1.97443661358197,-1.9738230196787,-1.97159666002652
"Arnt",9.81580034935117,9.82622551423678,9.78072023357595,9.70343227128067,9.77911334331017,9.78156550551344
"Arnt2",10.2498952891582,10.5305707636781,10.4741538388675,10.5053334185255,10.2378878960695,10.287689844848
"Bckdha",10.7468934242974,10.5675770324495,10.2870230054422,10.4016386500836,9.8613223521311,10.5016927240386
"Bdkrb2",2.45225454921022,2.4188209775438,2.58385242167086,2.67569085226752,2.91314362601026,2.64610258084504
"Bsg",14.1576568135294,14.2939713641259,14.1729029332469,14.0308550345901,13.9345827787325,14.0356300622421
"Nsg1",8.76608918658605,8.158828099484,8.76127897252332,8.82218371297231,8.40588290807798,8.31521298103685
"Cnr1",3.16465738235367,3.15912702234635,3.21200167472149,3.58867325748043,3.1947976153211,3.34162596402929
"Coq7",6.57232891165197,6.80081442947887,6.6996662352093,6.60121445471031,6.49279903232818,6.53391217887537
"Dlg1",10.1275938645518,10.0478589101314,10.2302903002695,9.85259952520096,10.2214827522816,9.89447722581344
"Dpp4",1.83348057521904,1.85745740077733,1.70432757689938,1.7775146708974,1.81647480644874,1.93813614977188
"Dyrk1a",10.3484941529506,10.3732805371015,10.4332220778961,10.2577302084713,10.3863458993866,10.2497033210589
"Fmo1",2.67080282211718,2.40131608660895,2.61920399449055,3.01185819918037,2.67041935473559,2.7579942368305
"Gamt",7.35138776185943,7.14586554832948,7.10033253614507,6.97231936704286,7.06141976268883,7.16516368381523
"Gstt1",6.41393983796069,6.04899566352894,6.10691067201632,6.25880100977708,6.23872202798209,6.37331859760808
"Id1",10.2397532430692,10.4199941691924,10.3443566270978,9.73602305415642,9.98480731588693,9.84593226405469
"Itpr1",9.75669906285682,9.84586649341662,10.1241225326075,10.2356575703958,10.6923282441758,10.1411531528151
"Mal",-0.989461742101322,-1.04994056108722,-1.05008698794025,-1.04988284873482,-1.04824664030674,-1.0186789081748
"Nmbr",-0.981541658961034,-0.98158717676336,-0.940227824368692,-0.981526450941943,-0.947266770539088,-1.00573320423402
"P2ry1",6.74152565493296,6.54908930778115,5.85305976874259,4.68351814369991,4.44178832409454,5.35490094651169
"Pdgfa",9.71697257225417,9.93557564062826,10.0965938292794,10.1404434449108,10.5288075504161,10.0643057748252
"Pdgfra",13.8994355565783,13.6114675977944,13.3645998641144,13.0581816818439,12.5637447792014,13.2018149435946
"Proc",-0.331953545701946,-0.332617598566052,-0.323710614055674,-0.30202015582937,-0.32828230133985,-0.323726186662935
"Pvalb",2.88248823985059,2.53284451536689,2.50341323347102,2.36348479531755,2.29893744577477,2.53546426468389
"Abcd3",9.46334635252351,9.38548886455133,9.38750987405422,9.44212589184557,9.33029322570062,9.4231172932563
"Rxra",9.21371748847747,9.01564346626901,8.94827633707586,8.89167951367631,8.86957614699811,9.0470319706346
"Mapk10",0,0,0,0,0,0
"Smo",9.93157788428036,9.93729394497599,9.90908052767433,9.78856237911028,9.88954944511975,9.86441129906886
"Tst",8.85509991339752,8.51706752227326,7.88599639886712,7.86600994797743,7.21967736729219,8.34293097660309
"Cnp",10.898815089346,10.7698997523979,10.5006789253075,10.4964466355269,10.220335070449,10.6920693485524
"Mfge8",14.044826524543,14.0608851998804,14.1357657798651,14.4224724020884,14.4369876739293,14.3468201203555
"Cox6a2",4.54408182624866,4.49534107098144,4.91144650036451,4.85278360460335,5.31181600858892,4.69056475484667
"Nup153",10.3162451332597,10.3947531981993,10.4580690135848,10.2399315340443,10.5543552238271,10.2945735310803
"Cox6a1",12.310583825243,12.3564191533701,12.2800978928393,12.4348062516738,12.2550016736911,12.3983075591498
"Gclc",9.44352834124031,9.42592506653404,9.63060336473145,9.56119070360744,9.7952498686833,9.48234362530111
"Amacr",7.348720416061,7.33169775870838,7.30215572697677,7.47777765024388,7.40856568207095,7.48122502656534
"Igfbp5",5.32528507309082,4.68794953480469,4.01837383947251,4.41548178866745,4.22707726034194,5.30952298897994
"Acadl",9.85768701793866,9.65758105222096,9.76749120351581,9.73756323606513,9.5821392734329,9.64999408631301
"Acsl1",8.77206192159186,8.50398423771466,8.30255755225976,9.14996030370003,9.47391740333494,9.64740438091099
"Adcy6",10.9474468793321,10.8481684240699,11.022176919389,11.0408238384728,11.2110549401687,11.0015701216328
"Alox5",0.894817196284953,0.943802312433328,0.840484796228949,0.809520108316779,0.779564236468134,0.873367130522649
"Anxa3",10.0562249490455,10.7494973691724,10.4791515068216,10.5158574985931,11.178246169655,10.7707614864114
"Aqp4",0,0,0,0,0,0
"Azgp1",4.14877157839861,3.94192284289789,3.92314057820951,3.47077250879163,3.31777091229287,3.51647834298099
"Bglap",0.183220022607713,0.15345876930964,0.148196889710993,0.0944910934787843,0.16157459263435,0.148175349304251
"Bmp4",11.7116256087299,12.1579065707729,12.1889976746807,12.0570539131714,11.9333379026778,11.7409643229953
"Cacnb3",10.778097436248,10.7956077276429,10.8838840299376,10.7128426131139,10.4330080307786,10.4758938739541
"Cebpg",10.2553031645894,10.3244761453056,10.4124457894341,10.4596402089365,10.6606739511862,10.4376009455748
"Chrna7",0,0,0,0,0,0
"Abcc2",0,0,0,0,0,0
"Comp",7.73709128640121,7.52935852512738,6.91396999839899,7.59847033006551,7.4870880390817,8.26203409193891
"Cpd",11.8123770263347,11.7289851491849,11.7817925581895,11.6688999080183,12.018269082632,11.8324730248955
"Cst3",12.6110852741939,12.7807769149109,12.5562141727906,12.5654528646343,12.3307285540406,12.5878076310992
"Cstb",10.535692900037,10.2463896898117,10.1579785171475,10.4978887569346,10.368869433537,10.6664418730126
"Cycs",10.2445399255665,10.6335930587412,10.5910217214082,10.6602106441667,10.6436561695521,10.499978177605
"Dcc",0,0,0,0,0,0
"Dmp1",0.619700292846807,0.729379373986336,0.673103012066535,0.589055461417083,0.687853354884773,0.639891229500965
"Egf",3.43347626848845,3.60980512969556,3.31141896640094,3.01910440940632,3.40415257372801,3.42185022425823
"Emp1",13.5319358175221,13.5805851329312,13.4574098080813,13.3884755729175,13.6296717395575,13.6079243233828
"Ephx1",9.63439399759332,9.40689210719913,9.4668509073102,9.69687780691242,9.56242267649528,9.68344238678988
"Fgf1",7.46539139318264,7.40633249554918,7.88380473209739,7.95278835405064,8.68747654252944,7.87218966055856
"Fnta",10.1716314471834,10.1836168792849,10.1400703018142,10.0008169623206,10.0962638698499,10.0860942775051
"Fth1",15.8602122732762,15.5662111877308,15.330900748066,15.2539595326151,14.7570510637073,15.3878162805987
"Gast",-1.48163192290393,-1.48187226706751,-1.49193543686344,-1.50275953699287,-1.50157709367965,-1.49198497345854
"Ghrhr",-1.97457454023506,-1.97470288671596,-1.97158314789738,-1.96320736479374,-1.97390070604031,-1.97160960099515
"Hsd17b1",2.4582016343354,2.45516902605834,2.4938520620372,2.55948814572106,2.44547294800251,2.46531381502145
"Htr1d",-0.292011685514616,-0.292085746012033,-0.276149332016601,-0.260935928211789,-0.193140476198448,-0.242937585951842
"Htr4",0,0,0,0,0,0
"Jak3",8.8644923681885,8.75840586012802,8.85012492903691,8.93530134630588,8.70826085813139,8.78310528733999
"Kcnc1",2.1710460032804,2.20519541715082,2.33429039936436,2.20669935574539,2.21253132467866,2.06344565106327
"Lamp1",14.3554082444142,14.0796698891231,14.0969832704795,14.3034879716046,14.0800139117639,14.3123067379735
"Lhb",-1.97457454023506,-1.97470288671596,-1.97158314789738,-1.96320736479374,-1.97390070604031,-1.97160960099515
"Lipe",5.7143818275529,5.72729315741434,5.62236593344057,5.85975024404373,5.53797504268668,5.79733420240825
"Mat1a",5.71078308038388,6.08906311832288,6.0649745502016,5.76911641646636,5.03654150190182,5.23777750833588
"Mgmt",10.2079985350863,10.0975155490608,9.98902739258332,10.1166390259285,10.0210020415475,10.2325501832283
"Mgp",16.1413596654738,15.7155411627545,15.3496792598056,14.7529738111487,14.1463779013672,15.0284470105664
"Bhlha15",-1.06498440457546,-1.00593190347941,-1.06527340418543,-1.06494021314265,-1.06320684772446,-1.03425828027556
"Nfyb",8.79729351043969,9.01066410278516,9.18075191403892,8.95254907416179,9.2173150973659,8.80815897833735
"Nfyc",9.76546788994202,9.80824423344487,9.64948558380605,9.69258235592345,9.6408133858477,9.80406834877298
"Ninj1",10.9253314059564,10.8219649378481,10.7025725808277,10.8902388034174,10.8444100433527,11.0384000144596
"Npr3",11.4297196269058,11.9310820319511,11.6526925979349,11.4080819618389,11.501233835654,11.48236613024
"Npy5r",-0.297383771728575,-0.356003746149777,-0.347744485388627,-0.385944152693685,-0.351676890798064,-0.347759795296423
"Tnfrsf11b",12.2349529411954,12.0924357962754,12.1906706573759,11.9332270930716,13.047744068929,12.4635092923598
"Oxtr",-1.0447625094821,-1.04480601788479,-1.04491622642404,-0.983862924006532,-1.043154458405,-1.01337672846518
"Phb",10.758338859277,10.879721856325,10.7044059886805,10.7810389657997,10.6452330475672,10.827760375804
"Ros1",-1.02418019612173,-1.0242258794903,-0.999522922852128,-0.992773059185818,-0.957066531404313,-0.999599910248952
"Rps29",12.3073158608584,12.3951200000818,12.2658693528756,12.2575612851274,12.2997533990405,12.3640059196784
"Scn2b",4.64748641579317,4.33510791602969,4.47203163047391,4.38597970542473,4.58238611371969,4.50344844500974
"Sod3",14.1808147996983,13.873157433861,13.7107114742885,13.737273018407,13.286027520921,13.8279249121552
"Spp1",12.8883423703256,13.5821779194879,13.8392292438968,14.4183317311071,14.7556521402266,13.9830228366768
"Cntn2",3.54085326665129,3.34244493466433,3.55114894602084,3.8217608772529,3.76145396934061,3.68210757793372
"Timp3",10.6335102416691,11.3516724929383,10.8225971769903,10.8647014849472,10.4974248446568,10.8510573551154
"Tmpo",10.8057789240549,11.0605810448069,11.0539732189918,10.8873574352438,10.932245954927,10.7890084605245
"Tshr",1.04160227011077,1.09800349070111,1.05476188336835,1.12825437902641,1.01193210510832,1.08513423910496
"Vcam1",8.74813200105512,6.74355836618545,6.49329371898198,5.64328457813023,5.22687489474243,6.68763120107463
"Slc30a2",1.11856521755367,1.03682470909007,1.00594280417257,0.980756872952807,0.950844391259631,1.03755279125552
"Acadvl",9.95620629537705,9.91679368643982,9.88278834724579,9.81302668949413,9.65671285164342,9.78858141423143
"Asic2",0,0,0,0,0,0
"Actg2",7.1054578481157,7.44415390354481,8.36722160666597,9.66278294918063,8.4406607860961,7.95930613680266
"Acvr2b",5.09989643073902,5.026212638278,5.129339192757,4.8420645396577,5.00232326608456,4.85590924462265
"Adarb1",9.21766874536288,9.24888247705378,9.74951751655991,10.4078331605797,10.8951537654608,10.1352515576687
"Adk",9.5749656392647,9.61192605080087,9.46991696782654,9.55602353867992,9.51706730670506,9.66007429989874
"Adora2a",9.11545417107667,8.9101955341734,8.58620879687038,8.46795204735442,7.65811511897768,8.4896496389207
"Adora3",0,0,0,0,0,0
"Adprh",9.65705542521351,9.69091598199119,9.66120656898299,9.67252747864118,9.65757951978489,9.6778326338324
"Grk3",-1.97025932546453,-1.97039828782076,-1.96395513680321,-1.97021342256958,-1.96952975666958,-1.97624525945902
"Alad",8.85667377167536,8.96214084449255,8.96352171654451,8.8881521106091,8.80670669589191,8.79331499478995
"Aldh3a1",4.34312957176196,3.162765036737,3.37330379609828,3.39343652624678,2.93012226828623,3.5414229054177
"Ambp",0,0,0,0,0,0
"Amh",1.48733396551478,1.45679562910438,1.54933311315803,1.51670475296106,1.55700117673256,1.45958464899835
"Anp32a",9.59217162695233,9.89917544089832,9.88662464971327,10.1223863821424,10.0884366690679,9.96446040981724
"Anxa1",14.0834696296057,14.1013442326098,13.8940963579348,13.8742793834295,13.4424787716569,13.8566896507162
"Apobec1",0,0,0,0,0,0
"Faslg",0.673257473742226,0.673114127890442,0.657910694865671,0.704366514667369,0.83231134652599,0.783614036547343
"Arrb1",8.03532244562103,8.26435293316545,7.90359557205154,9.12327456618744,7.60687855250745,8.61131867668914
"Arrb2",6.82206366347824,6.95930079810087,6.70836998121248,6.81178889191946,6.49140500416985,6.83390919762173
"Atf3",7.60486502380606,7.2863006700857,7.4816326398625,7.52116312301678,7.47225352157165,7.4606585293776
"Atp1b3",12.1166785994534,11.8481319905837,11.8353113532953,11.6589386606888,11.7303890563079,11.8417578002215
"Atp2a3",4.80293364478653,4.74485509194486,4.99084558519968,4.94083836964844,5.02418873171875,4.76556233384961
"Atp5if1",10.4534074650889,10.4513676073855,10.4293700377794,10.4321158043972,10.4593605013462,10.4687556513295
"Bcan",-1.49508671949413,-1.47320538746398,-1.47817452251465,-1.49500386406867,-1.49376983669258,-1.50035838134503
"Bfsp1",4.40729336936305,4.51132479939196,4.2415986364809,4.57001631799945,4.17832849503612,4.59188285441438
"Cacna1a",7.87755949148496,7.48288899828478,7.54178447556267,7.66635253482899,7.51620838941924,7.72972023144632
"Cacna2d1",9.03633944206356,9.03845327022922,9.24774152513938,9.31026640028511,9.79548035493656,9.34252820861785
"Camk2a",3.05581855159675,2.98098348286951,2.96466000981584,3.05763979947993,2.8661132361309,3.0156175252227
"Alx1",0,0,0,0,0,0
"Casp3",9.41093177772952,9.47956889880619,9.43459508263176,9.54351399126675,9.42730033802591,9.49606242028243
"Cast",11.5849892451746,11.5947975104558,11.637837550052,11.6444837054973,11.9758827419341,11.7622390514789
"Cav1",12.6879773727626,12.9073000885806,13.0026214829554,13.1450709829463,13.1989022394125,12.9670038588956
"Ccng1",12.5894069644921,12.7512228977322,12.55707848691,12.6988619835916,12.5630779139789,12.7442063929874
"Cd44",13.0677756904195,12.8117029294944,12.6756878829041,12.813851869929,12.7258611075912,13.0339079158129
"Cd59",9.48024327496274,9.3681086170182,9.41581802278073,9.4258303299104,9.26352922993622,9.35303770313305
"Cd80",7.70596255045102,7.73369293085191,8.00066323027125,8.05875840213789,8.30408118945623,7.90058430617728
"Cdh6",-0.30597455037868,-0.306641508076167,-0.296991346641544,-0.305751790629534,-0.269629413358584,-0.297007284579939
"Cebpe",0,0,0,0,0,0
"Col2a1",9.18910136386893,9.77712140084687,8.90139901337315,9.3216206169884,9.23484580272864,9.85994557884328
"Cpt2",8.93392459672904,8.8666729049299,8.77900737027157,8.66939826999457,8.66430653003698,8.78814378057368
"Bcar1",11.9458783358171,12.0886455719168,12.1510202110351,12.1760743863076,12.1711712283082,12.0398645501398
"Crmp1",2.95064361477627,2.91758399612418,2.85080334568842,3.03914846092418,2.96400241255122,3.0848858964995
"Dpysl2",12.2282221120388,12.2692691409823,12.0769972802014,12.1632974886806,12.030931687167,12.2688629342329
"Dpysl4",-0.73313432737951,-0.674403541050985,-0.703289172586226,-0.672805403364435,-0.732837254486664,-0.703301090554571
"Dpysl3",8.30176336579084,7.97339494021638,8.8253094576387,9.41793945535028,10.2618565954121,9.15216772074609
"Cryab",9.71391588871522,10.6046609021854,10.4562026680258,10.3803771241924,10.906156705096,10.3463526420687
"Crybb1",-0.0496713778590207,-0.049759333632718,-0.0262026475746404,-0.0185717078331778,0.0796471699139484,0.00702502286915629
"Ctsc",6.8547536031997,6.14117008078741,6.22295158041119,5.59094446728859,4.70540494623124,5.42318496834228
"Ctsh",12.061916532731,11.7924142739452,11.7811473267417,11.4824894089063,11.5068376904292,11.6406816262642
"Cyp1b1",14.6726093155252,14.4874577610549,14.7033390374477,14.6115105769109,14.3625552732801,14.3637274259378
"Cyp51",11.0764196289648,11.0729466185413,10.8043535727274,11.274042842123,11.8424891081759,11.8285955261751
"Cyp7b1",10.8695009879553,10.3441880774952,9.97652899875764,9.95308522233394,9.03835289881832,10.1260345945437
"Dlx5",6.80946733402547,6.89380760161429,6.34733803662151,6.32216311495773,5.89401375817527,6.61238786776487
"Drd4",0.233910842254177,0.203038012827286,0.203502932460401,0.234143482148518,0.203698534997818,0.233892503653499
"Hbegf",9.67216195901928,9.78613760124766,10.2678592384121,10.4415278563787,10.8621084069793,10.1131086734004
"Sparcl1",3.13342875058497,3.15412356172555,3.24976103861012,3.10868652206356,3.09876804889888,2.99774240302636
"Eef2k",9.74624262824869,9.42466556782471,9.34614787778394,9.49752617823053,9.34131937717563,9.65872899795585
"Emd",10.0869222694873,10.2370778601754,10.4916611927968,10.6904926524333,10.9491036342454,10.4901370153739
"Eno3",8.80318741434908,9.31669614161722,9.2092584069412,9.33496888428687,9.75157631751119,9.39395597194099
"F2r",11.4858289843203,11.1395131487837,11.947697821043,11.7562886554161,12.2188276345513,11.3525313904927
"Fcer1g",3.09249202802807,3.12468872046508,2.80766405004119,3.12845441228016,3.06488258346002,3.39759482207547
"Fgf10",9.4172373716253,9.0532973242796,9.10558890293699,8.14805871471367,7.9341314224128,8.1707735135787
"Fgf9",2.71859973271092,2.65944726379059,2.61146557838347,2.66246703074832,2.9242904039129,2.8709366371979
"Fosl1",9.96600747104249,9.80038294969163,9.73716358984426,9.35380179703257,8.89565328926683,9.27075916367251
"Fosl2",9.42345603587389,9.22102557230922,9.19193008695872,9.00646521173236,9.01747113096869,9.14227888848337
"Fshb",-1.4951490641232,-1.49540315536852,-1.47801692134931,-1.47264513769335,-1.49381505505271,-1.50048928476958
"Cenpi",7.81033036991199,8.1918369295744,8.05386651717646,8.00131205083907,7.77351991114825,7.83463311356039
"Gabrb2",0.423483906709046,0.503738953812851,0.397331046893783,0.330694642360343,0.331350690782136,0.397303049938405
"Gdnf",7.09301401733315,6.27999544550665,6.75134882320528,6.28502186749429,6.53328176989333,6.34430772690843
"Gfra1",7.55676275896063,7.72049689749045,7.79970420263335,8.16944970713194,8.66354565405607,8.2554233061862
"Ggh",7.26864428316034,7.179549379873,7.16417408558498,7.12232599725427,6.84403373846187,7.04310261378976
"Glrb",4.24142163544118,4.20545090758039,4.59919176702511,4.97412538201745,5.88988215735785,5.05624827417333
"Gss",9.27370580715239,9.30263131170969,9.24358235432889,9.41061611427675,9.42905932491993,9.46442392470049
"Hmgb1",11.0632484965316,11.2028642532983,11.0886543001322,10.9904507841931,11.0833169292988,11.0812859315287
"Hmmr",9.20500893404235,9.66621619717627,9.35553835095935,9.25363542988006,8.88323142157157,9.14850764037578
"Hrh2",-1.96330578072834,-1.97467771779471,-1.97158009411096,-1.97450818547655,-1.97388122359951,-1.9716063596886
"Hspe1",9.34455275079715,9.6085732418553,9.39814195338014,9.49604252221876,9.26695160105437,9.45991810458265
"Icam1",13.5802855397073,13.4484502345184,13.2514606131808,13.4933521474272,13.5853332336969,13.8022499644941
"Il1rap",7.19536192886169,6.83037571140885,6.84758077310461,7.43039776099682,7.12187572871549,7.44142479188682
"Irs1",7.72364015933376,7.83677267637999,7.76604937279085,7.43665395570315,8.07078017505925,7.76787411044722
"Kcna2",0,0,0,0,0,0
"Kcna4",3.28117635135546,2.86621975414849,2.93425918409689,2.71147003471794,2.8778170163106,2.93408239416935
"Kcnj8",3.56807855066274,3.48475591062392,3.70967204868112,3.8303509622242,4.24907944544203,3.85646038579533
"Lamb2",12.4540675999967,12.4361788335004,12.710361102351,12.745531583907,13.1989989624851,12.7070273875936
"Lgals4",-1.05318044771141,-1.02554543766833,-1.06072511520575,-1.08300240719158,-1.08131366280919,-1.0607958624845
"Lgals9",7.33626094680426,7.15334546340009,7.48622750080988,7.41915003955449,6.01113535872993,6.4737184034345
"Man2a1",11.672830826732,11.3363419415993,11.5040541929412,11.4780551014912,11.79455427624,11.63683688009
"Vps35",11.3264341574924,11.32666231398,11.3868432804247,11.379658944648,11.4831404276122,11.3711046414416
"Mip",4.59172799293259,4.77556086436876,4.9437802450153,4.85648048377796,4.91738125884318,4.62679505494595
"Mmp11",5.51658004900802,7.24318927870705,5.8456629916623,5.51799281236914,5.53962211342867,6.06302913509414
"Mras",11.5500775634871,11.5786675909431,11.4671881218104,11.4445917765594,11.2044522775527,11.4217064824607
"Msx2",3.31181995962537,3.30903910008354,3.519783710876,3.78236379177374,3.98766287107305,3.67565915040186
"Myo1e",9.47313730734514,9.54923321154398,9.74517271414162,10.1064213167015,10.3291203642982,9.9837833858028
"Myo1d",12.2096195357987,12.0139328695514,12.3509071255051,12.4280191212212,12.6669287637992,12.3083430196802
"Myo9b",11.2515918073527,11.2269663316388,11.3753152339751,11.277143603458,11.6311509643568,11.3181111194281
"Ndufa5",9.35427835367179,9.47505957034537,9.3896058204083,9.48205489020479,9.28960295034734,9.41089206187634
"Nedd4",14.8536707826472,14.7690495029078,14.8439583015221,14.7544423331857,14.9163613692366,14.8028036924665
"Nedd8",10.7311942643792,10.8520023946156,10.7939584539009,10.8481722113122,10.7670485988484,10.8052502806767
"Nes",8.34901890508032,8.36855607981936,8.20510291757589,8.26501177508862,8.5860034562535,8.57919219054502
"Nfia",10.3734208912727,10.3096488878376,10.1239193809601,9.98904062903287,9.98578387004514,10.205027758134
"Nfkbia",10.9827414977662,10.9098642889519,10.6928723176269,10.6037309814882,10.3511781245334,10.7308851287428
"Nid1",12.7642824934292,12.6000927150403,13.0464200910358,13.3175599027143,13.9885140309211,13.2888044800166
"Nog",5.4983982792796,5.60294682995,5.50032712750303,5.66862084023674,5.97104587676367,5.87017878561197
"Notch1",8.094437791052,8.35988428766959,8.5139515778571,8.35654619674778,8.77883577601267,8.28090044788393
"Nup50",10.0645139498329,10.2506569466135,10.1511144968111,10.1499982933627,10.0245030010434,10.0937215986152
"Npm1",13.4742862679049,13.4319830059544,13.3211465802312,13.3325754284246,13.180553738898,13.3885526403597
"Nrdc",10.7641152182824,10.6501400033846,10.7116490729311,10.7084120911715,10.665451481535,10.6824103242556
"Nxph1",2.686081623144,2.75301961139898,2.57360752148765,3.10681881653302,2.76564026553755,3.08217263681912
"Oaz1",13.1048780860532,13.132313130194,13.0006116786466,13.0942113136349,12.9165311576884,13.1233551651387
"Ocm2",-0.0345526362561353,-0.0357835527722585,-0.0323226560034951,-0.0947129435680327,-0.0942797016324046,-0.0973417611109205
"P4hb",15.3968972130525,15.3630781193811,15.2832202563052,15.3748964039941,15.3438192792354,15.4561252515264
"Pcsk6",8.70754266166038,9.03840964288888,8.71443148466778,9.21897297225888,9.03729480249769,9.28667855498514
"Pam",14.3517571094526,14.2151929603084,14.3929681838974,14.3550203739641,15.0294938961341,14.5827639860321
"Pax6",2.64446518484691,2.92256776331697,2.62263733168274,2.85359456929619,2.7525702955621,2.96396157482835
"Pcp4",3.66219511756616,3.56493927083338,3.53801576013371,3.76126012165352,3.01354575780953,3.46295437379758
"Pemt",5.45412714396519,5.47798391098223,5.49493653454477,5.56287188705025,5.33472667863542,5.41991827577178
"Phex",0.354146818844279,0.382502917711535,0.394499145240382,0.384186232263395,0.390728663993821,0.361283171166133
"Pik3r1",11.8567263251696,11.8655976850017,11.6792809149732,11.3174961483142,10.9457216029822,11.3134899657606
"Lypla1",10.3634222760137,10.2679247528173,10.2964298095404,10.2070508970316,10.3397716634188,10.2926549851003
"Plk1",10.3470788463674,10.8924015206071,10.590169770782,10.5804505037278,10.0639147676114,10.3517530483749
"Pnoc",-0.096302597628176,-0.0401395550393973,-0.0731923217123065,-0.0960772912761717,-0.126434412741825,-0.106284606630478
"Ppia",14.2441004822856,14.3524415077109,14.2486810954065,14.397332036831,14.2023329522197,14.3494223941171
"Prkag1",10.2377056898329,10.2326256238169,10.2345015245,10.210023861627,10.1885734180791,10.1999627721779
"Prkar1b",8.81252038497666,8.65514607624834,8.83497772465721,8.25465599500852,8.76350309407522,8.40793505049717
"Prkcz",5.49332771710176,6.35182561938579,5.75982696998442,6.33048418457072,5.38365383943117,6.0198187102603
"Prkg2",1.60830799420827,1.60799966902857,1.52860253051349,1.67387475930159,1.80936462022292,1.82117099086719
"Psap",14.3951360985038,14.1302569039929,14.2111903756836,14.2615358230217,14.2960849522423,14.3303165131967
"Pspn",1.22201295742242,1.22122293229897,1.22328035465083,1.22227680675498,1.22637929828897,1.22266564273184
"Ptgds",0,0,0,0,0,0
"Ptgis",5.23932132571121,5.5472808691792,4.90793995929882,5.06638583081414,4.66411003760195,5.35060907235442
"Sirpa",11.2316504651157,10.7053077234674,10.8316517758866,10.9244786950076,10.6726167877659,10.9353750597917
"Ptprs",11.6778644672113,11.5043364533754,11.6849846729016,11.6744422498795,11.9308908326748,11.7087823286689
"Rab12",8.16067608394952,8.08146793803713,8.03214315905544,8.06556932655598,8.06268094288069,8.15305398665622
"Rab3a",6.64479423293082,6.64863641682984,6.70208363231838,6.70185364252908,6.91242724650683,6.75177213707991
"Rab4a",8.15886389388316,8.22482539810143,8.18962937597532,8.30102148458205,8.26029938254078,8.2828757035784
"Rabggtb",9.39463957115581,9.47391949522668,9.39908814536006,9.47704913511848,9.60391965431647,9.57567578254866
"Rock2",12.1940807413672,12.3865981513563,12.6717440430132,12.5275039071529,13.0569434955334,12.4108191046918
"Rps5",12.7653457422021,12.7859460990721,12.6578797914073,12.7015491424728,12.6679689413723,12.8025251711523
"Scp2",11.2741716501449,11.2860089754358,11.1058233257685,10.9338201446391,10.6519442306043,10.9671491746436
"Ccl3",1.99127138431819,1.87541784740192,1.53549014562759,1.87609900041368,1.87873689331258,2.27527241709561
"Sele",-1.96330578072834,-1.97467771779471,-1.97158009411096,-1.97450818547655,-1.97388122359951,-1.9716063596886
"Selenow",10.3602441477867,10.5162369810677,10.4738578580853,10.5374581953232,10.4935759678782,10.4798997879426
"Shox2",8.11492577853253,8.04157794763339,8.17984361261834,8.43400441606413,8.34307386887997,8.28694739293667
"Slc18a2",0.513718385764915,0.542047549938847,0.504081651331128,0.57247664537183,0.517692048157234,0.568885663285285
"Slc1a1",5.06261746882776,4.98832361896371,4.77751370647164,4.53083104412985,4.14182887109436,4.58428679503619
"Slc2a3",5.57809289593854,5.57729495058949,5.88091967617064,5.73581108278216,6.34805814879323,5.73870886288107
"Slc5a1",0.504065199844449,0.474859366290067,0.454097025140141,0.448612038412512,0.388798814224205,0.454070684245476
"Slc6a4",6.71544186860142,7.83410845537447,7.38135771034357,6.15676794413203,5.43104541418354,5.68732413080217
"Snai2",8.87907122352093,8.83515057494751,9.25429915782081,9.19830008554684,10.1003137279966,9.25211864818513
"Sstr4",1.01005210705846,0.95261107526105,0.988674625872172,1.06338783137871,0.928571651052246,0.988636706503066
"Il1rl1",9.42493453787172,9.80705730195615,10.050089696077,10.3675140121193,11.2257188105982,10.3625226351957
"Star",3.26991317352334,3.09517654129422,3.17676540801996,3.10214573825436,2.96287363465851,3.03828913584526
"Stxbp1",9.82928927968535,9.63614299028365,9.69894196921129,9.68232843421404,9.72818608344179,9.73903142460112
"Abcc8",-1.97025932546453,-1.97039828782076,-1.96395513680321,-1.97021342256958,-1.96952975666958,-1.97624525945902
"Abcc9",5.99227603688613,5.90351316807994,6.17524422384853,6.44203990510338,8.64339073989815,7.31536570113527
"Eloa",10.7836229850215,10.8324173112457,10.7725318714256,10.8206211856707,10.8707178918743,10.8811578154805
"Tle4",7.67691007154015,7.67765863912936,7.42025574702823,7.13399722376273,7.15285188931488,7.40045316484532
"Tmod1",4.79928073070976,4.53500413144935,4.67258745368023,4.98928077656896,4.74078729301025,4.85958901218893
"Tnr",1.30938144149058,1.30801796116917,1.32150442580432,1.41946855923595,1.37877664984346,1.38631788006527
"Ttpa",4.99810134202519,5.1034593558167,4.74741771751673,4.4078330640322,4.17540206420338,4.59498019552201
"Tnfrsf4",2.38592372481837,2.38337656393887,2.34311748904614,2.30035669751504,2.39993571050396,2.39167885934198
"Ube2i",11.7704605258151,11.9604596755445,11.817709496499,11.8214239783634,11.7294235479414,11.8231743673332
"Ubtf",11.5550477811239,11.6302913631573,11.5266654745738,11.4617700970086,11.4174765391912,11.5056274156667
"Scgb1a1",0,0,0,0,0,0
"Ywhah",11.7965651455842,12.0447793187161,12.034074241096,12.0661068762138,12.1269542856807,11.9831285720015
"Ywhaq",12.6433928174011,12.7043504920159,12.6790137107028,12.6684002750324,12.6358843384903,12.647000250767
"Ywhaz",13.5631577286835,13.685664662457,13.7259709222875,13.7367278698144,13.8819546613748,13.7077815388773
"Map3k12",8.94941165208255,9.0458921586318,8.9543162978227,9.0446154077065,8.98256900029002,9.05692781153274
"Psmc2",10.9239548088527,11.050248819489,10.9176461694374,10.9723630999554,10.9586983161076,11.034986352765
"Agrp",0.0983449556902137,0.0982471951700152,0.152350037845436,0.215674574043995,0.19708999741415,0.152328323313751
"F3",12.9960672242508,13.2580323680531,13.9973184867054,14.1954332690451,14.3524165244126,13.4036562061754
"Id3",12.5480860477986,12.7139720196113,12.5969211499212,12.5571437324742,12.4430556869841,12.5342075935129
"Alpl",8.17623256271986,8.17836013546551,8.459348251577,8.99392569940527,8.92861500395863,8.67921844919763
"Id2",9.66640865646159,9.83972531738192,9.38987019117753,9.23068203446902,9.30075812665799,9.62891687630773
"Kdr",0,0,0,0,0,0
"Chrna4",0,0,0,0,0,0
"Parp1",10.4663556905764,10.7181889419571,10.60080565375,10.5907828505349,10.4418016006192,10.5077588880938
"Agrn",8.96312627714838,9.0032789405757,9.13741936567847,9.24197129324573,9.55685628613912,9.24519703287599
"Hcrtr1",0,0,0,0,0,0
"Ppp1cb",11.6799126625629,11.6843092196552,11.7267077817546,11.6779095645951,11.6780934152097,11.6334046492568
"Map2",6.31301796164653,6.65527731658155,6.2660478647514,6.52709665231068,6.11398393185038,6.53864006644318
"Rpn1",13.5734705846718,13.5959711084452,13.4716707633346,13.4188982334126,13.4866782260704,13.5658383129655
"Rasa2",6.58176719923031,6.62139657866317,6.7009407316709,6.61212720418846,6.77583293724463,6.59462122799239
"Cd74",2.99275214564758,2.901357891114,2.79449469143448,3.0490401885565,3.20434557042446,3.27925320643679
"Utrn",10.0305040018603,10.1612423533595,10.5575825647346,10.3024442324659,10.899022979707,10.1390242189617
"Marcks",11.348360788452,11.1135173078723,11.2362571211549,11.1587759089288,11.4645638198174,11.3063517913804
"Pcmt1",9.15045066332556,9.30959425978219,9.23173998208031,9.37541630973952,9.31413889000149,9.34306007934408
"Hcrtr2",-1.97495542800283,-1.97509807349177,-1.97163076635526,-1.97490830847296,-1.96162005589799,-1.97166016657752
"Lep",-0.672162660194794,-0.642194126738351,-0.632899891599188,-0.61164114397415,-0.671853340321992,-0.666025744015455
"Tub",4.59923590078712,4.6661837078453,4.72699564882998,4.62142888334647,4.62034370507695,4.52660044969795
"Csf3",4.9405577551864,4.50652096109999,4.46268644457627,5.01330920266764,4.20739833699122,4.87120668339635
"Otc",2.76932990742783,2.81212493793106,2.7994425807224,2.90790654285139,2.6486230344311,2.7695496305983
"Asns",11.3069115945631,11.5476060302378,11.6081786387016,11.6602680756445,11.8713024008375,11.5848654119398
"Ptprz1",8.19544615835666,7.90873211102578,8.51181097542985,7.9034057612534,7.35538331474665,7.16967269726139
"Ptk2",10.7329370471828,10.7895356492892,10.8387565995439,11.0505376223566,11.0987025251073,10.9970998224241
"Sdc2",13.5860094316527,13.8286229459462,13.914045117115,13.8637463441773,14.1285400941094,13.7894142908278
"Rln1",0.386092009016664,0.355760966817115,0.363836205354627,0.38651347707617,0.393057987110109,0.396876014655402
"Hspa5",14.1214761137759,14.2664026989166,14.320141783879,14.4128959467888,14.9196957610198,14.5400934763715
"Acadsb",10.1861137540265,9.82296953567773,9.93276932171342,9.89436302697518,9.82815671744908,9.93303219535083
"Plau",7.67383227380195,7.55951896452369,7.21261634989493,7.63790664309396,6.74652097195101,7.59627307679038
"Crem",8.3162432672615,8.32326176265363,8.39693982779902,8.447992084269,8.23383808466686,8.26372777162648
"Cd81",13.5280851822314,13.3771277718272,13.4197075312123,13.4819502009499,13.6380025252063,13.5928753088952
"Ptpn11",11.4820399281485,11.4936636681372,11.6439732737279,11.5680499879866,11.6591619963698,11.4574845165932
"Gys2",-1.96330578072834,-1.97467771779471,-1.97158009411096,-1.97450818547655,-1.97388122359951,-1.9716063596886
"Vamp1",6.88075670793455,6.54857395602352,6.58902926238904,6.42109213939506,6.42931820569798,6.55084124213652
"Tnfrsf1a",12.7799988320964,12.6877719247816,12.5765739367004,12.4676009070575,12.3408048931137,12.5615143418242
"Krt8",6.93942746486689,8.09657312411098,7.1761758401855,7.01480250095116,6.90701023706272,7.30273082331037
"Nkx2-1",0,0,0,0,0,0
"Plin1",-1.47282409482033,-1.49537550827079,-1.50038203408092,-1.49503931282953,-1.49379599988959,-1.4781354238242
"Pkm",15.4706037444269,15.3360646835968,15.2458737109445,15.3451575383822,15.1720842836482,15.4160814140826
"Smad3",12.4025350257424,12.5247242933273,12.451107086546,12.2899139879834,12.1960891517616,12.2555241428614
"Dnase1",0.913795751801288,0.912486213618095,0.960589107579983,0.997521906065333,0.888366281395749,0.89549596886025
"G6pc",0.85828627064671,0.938137193664048,0.894188016923032,0.915095084592907,0.799046567243648,0.861094541150626
"Mc4r",-0.673728217084408,-0.643763986493174,-0.667514111808146,-0.613215585660525,-0.673419315044138,-0.634549440332977
"Prkaca",10.4943289798953,10.5581739288615,10.5398209462465,10.5200548971915,10.5616856803314,10.5273007968934
"Ptger1",5.26442358863091,5.22635509820928,5.12031727021016,5.25482533353415,5.45558910601141,5.48027929298272
"Pde4a",8.34089172007849,8.06289845249631,8.1967828499565,8.1224030811413,8.266827916573,8.19972773518805
"Fkbp1a",12.1640576652712,12.1103415418643,12.2276452602867,12.3389973281101,12.2965861944585,12.2273461045653
"Hnf1b",3.80170523231229,3.8866906880057,4.08599997514002,4.03098295249049,5.3218855744494,4.43463224848892
"Igfbp6",8.28910632359716,8.39705523789041,8.01730541860686,8.4849178847883,7.35983908856874,8.24815384881545
"Gnai3",11.5991497934554,11.7043810535124,11.7503582118121,11.6888951234899,11.9011029001706,11.6964062235021
"Bmp6",8.60242769366172,8.49568469316844,8.51471308522778,9.25919007706423,8.85579145016008,9.09183387179945
"Adrb3",0.729676235913832,0.63628410470929,0.763210281817997,0.668944244292648,0.637267659070699,0.572875840175237
"Otx1",-0.0640677341246415,-0.0641520734717918,-0.111281302931533,-0.00323843812009281,-0.0636007075749792,0.0137518262857803
"Il7",7.74654836791692,7.33990613423792,7.0598731492653,6.5604286100016,6.28217306457552,6.90465493910069
"Slc7a1",9.68181435976487,9.99538666153027,10.3093439290641,10.5305690993703,11.1579235223245,10.3735028924309
"Atp1b1",7.8551841839182,8.37515276982175,9.0524083910569,8.28799673244964,9.74710760329584,8.08031225368582
"Selp",2.07026548350569,2.65640004765034,2.35762966416004,2.2030001297462,2.2176571962833,2.21603176443273
"Ptgfr",9.28382875750597,8.3400212875103,9.14434638941748,8.8512119861456,9.43775717426422,8.81206321329557
"Col11a1",12.5441970721887,12.8272427042938,13.1143324711898,13.4905382464958,14.6498389824393,13.641576031519
"Gja4",5.35301604481545,5.09123252435087,5.18442082482661,5.44887659598285,5.07429596679812,5.29928974114704
"Guca2a",-0.295292526954397,-0.295957914869782,-0.270440889290894,-0.295070290394013,-0.325568969290371,-0.335503961463388
"Gckr",-1.05318044771141,-1.02554543766833,-1.06072511520575,-1.08300240719158,-1.08131366280919,-1.0607958624845
"Khk",4.55189837029246,4.47811202645176,4.5676692233194,4.52328466668304,4.38196175021019,4.39995918349932
"Cd28",6.63810926667039,6.7842554829175,7.01952448703634,6.99169374101897,7.25405244388992,6.81453098021205
"Fn1",18.4660953959463,18.3622802107826,18.6880420146872,18.6706142530955,18.6774811302057,18.4001934803278
"Igfbp2",10.0020185305969,9.92324917469866,10.4790696117459,9.25514967786635,9.66746153809335,8.94486984888176
"Il1r1",10.7692872578374,9.56269161617137,10.0440396529769,9.95711606390972,9.1864707047797,9.69374316837221
"Pparg",6.55645877454672,5.81576938158227,6.23197957748539,5.92488146991862,6.33880030811199,6.08597538959441
"Scn5a",2.47284876041664,2.27961381219948,2.37374627065341,2.10841979503699,2.0774073948141,2.09539861058019
"Dgkg",5.81707131989224,5.33271231339088,5.56122442840462,5.46243154848825,5.47531665497837,5.48254148997025
"Bmp3",7.90070793214807,7.44382167683846,7.80769832442988,7.69591478874084,8.54189831119535,7.98347303003148
"Cd38",9.3562224605264,9.22324761576065,9.76305185027794,9.05999110045289,9.2489503324832,8.68115390433363
"Cpe",12.6735083415262,12.8675580262052,13.0058727691876,13.3174595475198,13.9419302244675,13.3943553006717
"Il15",6.86367800018027,6.30195657623219,6.3926902735513,6.62269508777457,6.236167263595,6.61955819033971
"Smad1",10.4915405176029,10.5107245841985,10.4692696254021,10.4372358454709,10.4123964863787,10.4566790914234
"Nr3c2",7.41860882201193,7.38572849946994,7.43206137485128,7.14564659540673,8.05001398398885,7.56793757558746
"Anxa5",12.235470677595,12.2248787550381,12.2401793662305,12.4017082290272,12.4552114558668,12.418455192533
"Glra1",6.21847067759348,6.27586568459095,6.51616874179573,6.31027440408151,5.98418741794543,5.87823035030995
"Hmgcr",9.65194622279287,9.48679817878903,9.43474480419626,9.61706708210794,10.2102998341914,10.0483108547444
"Rasa1",10.0496440959905,9.94427806450641,10.0113484799326,9.8434656485385,10.147786267351,9.98123855826065
"Mak",-1.48163192290393,-1.48187226706751,-1.49193543686344,-1.50275953699287,-1.50157709367965,-1.49198497345854
"Ddr1",11.4244587446786,11.7680823199709,11.7345148040173,11.6556452602879,11.7492227549374,11.5641897359201
"Itpr3",10.3958945701706,10.1801354874795,10.2784546292988,9.82343925388318,10.0131457655068,9.92785290922118
"Col10a1",-1.97495542800283,-1.97509807349177,-1.97163076635526,-1.97490830847296,-1.96162005589799,-1.97166016657752
"Ppard",10.6744074967318,10.6233590153066,10.4839262968907,10.6991972419895,10.7445304071114,10.8868207836789
"Col12a1",9.82670678644243,9.95440852308358,10.6140353718613,10.6998154356622,11.6096714772684,10.431265739367
"Gnai1",9.57401668704506,9.91948455018869,9.72236724475912,9.82144552658434,9.87671211608058,9.87346219519022
"Cald1",14.7914687610303,15.0849388293903,15.3074392470313,15.473952676816,15.7977904614408,15.2666361173074
"Clcn1",1.19629598374087,1.19495007611191,1.18216734981472,1.19674532884627,1.26563990403974,1.24464829655468
"Ahr",11.0889355997706,10.9847867449101,10.9225859425875,10.054882275931,10.1604529968262,10.2219428661314
"Plat",12.8801223025544,13.072376085084,12.7976438467877,13.3437352695491,12.8751798558046,13.2880629097083
"Slc18a1",-1.50270991905979,-1.46096987258806,-1.49191853456152,-1.50263134339913,-1.50146105773802,-1.49196756183098
"Has2",9.8600849726835,9.22389475775716,9.55825535907959,9.53751725720488,9.49103979895024,9.49801303421831
"Cebpd",12.8210956137272,12.9118595102754,12.658774814596,12.6949395448104,12.2248963079086,12.6676206737648
"Vldlr",9.99330489989823,9.93838946252847,10.1235745760046,10.2390599240406,10.8952645824062,10.4094348584321
"Ctsl",12.7037719873353,12.6571996835575,12.5360299363906,12.5090789785834,12.5079533475359,12.6529720621155
"Ass1",6.87494169751923,7.01964371202271,6.00686899972026,6.32030262328423,6.02345257119286,7.11230130228925
"Dbh",-1.97457454023506,-1.97470288671596,-1.97158314789738,-1.96320736479374,-1.97390070604031,-1.97160960099515
"Ide",10.6104498677752,10.6795496407587,10.7518848527499,10.6555768683991,10.9061632995987,10.6739849855159
"Mxi1",9.56325498002674,9.33116483758563,9.21434400620966,9.28938429223522,9.06934907203577,9.41223258473202
"Rbp4",8.24804492009267,8.17530873838514,7.95000558021142,6.65326191815139,6.04739481419139,6.61199961519888
"Zeb1",9.64630466091136,9.71013238358823,9.80132635350622,9.64582519414914,9.96427083420433,9.68194018292032
"Cntf",4.51994761087287,4.56433619209459,4.71312008867532,4.87144758676733,4.93197277283569,4.73073199260991
"Hmbs",9.17793378098342,9.15487070996193,9.07687956220821,9.15602847814833,8.89579052590872,9.11543218529298
"Gucy2c",-0.00119128927167268,-0.0900538463745457,-0.0679738588801856,-0.059060567324492,-0.055534405262748,-0.0349461952365436
"Itgb7",0.387987663528169,0.358214905466734,0.369115841978996,0.330140616937152,0.333797823028936,0.3359546625015
"Myf6",0,0,0,0,0,0
"Slc11a2",11.1589557572059,10.9139929403879,10.7627814528081,10.9814425713783,10.7896198472148,11.1592241052853
"Syt1",2.63937904386605,2.5806044986132,2.62621284166441,2.74394134421151,2.89075712274015,2.80112816305105
"Tgfb3",12.8448839600276,13.1398044646651,13.7422846624227,14.0665364163459,14.7542484804578,13.6604519983255
"Igf1r",11.2859816713773,11.4953598620903,11.7215469217999,11.6325218796749,11.8446481457173,11.40770885763
"Scg5",2.54120755459669,2.69338865888502,2.55051138440296,2.4361557545406,2.35217958631398,2.46095439276519
"Tcf12",10.9555435554959,10.8591266426373,10.8628944649456,10.7217477443974,11.0204876793115,10.9155583459755
"Got2",11.9839500402628,11.9469625799458,11.9161402827586,11.9441467342342,11.6260713529341,11.8344250709298
"Scn4a",3.66022744448809,3.65411267366564,3.63224803344061,3.78705608768568,3.92388171941956,3.88039092918888
"Itgb4",4.94713181681141,4.7008838109271,4.8023849385168,4.93663794933741,4.77393157888354,4.87690763946293
"Prkar1a",12.4661242967892,12.4545421721832,12.45561680183,12.3922553325245,12.4464611932851,12.4240746955611
"Mc5r",-1.97447781168251,-1.96359778406793,-1.97157095447903,-1.97443661358197,-1.9738230196787,-1.97159666002652
"Apoe",6.73318744304341,6.17688281487443,5.98417399267935,6.06157982805397,5.56514404515484,6.28422307288397
"Ccne1",8.57302245792872,8.83887020071607,9.03241320315931,9.07842067565243,8.83792916781435,8.63170804789648
"Ntf4",2.06353566900147,2.06103485251953,2.0830596388032,2.11767147062831,2.21449395400583,2.14530833427437
"Syt3",4.13177733259973,4.27183184121381,3.91515179017303,4.09252656406891,3.97953708510737,4.32268462132188
"Acp5",8.86135746648795,8.75834382752438,8.54283752601296,8.80638646142281,8.074493460854,8.70745308213161
"Hck",0.693284362466514,0.632801275151823,0.638243004404887,0.750251242070296,0.667690561300707,0.733770716089783
"Kcnb1",4.45100489097435,4.57028254667527,4.58567358792771,4.64885311280141,4.25395662559714,4.37637500009637
"Pcna",9.62842068146906,9.85683644795297,9.85225199947497,9.67628842749676,9.64608088622796,9.5515612220984
"Plcg1",11.6741690995541,11.637153448239,11.7067267090141,11.626707059566,11.6339999689098,11.5792880791203
"Pygb",10.4535689360514,10.4417718466201,10.5341454138995,10.5739010866264,10.5631222020681,10.4820366217835
"Gnaz",2.78760786946271,2.71701196433915,2.72277862428796,2.62620433741075,2.69853726194759,2.69190209229214
"Pfkl",11.9815143322995,11.8358964205101,11.6510813906839,11.8240430285571,11.462273278618,11.9007821393085
"S100b",9.83584783159007,9.97407674943028,9.76521523262145,10.1973221443921,9.59598959152024,10.0364029258449
"Nf2",11.3724933751108,11.2827590399007,11.2979220425089,11.2420757196645,11.0905789761406,11.1960315128994
"Myh9l1",9.24576390487663,9.24316852575032,9.47422696013209,9.24663061974378,9.26010300551733,9.02360606781196
"Il2rb",-0.989435802086318,-1.04999811163976,-1.01861897216607,-1.0499402359744,-1.04830179790537,-1.05021900163685
"Ppara",6.37771034154455,6.19279521265704,6.20444295301844,6.18922883527391,6.01295105290625,6.18189976817243
"Clcn5",7.27103487964895,7.57669971926025,7.52707581199745,7.26765574121008,7.3606474585309,7.21094308732765
"Maob",8.04453367758938,8.26364897910607,8.12115077964354,7.25143611886877,6.21041301752206,6.76386511689961
"Dnm2",11.0810308014743,11.1261793019078,11.1284337452903,11.2373692065262,11.2600563712127,11.2238840952701
"Cd6",2.51501645894983,2.74005952102989,2.50734484245776,2.43188144680061,2.34084819452655,2.50655796819568
"Cpt1b",5.13364519586301,5.27303660068497,5.42629081649675,5.38543561137377,5.46086800538828,5.20020189015826
"Cpt1a",9.83457296023958,9.69791247398327,10.0127600783384,9.43385054030702,9.12193946318046,9.03137764051673
"Ogt",10.3194841312857,10.2829828717805,10.3520237657804,10.2128183362148,10.5820304331665,10.3466341204434
"Tfec",2.9212101590651,2.83012076680477,3.15931894795725,3.39319696802971,2.81176967832499,2.81882983815504
"Acot7",9.71604599091541,9.85946146265019,9.75742657999122,9.78282772154474,9.58871390445244,9.71609795979017
"Akr7a3",2.0816135277304,2.10302971162787,2.02546451861762,2.05658791322091,1.98057098599034,2.08543655066714
"Rheb",9.89163136188326,9.94708219481726,9.9625265789247,9.9832723416264,9.91336835308491,9.90515054678122
"Afdn",9.33759849655076,9.32285641487979,9.43956685085152,9.67196682628817,9.31655552193328,9.38492177897448
"Ak3",11.2781005968586,11.0706218546326,11.0623142870619,10.8101159094561,10.7387892875739,10.8864995371987
"Rpl8",12.923555850278,12.9037892544308,12.8442100852254,12.9902006586212,12.8442533775268,12.986689485203
"Ankrd1",8.12669094929484,8.09996805239848,8.75135361509622,7.92111671943464,9.84290545918585,8.24398697506068
"Hbp1",10.9919875383322,10.9351124917464,10.7461302125528,10.8221735161597,10.629936575954,10.9434748485434
"Gfer",8.71536519939903,8.80827881072257,8.7097576011952,8.8460439569005,8.61771390498165,8.78394333480668
"Eif2ak1",9.71542094617353,9.72471291390147,9.68989449613784,9.59949286221349,9.71196954252196,9.68590363626738
"Rps26",10.7277272632101,10.7554521285141,10.7093303793344,10.7441565944775,10.4652389121084,10.6369570698206
"Cntn6",-1.97495542800283,-1.97509807349177,-1.97163076635526,-1.97490830847296,-1.96162005589799,-1.97166016657752
