MZ1808/GSE303426/exprs_SHR.csv
"","SHR_Joint_5d_A","SHR_Joint_5d_B","SHR_Joint_5d_C","SHR_Joint_3m_A","SHR_Joint_3m_B","SHR_Joint_3m_C"
"A2m",6.44411108850522,6.24841822003607,7.71705401652787,6.52083480629512,5.48931964740156,4.63428786459111
"Acaa1a",8.26834701532574,8.27608429699271,8.02031552862121,8.28286902112233,8.15401697569415,8.47034312594625
"Acadm",8.80969858076624,8.92619752551192,8.69681062345687,9.07019208407941,8.88013774907139,9.14630234625761
"Acly",12.1152777530181,12.1163170058715,12.1091107562845,11.8644488799045,12.0288734392731,11.9533477827492
"Acp1",9.76907276627052,9.84549435591264,9.9209355525656,9.81830417867166,9.68815696169954,9.63957857871158
"Acp2",10.7857747249568,10.7899995756213,10.5927339969646,10.9551305831881,10.9491228410855,11.1472798654612
"Ada",7.37227442202022,7.49088741250505,7.44592204089229,7.94159532234556,7.24862543994598,7.58076925751611
"Adcyap1",0.167339519873891,0.194555133282913,0.167432012783492,0.138269648920209,0.231761177810101,0.198530727160066
"Adcyap1r1",0.495363000621697,0.494865157160769,0.486085842486987,0.577432319937555,0.499033747194561,0.547261269970304
"Add1",12.4817938774303,12.508681552995,12.5244662400761,12.4392579947454,12.5517657379008,12.4662833414596
"Add2",0.541901762260856,0.541400091067016,0.597455623212289,0.597809465809322,0.576673865388336,0.531436969050477
"Adh1",1.07220918810512,0.980816980190892,0.880204617667305,0.98098988408622,1.01672056477525,1.14516369091144
"Adra1b",5.8336425067802,5.97219215752233,5.27708158799817,5.23890393318599,5.33922448048365,5.91489995098792
"Adra2b",-1.5015355191017,-1.50171355443984,-1.49019652658685,-1.48012836345281,-1.47896013756037,-1.4909722606905
"Adrb2",7.21346088184551,7.25550273386759,7.1304309028276,6.61087272428483,7.50877410468164,7.16387431951219
"Agt",4.06006946867343,3.89068074377252,3.15824389108118,3.99946096420459,3.99610426114789,4.81491382781804
"Agtr1a",7.03164997292499,6.99383827654589,6.45185762043243,7.32027181009078,6.64773340395438,7.54488911132559
"Agtr2",7.96880463611983,7.90507552486631,7.24090960365496,4.51374731069944,4.53933523199846,5.22257174818706
"Ak1",10.2194596243918,10.2414003557033,10.3214930913179,10.6441399685902,10.4579169287798,10.4599653474147
"Ak2",10.7745518358506,10.894541383236,11.1110800121038,10.7632400992695,10.6009913736008,10.4055823338746
"Akt1",12.937538722634,12.9849034547002,12.9899148389632,12.8749354143049,12.8747321102779,12.8461400119953
"Aldh1a1",-1.97333668440903,-1.9734344760679,-1.97003718941681,-1.97329336414833,-1.96093642705733,-1.97046328642448
"Aldoa",14.383476396717,14.4340517915306,14.2525694520959,14.705141421825,14.550696528289,14.7841136170849
"Aldoc",8.59478177230262,8.63938438290801,7.49901375907727,8.46900814263542,7.8024922282428,9.25381950396716
"Akr1b1",11.4950800023111,11.5839944772075,11.4474760564524,11.7035888740897,11.5851304035531,11.7364208221283
"Apc",10.3720974871607,10.2199166707703,10.3312761366785,10.040586959206,10.3724839567517,10.1712664002659
"Apeh",9.62581201311078,9.7189155292622,9.64631411735421,9.89776893799834,9.73679787707119,9.84333306136704
"Apoc3",2.00852398183519,2.03374933538208,2.05955085015221,2.0626517526857,2.18306678594593,2.08444507777224
"Ar",2.50653433570936,2.47570451925118,2.33495591709051,2.6421824460294,2.48566943525089,2.72008945102991
"Ascl2",2.00230496465848,2.07980890319602,1.98940040674175,2.10788751528835,2.0971480663016,2.15417431798047
"Asgr1",2.74372062376207,2.67435975813246,2.46913659174227,3.0719973428553,2.85630522685783,3.20405488406155
"Atp1a1",13.2292495644146,13.2457686016994,13.5323377299355,13.5971234808567,13.6060036415938,13.3067349143468
"Atp1a2",-0.0122859877404492,0.0149485519020112,0.0210514182369398,-0.0413800961443191,-0.00876725768294715,-0.0447938130697919
"Atp1a3",-0.221195771540018,-0.221240552381931,-0.173396722654266,-0.221175743719777,-0.220865035334131,-0.268841828833663
"Atp1b2",3.66630815764557,3.68040217935968,3.52876436021489,3.41881741595137,3.43553107689887,3.57176505471287
"Atp7b",4.30605133606063,4.30141236301257,4.35846697369244,4.43265053445712,4.29080640496952,4.30699334555749
"Avp",0,0,0,0,0,0
"B2m",12.7286983381733,12.761441662219,12.5257643487058,13.0558869157104,12.8936365895657,13.1940674041283
"Bcl2",5.27345824263042,5.23698719886305,5.45869553841894,5.2483370445596,5.58854622184575,5.21496881553047
"Bdnf",8.11997130909338,7.99466531212182,7.96265954879329,8.06090397870624,9.00391569682959,8.62706859958222
"Tspo",10.0062346408247,10.0017293323058,9.686148269331,10.4497359365439,9.84987650646289,10.4676399387376
"C2",8.10006245324147,8.12835157073711,7.51695349107052,9.26335989245095,7.74211413889432,9.0999905365914
"C3",9.44916383731021,9.61104888781659,9.0397300768753,11.4838856332785,9.56775891207971,11.0161985583672
"C4a",5.47670478530734,5.76906113055522,5.13979193382136,5.95046882553257,4.83308037964606,5.87486562669923
"C4bpa",1.44479716103719,1.49674180781957,1.44667723634918,1.57365836069685,1.45188183632643,1.53686234659084
"C4bpb",-0.278854355690615,-0.335971938693526,-0.366744111416244,-0.335912101296392,-0.335625187184317,-0.276437680016182
"C6",3.06774293780929,2.85835261027125,3.19020747008275,4.09809646574141,3.18975478444813,3.41676592905229
"Cacna1c",8.1239905671651,8.02498204070624,8.24119738595325,7.63084177747197,8.0208433463022,7.6591314798695
"Cad",10.4648321861039,10.5227175182786,11.0103808334919,10.4743100652469,10.7839777243057,10.1125379134756
"Calm1",13.1387806947796,13.1402518024228,13.1662284331673,13.1141142880973,13.3029068972877,13.1817984081264
"Calm3",9.68881992394875,9.63018915066563,9.56562986355598,9.87000635118104,9.57829233536718,9.81802401702532
"Camk2b",4.72098291028452,4.69674069313979,4.8740554188144,4.93304075130006,4.92349063351793,4.76307207530676
"Camk2d",11.1348584000651,11.0959536546953,11.0722342526864,11.2807749702189,11.4311027518187,11.3991106357126
"Cat",10.9123458421524,10.9134770484122,10.8801997862126,10.8333155089293,10.6505446410401,10.7746417340544
"S100g",0.581149989701481,0.549260664144986,0.627500622199449,0.581397333116195,0.797274278180982,0.627040510372372
"Cbs",1.52457408632164,1.63963899093897,1.62624942279453,1.81474558033666,1.65449418948372,1.69047700074596
"Cd53",0.858422453490544,0.887103849036257,0.877290355968332,0.916269621963893,0.891458843262263,0.899337027908146
"Cebpa",7.62035092817952,7.74388539649543,7.79518758995155,7.17087305360043,7.26725545645645,7.10599482741437
"Cebpb",11.3826712608555,11.5278315143684,10.7275026820099,12.0885971104119,11.6592885747923,12.6016915482042
"Cel",2.13731956420593,2.02571406224905,2.15856128504344,2.11175730874894,2.28396941789182,2.12081889150443
"Cftr",0.574860074249793,0.574330458035956,0.663573272508731,0.575096830634525,0.544725987470062,0.470933402686437
"Chgb",-0.653522391206599,-0.624934879688311,-0.623138108458712,-0.624270453531413,-0.590152082624384,-0.623301795066641
"Chrm3",-1.96248844200724,-1.97305182812556,-1.97001392749359,-1.97292564389865,-1.97235183959823,-1.97039494932125
"Chrnb1",4.2908184354293,4.26329798572784,4.52630668167071,4.79719749344189,4.52227586726195,4.41048820925978
"Ckb",10.3047531508401,10.248820069515,9.74357674170541,10.1478979223741,10.4878419662915,10.8510798128049
"Ckm",0,0,0,0,0,0
"Comt",10.8122453478109,10.847110807655,10.5437105557729,11.1602163049406,10.8706814998962,11.3014164243785
"Cp",8.79398450803581,8.74047918350523,8.40786405422217,10.1047769712055,9.50408875993426,10.1638006571182
"Cpa1",2.43606663112045,2.56933916353208,2.87772575636709,2.35897678423899,2.36209731672798,1.98551419144266
"Cpb1",-1.97333668440903,-1.9734344760679,-1.97003718941681,-1.97329336414833,-1.96093642705733,-1.97046328642448
"Ctrb1",3.56755433516103,3.56352979054344,3.67912961398455,3.67223684025124,3.64251530403236,3.54378852100948
"Cyp11b2",0.680203309311779,0.711003989694769,0.764767860629873,0.742189037330318,0.924692551120261,0.76427658309869
"Cyp1a1",1.44514058725698,1.54132622204074,1.66564321261447,1.44522279330174,1.44649480780249,1.27344899258651
"Cyp21a1",-0.612719235218169,-0.584098536051325,-0.573330520675067,-0.583432380930097,-0.580243726779169,-0.606916418814313
"Cyp2a3",-1.97291433037752,-1.96269081076754,-1.97001073072517,-1.97287620796964,-1.97231151589909,-1.97038570178172
"Cyp2b1",0,0,0,0,0,0
"Cyp4b1",3.95897827906509,4.01883042749298,4.05910782998527,4.73076916780583,5.13457035983891,4.86246628711614
"Dbp",8.02693059277571,8.21966991070138,7.81495502293632,9.41648916888442,8.24990638616809,9.14154300632848
"Ace",3.68364183910919,3.67902982404188,3.46384914899741,3.59576141724657,3.80389063685947,3.91731270963115
"Ddc",3.22302543392969,3.41730913022297,3.38597654651848,2.86450855631908,2.86801056700223,2.80045029721851
"Dhfr",8.01675737339514,8.03714972247805,8.30182263068186,8.38177705124063,7.97105406666609,7.9015464762081
"Nqo1",9.53520803056009,9.55747773549125,10.1711789844571,10.0817028906135,9.99925506218082,9.41564287496572
"Drd1",2.48253302996614,2.36024413210916,2.58164385984715,3.00326661383543,2.4720770203454,2.57741653828091
"Edn1",9.33966663336978,9.3380642677306,9.2560973050436,9.3031047920237,10.1641293228685,9.8163852029527
"Ednra",8.35610065893816,8.22274009561586,7.9052882442002,8.29621917865377,7.83894626965984,8.45171485723362
"Egfr",9.14761765482915,9.05744593891556,9.52218740066695,9.25941722555164,8.9787990954971,8.69945255672978
"Egr1",11.7136189578048,11.4968717556345,11.5476755124604,11.2899957509323,11.5581293812855,11.4816324103681
"Cela1",0,0,0,0,0,0
"Eno1",14.5833332649709,14.640998135595,14.6885254001976,14.8305034157625,14.7709515145575,14.7243677652453
"Eno2",8.49734782422227,9.12076337052268,8.87078324591691,9.77484513453765,9.59792611538388,9.62465797641633
"Epor",2.14115963566801,2.06250587059933,2.13952990036255,2.09124604286545,2.13150542526558,2.07367858683664
"Erbb2",9.51082326753301,9.48440511739375,9.48957436450432,8.97200171498812,9.26580366873295,9.1269425198196
"Ephb1",-1.48522813904041,-1.48542234947634,-1.46122594464708,-1.48514210668537,-1.48386774361675,-1.50860422476235
"Ces1c",-1.96896873395618,-1.96906370753062,-1.97429755893791,-1.96892666206527,-1.96830346787297,-1.96333372677461
"Ets1",10.1165026383618,10.0372777200461,9.75528560248545,10.0125499077609,10.1593790522429,10.4075690567204
"Fancc",6.42301470029216,6.27024686434963,6.40745687579431,6.12141650684362,6.09034623397086,6.04505527693382
"Fbp1",3.14431835406879,3.07089557723489,3.02121345848856,3.16834594242239,2.95047058433335,3.14580177054115
"Fgb",0,0,0,0,0,0
"Fgg",0.227478328860927,0.198237575436963,0.27670530737045,0.256054549158519,0.231069642032867,0.179714740374188
"Fh",9.82881075391479,9.85660645928391,10.0226556632204,9.96092909239447,9.92033754280584,9.7606862609791
"Foxg1",-1.48546768075323,-1.48564944015506,-1.50655314061549,-1.48538716402243,-1.48419450170254,-1.46379625270114
"Fst",11.3674565050587,11.4478944861382,11.1079027303179,10.6840505684263,10.199519746316,10.7415579226517
"Fuca1",11.0657394886052,11.057368871407,10.7824579447779,11.304977711478,11.290248101203,11.5767091415687
"G6pd",11.6963856896656,11.7095894581807,11.7228708472886,11.894269028597,11.9513912112763,11.9029468465712
"Ganc",7.60789054101063,7.59501340855014,7.47710548561896,7.6737825852182,7.56370202663878,7.74308879508991
"Gapdh",15.9350130616342,15.9502109279725,16.1096888588986,16.3407022029568,16.1458099354352,16.0761792051008
"Gc",-1.96248844200724,-1.97305182812556,-1.97001392749359,-1.97292564389865,-1.97235183959823,-1.97039494932125
"Gfap",5.56945309108183,5.34435602225843,4.81148215567509,4.81412158283971,4.67254013266092,5.38875325874536
"Gfi1",-0.232947282436621,-0.232991485463249,-0.245381760867895,-0.232927512880559,-0.232620798635118,-0.220361778839879
"B4galt1",10.4612714956819,10.4026750791309,10.3008308119299,10.5852363087077,10.730527863233,10.7890245614468
"Gja1",13.7250004279949,13.748322800342,13.6758676335284,13.5560295549649,13.1392401661431,13.408428841194
"Gls",11.8131515016008,11.7505678894472,11.7724372901202,11.6783233081609,12.2870232403076,11.992095679638
"Glud1",11.9864150549922,11.9890106541275,12.0350047689323,12.1641806115426,12.0216633355567,12.0456300591772
"Gnb1",13.2320046979409,13.2303482413187,13.1846454173092,13.07010157959,13.2885817700477,13.2258727271394
"Got1",9.31478485624843,9.42449554808733,9.54723363122221,9.44661541886398,9.75698837431972,9.42420846753753
"Gpx1",10.8938015149759,11.0100174289211,11.0685990203504,11.391769331777,11.1922754317063,11.1753328333398
"Grik4",0.743122582568338,0.71446191459751,0.709477048331157,0.743528149277567,0.686466757042919,0.73431265341201
"Grik5",8.70942914452904,8.88610681795647,8.29178005731874,8.19985556697286,8.49229053117942,8.85206097300016
"Grin1",1.30462283321973,1.33059112273755,1.28646946798484,1.30504666558012,1.31160185738784,1.33946177147778
"Grin2a",-1.97298679320815,-1.97307486185689,-1.97001535301733,-1.96239732658225,-1.97236989439864,-1.97039908500564
"Grin2b",-1.97333668440903,-1.9734344760679,-1.97003718941681,-1.97329336414833,-1.96093642705733,-1.97046328642448
"Grin2c",2.05952707686208,2.00291623672299,2.19041957203609,1.94562477851687,2.04590956556869,1.83656925679923
"Grin2d",7.56614814853946,7.48408803246322,7.7225193355521,7.74301233430614,7.72393181374738,7.536070828976
"Nr3c1",10.6887580474815,10.5950745522694,10.4661019991912,10.4516353594385,10.8201552712661,10.8117096160366
"Grm1",0,0,0,0,0,0
"Grm2",0,0,0,0,0,0
"Grm4",-0.0369632639002452,-0.0654264652864333,-0.0957558749770222,-0.0647413454876102,-0.0935850263436455,-0.0346021755319449
"Gspt1",11.3816851268908,11.3360371917456,11.6805448728838,11.353696696838,11.4852870832963,11.0978081765015
"Gstm1",8.82107060200761,8.78118392940718,8.52822275582556,8.80108911451401,8.50968398882127,8.92829106154948
"Gstm2",10.7920158214777,10.8763146041303,10.745602696862,10.6131566080358,10.7121584311579,10.7512200355388
"Gstp1",11.7034317691032,11.733902711506,11.9217035580334,11.5167025793491,11.9031256964327,11.5068778201621
"Gusb",9.94441295674926,9.96430215642771,9.72915668352153,9.98343591853888,9.77081896685911,10.1023283157659
"H1f0",11.6868419887314,11.6391980781738,11.5815396969076,11.5838947915243,11.6084852439256,11.67767035427
"Hist1h1t",0.17333434457893,0.172851214194391,0.15060140867797,0.201777162542614,0.17689674950723,0.211828326733612
"Hagh",7.46024822240703,7.52734179178595,7.29918127172343,7.75495277354291,7.64915245019373,7.89666634724138
"Hdc",3.18658079691778,3.29449315949314,3.18366993766325,3.14703566264487,3.02867545269902,3.14472259821416
"Hgf",2.44617823264716,2.46732972137649,2.52732722009651,2.56294430150615,2.4931885633127,2.45749318932474
"Hrh1",0,0,0,0,0,0
"Hmgcs2",-1.01992621671884,-1.04764564141647,-1.05371279839331,-1.07542685265341,-1.07395317842687,-1.05476314621448
"Hmox1",11.2018586747135,11.2902085419326,11.2290121856666,12.0278234756975,11.7245356598828,11.8932009904466
"Hoxb8",0,0,0,0,0,0
"Hoxc4",7.37409787721059,7.4861070147449,7.21920056119857,7.62468937017991,7.49092899847455,7.7687110691064
"Hoxc8",6.19253791760159,6.49251963328178,6.44535702525184,7.45422448724681,7.14393128128562,7.19624963445606
"Hp",8.10836636097421,8.14563195894678,7.18879179190914,9.42386898173962,7.83830449375023,9.56929410579628
"Hspa8",14.5248316765474,14.5503405936136,14.6563733324066,14.6099753619489,14.5609858589009,14.4666934130988
"Hspb1",11.6996318330287,11.7381869978576,11.5971880127182,12.0671210137071,12.0666299247024,12.1885968719296
"Hspa1a",3.56641208526373,3.7048187887241,3.89160562184944,3.210743649843,3.88727729199857,3.29302028606526
"Ibsp",1.68274334691972,1.68212012408543,1.59660359024373,1.7130059286958,1.72016823467891,1.8024152269462
"Idh1",10.7924898471794,10.720580960398,10.622236202419,10.4844981654153,10.7427958203107,10.7479461942327
"Igf1",9.80180244468187,9.77912892483633,8.81447363317774,8.68798551938465,7.23805056941418,8.93901009598078
"Igf2",13.3023656681576,13.1421759618528,14.8146804274781,10.9220294948265,10.5197794095406,9.12849483971069
"Igfbp3",11.0264903650242,11.0750919741945,10.3275634602064,9.86554794725033,8.4239717878884,9.86798757697231
"Il1a",3.57115422634467,3.56752782040037,3.80475847560935,4.17973719932719,4.42739382456872,4.06814805971112
"Il1b",2.1974588701902,2.1685986885566,2.14897425923054,2.30333659407316,2.31996068814981,2.34570316125434
"Il6",7.55378812016838,7.50021780681114,6.76595833695016,9.83404227587539,9.05185267685739,10.203992102906
"Il6r",6.21847055997455,6.26256670363932,6.12500565926351,6.43504406565447,5.98149492451652,6.32378246762892
"Il9r",0,0,0,0,0,0
"Ina",4.62442074523041,4.56291422373643,4.47818612625569,4.55238721951745,4.21061297338486,4.49698145467888
"Inha",5.79185357132303,5.86000546701331,5.80540522436082,5.73982905427974,5.93977249780659,5.86032507085052
"Irf1",8.01286552828172,8.08597006515942,7.81373774300004,8.13790069159225,7.79336650203237,8.20131365053284
"Itgb1",15.011699092546,14.9763668563095,15.0897823138972,14.9404472466462,15.3907638732084,15.0698562204578
"Ivd",9.85689351061028,9.93023196371831,9.6315502642804,10.1072557846771,9.89975616651792,10.2655184484814
"Jak2",9.92417993274146,9.90575881218511,9.57060263677907,10.3220795683546,9.99591782806803,10.5033654338955
"Jun",9.80787119082646,9.78065630230111,10.0664644670071,9.92488505007147,10.1659511753738,9.77321739227938
"Junb",11.5363810020194,11.5043782360167,10.8998532047349,11.7566636606791,11.8241244251334,12.4109204571894
"Jund",10.9822150725438,11.0616962829136,10.9020948970247,11.1108849309823,11.1672214581842,11.2589139752873
"Zfp354a",6.99423641629339,7.00847929235866,6.84666386025957,6.815891575661,6.89943322442168,7.0123563941078
"Kras",9.88640888198175,9.89984105836498,10.2010495981419,9.67482893913958,9.93357987362789,9.49627977841519
"Lcat",6.81441883436928,6.85585438406348,7.26899780561547,7.0087431116595,7.37629438643955,6.75865755265044
"Ldha",13.8284951879248,13.9045020830734,13.8074933366503,14.1471066015746,13.9756209782751,14.1203690887736
"Ldhb",7.57510626278568,7.76443482103483,7.3857078958361,7.92382142561709,7.67170273833019,8.0818247280478
"Lepr",4.80876903977801,4.66929437357402,4.7079080860872,4.81268213462746,5.34574369805375,5.11033653692941
"Lpl",6.47362485621721,6.43683387977034,6.41412101008999,7.06206359783116,5.8596829935865,6.50198165361261
"Slco2a1",10.9145170014013,10.9116705591284,11.3083855553476,10.962134123922,10.7028448540506,10.4371977139036
"Mbp",3.12676857145587,3.18021257626868,2.91618627501429,3.12773098175214,3.14253187662434,3.37243572803622
"Mdh1",11.0618979664647,11.1190028157466,11.0791889478054,11.0473122690388,11.0085310157248,11.0391830856821
"Me1",10.9097845912572,10.9265054274883,10.9562476511889,10.6306191357209,10.6200178832736,10.5872158676811
"Met",8.87544684870655,8.77616846936233,8.92963717912749,8.48679477312169,8.86488184425878,8.57200878859719
"Mog",3.70028030116208,3.51127249807545,3.65051988659308,3.78314564100769,3.60036309310264,3.64701088008085
"Mos",-0.271928051528007,-0.272396419887761,-0.246319215445217,-0.271718637229155,-0.300700786969516,-0.312052732362003
"Cd200",9.42280216815021,9.42450513420918,8.26330482760216,9.82477658450758,9.52262252117696,10.8340483764198
"Mpg",6.68486200014134,6.8470999951715,6.61930797821534,6.82970171036486,6.83029199316586,6.97666987120645
"Mpz",0.716661975317593,0.716117763178057,0.820524755296646,0.716905246708465,0.686246264919274,0.597440869765049
"Abcc1",9.70246887163254,9.60654331145084,9.7613266767981,9.73318231791737,10.0573166638157,9.78842890561013
"Mst1",-0.180868134208619,-0.211308352916307,-0.167804773065474,-0.0686495038946501,-0.21088281141277,-0.168049628150699
"Mt1",10.4561732695947,10.5704039582633,9.06934575431812,12.179505907523,10.3732974101126,12.7203445184287
"Muc1",4.32974025469257,4.57832582301845,4.59293383889802,4.46851048674974,4.68630281832063,4.43850585249268
"Muc2",-1.00611399373315,-1.03450741645945,-1.03436073032094,-1.00591674650837,-1.03337104783502,-1.00559387194705
"Mx1",0.0748721351677189,0.179133183833792,0.103335454976273,0.045919073106164,0.0462983740648672,0.0697759281099984
"Myc",11.1946467667103,11.2505643505879,11.2125576997087,10.6624585340647,10.8901674799342,10.7863608659399
"Myh11",9.25618115386036,9.18704020442083,8.40022463009094,9.08297937405972,8.61983129604254,9.67279138410079
"Myh3",1.45312910891421,1.42482207963389,1.41602377167564,1.39777081880453,1.36931621320932,1.40649533860534
"Mylpf",1.99020588234985,1.98877791552351,1.90288168352316,1.99084386095743,1.93755148033356,2.05080788605902
"Myl3",-0.232947282436621,-0.232991485463249,-0.245381760867895,-0.232927512880559,-0.232620798635118,-0.220361778839879
"Ncam1",12.4195200866315,12.4272183577942,12.6952833183863,12.1343179417749,12.98923611016,12.289862929794
"Nefh",7.1707154257175,7.246532264792,7.70656760396161,8.60892821535268,7.50064068927614,7.55684069360756
"Nefm",-1.96896873395618,-1.96906370753062,-1.97429755893791,-1.96892666206527,-1.96830346787297,-1.96333372677461
"Mme",9.88546030256648,9.84900241044254,9.9983372836507,9.99227112142702,9.73191126908588,9.73098526811026
"Neu1",8.70506764339477,8.75385638221391,8.20087391668279,8.60073260735345,8.74891108373098,9.20340994166377
"Nf1",9.02603889712248,8.76377135870226,8.99963535447065,8.68292383310679,8.93025362939215,8.70185850469119
"Ngfr",1.58591358930752,1.61590048712023,1.64187659239982,1.75553318962256,1.58715930969756,1.63037669547412
"Nos1",-1.00654162873329,-1.00656863552701,-0.974642971649698,-0.976871815916334,-0.974072360332657,-1.00738424860495
"Nos2",3.17485651169458,3.1734601617074,2.48014909857597,3.72579905687598,3.34709996089983,4.23045874701293
"Nos3",1.25259427809274,1.22377576804298,1.26577260913375,1.22456551351445,1.28963705480724,1.22951369809496
"Nppa",-0.659288760138295,-0.630740641824023,-0.6209995646639,-0.601917438271578,-0.659042280128686,-0.654494995517391
"Npr1",4.07466511894819,4.11820299512263,4.3240765116311,4.48301817652254,4.24676814396422,4.1372507056477
"Npy",2.77331014192832,2.84251842415498,2.92884384922133,2.99684293631679,2.79218752454078,2.77358566424911
"Nras",11.2028992994121,11.1549174747383,11.2224328941635,11.2644529096965,11.2792551889913,11.2283295422555
"Odc1",11.8632152726446,11.8791441606299,12.3082814038054,12.0314997175299,12.2325864372571,11.6949413902253
"Odf1",-1.02557161544573,-1.02601657225605,-1.03166597922522,-1.05419669639584,-1.02305672429747,-1.03275482497232
"Gnal",0.35297025977549,0.323818880906083,0.368301153107297,0.435091076496254,0.356594068715666,0.36593598983945
"Omp",-1.96248844200724,-1.97305182812556,-1.97001392749359,-1.97292564389865,-1.97235183959823,-1.97039494932125
"Oprd1",-1.97291433037752,-1.96269081076754,-1.97001073072517,-1.97287620796964,-1.97231151589909,-1.97038570178172
"Orm1",6.48294828059453,6.66552340686147,5.47188167981161,9.05315655012384,6.60478496964786,8.93132492380224
"S100a4",13.1228937285764,13.2090317286342,12.9292981223412,13.4895373483576,13.2749969252985,13.6189317430922
"Serpine1",16.3974983096964,16.349306779783,16.1215600274562,16.9721918180241,17.4808118752145,17.4783443639028
"Pccb",9.87117808335153,9.96530186688135,9.71461338581605,9.86138907028564,9.67191726028423,9.97027975458533
"Pde4b",9.27415509223807,9.15362387909402,8.65811785105481,10.350804536841,9.74133844878856,10.601843127426
"Pde4d",8.89578182474527,8.8131810755127,8.78265948075392,8.80167070642362,8.47200148586298,8.70865806551837
"Pdgfb",2.76261052245776,2.83007186843233,3.24256807107326,2.64525647989051,2.69424335323471,2.22352304093439
"Pdgfrb",13.0780706587899,13.103715809152,12.6618969581336,13.5622886740551,14.146969256118,14.283625240924
"Rhox5",-0.00176849341230032,-0.0303384135144275,-0.00475327127842066,-0.0589392795705428,0.00466690258078743,-0.0384363706798209
"Pfkfb1",5.32792310835003,5.59849517221504,5.99250147852672,5.78440066180676,5.37034817859896,5.04808208195867
"Pfkfb2",8.52018209831204,8.45906208794705,8.45738404879943,8.39990840057933,8.63693651281636,8.55066050102797
"Pgam1",13.3960105865337,13.4823176256976,13.5161604416792,13.5161350518842,13.5134783059635,13.4378103433603
"Pgk1",13.1112054875724,13.1715527676692,13.1206790782413,13.4596027546842,13.1741900305579,13.3375964420006
"Pgm1",10.2402224808077,10.2702173500473,10.1838860859833,10.5088520745432,10.3982715822461,10.5248956578389
"Abcb1b",11.4262722350973,11.4062063145049,11.0527025553857,11.6635181131792,11.336826856846,11.863709204428
"Serpina1",1.29456913513978,1.2944427294683,1.30917548388345,1.38005870516195,1.35909238690968,1.3549059944564
"Pim1",6.46405933669577,6.45344890311409,6.56567912480848,6.70241648457018,6.31554579994563,6.40205613735436
"Pkd1",11.6720499484884,11.6254063552974,11.8774100915086,11.4391051399167,11.9410496904174,11.4613954755514
"Pla2g4a",9.45983122175365,9.3834302211506,9.34072855405816,9.61828522181618,9.15499642467336,9.46754299063874
"Plcb1",6.39041005623117,6.19408576537685,6.65833585904114,6.02857278519275,5.46379542091278,5.38009615481564
"Plcd1",10.6707186805622,10.6894069615377,10.8707190243812,10.6178207838168,10.6491713693872,10.4428398732708
"Prl6a1",-1.49347066890491,-1.49364610676482,-1.49805994546045,-1.47237583676039,-1.49224177067079,-1.47780724609001
"Pmp22",12.216316027089,12.2067639303961,12.151452893607,12.5504280080084,12.4720174265109,12.5713098023952
"Pnmt",-0.0342625785515603,-0.005588786269007,0.0358345150408015,0.0234236941711204,-0.0338827347960818,-0.0609897177635658
"Pomc",3.6745731158161,3.64834203162113,3.49574750173701,3.79883193406215,3.79545770931536,3.96285489367036
"Ppm1a",9.97492998429202,9.95856015218891,10.0552277311101,10.0444386669181,10.0801947820166,9.97383406159777
"Ppm1b",9.81714156117583,9.7347465268475,9.8505596006867,9.85742505356147,9.84398388501156,9.77608891261148
"Ppp1ca",12.3362570657222,12.3680076896344,12.5262488764382,12.3780235005908,12.350508336358,12.1901494197145
"Ppp1cc",11.7159090074358,11.7578532170408,11.8842632403806,11.845331415588,11.7774727553362,11.6640199573198
"Ppp2ca",11.4184510775783,11.3943863068542,11.56018894927,11.1702665139403,11.4070908049846,11.1349084024087
"Ppp2cb",11.1586166077351,11.1452059706198,11.300548367601,11.1279357405657,11.1525870648521,10.9916243242854
"Ppp3ca",10.4016888407598,10.3601897890384,9.92368706090117,10.0103984509405,10.0094710781377,10.467187018537
"Ppp3cb",9.82219758929845,9.7337808743172,9.85114696291946,9.50363815155721,9.83446819595072,9.59589544264234
"Pkib",-1.97298679320815,-1.97307486185689,-1.97001535301733,-1.96239732658225,-1.97236989439864,-1.97039908500564
"Prkar2b",8.54327809754301,8.47671375360366,8.37561703518638,8.38913805883866,8.41386888207406,8.53588236084331
"Prkca",10.0466142610581,9.97681709602147,10.1424625822143,9.87254185862557,10.0641933929679,9.8376207221222
"Prkcg",4.35966187716164,4.28681464346166,4.43742852232169,4.44635898478756,4.67585818311571,4.44691832194159
"Prlr",-0.532271940830165,-0.561479799629877,-0.536885048107866,-0.56142835579825,-0.561181694862238,-0.571295847452399
"Prnp",12.6917322676454,12.7444519373223,12.7516672837959,13.1348172099112,12.9949254564411,13.0312961518641
"Prph",2.58991015006762,2.76637341672712,2.6584268886283,2.74770023434192,2.59839792374263,2.69276397381134
"Prps2",9.97399580084643,9.99154585199363,9.53876185300041,11.0298553023335,10.7292908583083,11.3235820537405
"Ptgs1",9.22648099414325,9.27784601717759,9.64911486980906,10.0341433943544,10.819979660284,10.0301101631706
"Pthlh",-1.49385937982704,-1.49404994876211,-1.47601468071271,-1.49377496060311,-1.469694702948,-1.49967481535743
"Ptpn1",10.0740712255264,10.0122882146744,9.85074003244898,10.374394671705,10.2778120874393,10.5185430672235
"Ptprc",0.170541396194855,0.170475517634594,0.0969821215544666,0.170570854587286,0.171027457887905,0.244325491597854
"Pygm",4.27434130605653,4.14376935457331,4.1165569129632,3.7617757639062,3.88765210502025,3.91721235181495
"Raf1",11.3719675801743,11.3785214981751,11.3188610047481,11.290509764228,11.3011353621128,11.3522060975969
"Rara",10.2805422106027,10.3684571511405,10.4948731998262,10.0541881762321,10.3009058587465,10.0071734985347
"Rarb",4.9021716809232,5.1303321032553,5.0971661904684,4.81067198075617,4.97831199607567,4.81357769003677
"Rb1",8.45832512074071,8.42126504760008,8.28102706672777,8.4575035842954,8.63767101488643,8.70635531703355
"Rbp2",1.56214235188129,1.50742144856728,1.58397956332428,1.58862795125115,1.54557520471904,1.5179039148851
"Ret",6.28410371846581,6.20306587391327,4.48147593608195,6.69156779353888,5.58443415674613,7.90010983525009
"Rho",0.671681729001419,0.594702536137158,0.580905725102289,0.511923914299857,0.544572832728562,0.580534780981209
"Reln",4.21282592020313,4.05805805093011,4.32897719690516,4.15290576493423,4.1281855758151,3.94701045903612
"RT1-M3-1",7.53482778081576,7.63249019280823,6.9626245307205,7.60658566114256,7.33637490527629,8.09251473930092
"RT1-N3",7.65013713420927,7.73437373272017,7.84858833811211,7.95015357763177,7.77975632522523,7.70862204678111
"RT1-O1",0.588507550179214,0.615669180342321,0.631036520188359,0.695999568890419,0.623199839914414,0.630651549474825
"Acsm3",-1.5015355191017,-1.50171355443984,-1.49019652658685,-1.48012836345281,-1.47896013756037,-1.4909722606905
"Scg2",0.350538256187956,0.37915859054284,0.342814805775604,0.408171782848297,0.414328609801399,0.433283813914642
"Scn2a",6.02877764459136,5.80660851619164,6.14937339049223,5.90900151382884,5.98269392084254,5.71416740723496
"Sct",1.05038311321601,1.13905575882368,1.18924752848307,1.08176967834026,1.05127936633365,0.971996429873728
"Ccl2",10.6574111488639,10.6095293374117,9.53832443614885,13.0074043246461,11.467326144607,13.3325110416155
"Sdc4",12.2949885192741,12.3134775312668,12.3074036266489,12.7335800564914,12.3830630955804,12.5551509746575
"Cxcl12",13.3799062550692,13.3633582728293,12.8360728754811,14.1175308185945,14.0756357665044,14.6321426810176
"Shbg",3.21186872256267,3.18525258016937,3.27891022731815,3.38159450912895,3.3091173025738,3.26500632989925
"Slc2a1",10.9162219547251,10.9307861039159,10.9601596881553,11.3870190502769,11.1867457739432,11.2502267532752
"Slc4a2",11.5022284678159,11.5478816828464,11.4041122720075,11.6387557770568,11.7308052792876,11.8057233314959
"Slc4a3",8.72949569012015,8.64039912848933,8.91878737301876,8.63655653431954,9.00359711044568,8.58623685866859
"Slc9a1",10.0685496191855,10.1231644114471,10.2480782064971,10.2675880655015,10.3203668696789,10.1417562764094
"Slc9a3",-1.49363219441718,-1.49381391896466,-1.47661567559035,-1.47178144437066,-1.49235925951245,-1.49917773304212
"Slc9a4",0.0243721120525506,-0.00672082954425436,0.0835817731823595,-0.00663597052593818,-0.00622951813363847,-0.0811888762579997
"Sod1",10.9318206566788,10.9427891976014,10.9375870037873,11.3345261968135,11.062661559023,11.1983118012711
"Sod2",12.5934446460044,12.5749879695437,11.4686359755391,13.6671930175394,12.5788938665737,14.2386237742915
"Sord",9.61309880620455,9.67766824199802,9.59772142761078,10.2920281753894,9.37511268408088,9.88123252622563
"Sp1",10.470853499253,10.3371571186517,10.4970374263515,10.1901789344102,10.3831924543485,10.1936535769803
"Sparc",17.3460168397514,17.4014735471858,17.2361235742302,17.3190718337795,17.5576575829319,17.5759863275941
"Serpina3n",5.34289747386623,5.21156086009405,3.91580198984489,5.80386908545651,5.43091917528222,6.97882130750462
"Spn",6.08126770501153,6.08546047324464,6.00312305408432,5.98731209847434,5.56704263758246,5.85741840307216
"Eef1a2",3.91143209480635,3.97226257178033,3.98652283331306,4.09796321332611,4.31229084303151,4.16045152815909
"Sts",8.52010748833272,8.56543429667634,7.90291039054699,9.17693567941975,8.80484860196244,9.63075264264863
"Vamp2",10.4655660742383,10.5278944582076,10.461706423088,10.3383286106201,10.4629378244067,10.4356570606484
"Syp",0.54558782263866,0.60198471884452,0.584482143212216,0.60328770377456,0.578431552289914,0.580163755561611
"Syt2",0,0,0,0,0,0
"Tac1",-1.97291433037752,-1.96269081076754,-1.97001073072517,-1.97287620796964,-1.97231151589909,-1.97038570178172
"Tacr1",3.03705075363873,3.06112299586702,2.89347183345571,3.56698580303729,2.89301768506066,3.38561678534614
"Tacr3",-0.572250701811178,-0.543495862522351,-0.516536107595275,-0.572234877892065,-0.571989370470133,-0.613449298752589
"Tap1",8.50270165457471,8.61653460222694,8.13281721142862,8.73816581330296,8.42614815557038,9.00895790140888
"Tap2",7.76020937680281,7.74054352467402,7.14625571681301,8.31363854968588,7.83369324852495,8.67778663303082
"Tbxa2r",6.76504277481598,6.73680294127082,5.96106803029158,6.06362901895403,5.71802996112209,6.68068431778988
"Hnf1a",-1.96890748399065,-1.96900927764493,-1.96242429084464,-1.96886239090508,-1.9681944449576,-1.97506250790449
"Tcp1",12.0233862837097,11.9845963610352,12.2020145218512,11.9159849655523,11.8583881270856,11.6891633468402
"Tmbim6",12.8643101803412,12.8748389586217,12.71349968616,13.0532741339696,13.0128659995385,13.1891449500755
"Tf",1.78055655585628,1.77956187647665,1.75265960927175,1.83521451970382,1.81799044843772,1.85400209096548
"Tg",5.14163060151994,5.04094772823538,5.16488918976955,5.60588997469624,5.094663402778,5.27667666384524
"Tgfa",8.31220385788662,8.27438151866697,8.58313342039467,8.68031934344656,9.09137083807915,8.59600435864498
"Thrb",8.77375220599223,8.6702791131711,8.57407202009566,8.23397627380452,8.16589121053144,8.34787738165398
"Thy1",12.8625967973519,12.9185389378596,12.9777507814118,12.8176504389439,13.1304369994573,12.8868608053946
"Tk1",10.9398762026625,10.9873803196038,11.6409796764348,11.1627022306672,10.8442829439206,10.3261411719923
"Tnf",0.886138426071011,0.886005755090989,0.69037694432483,0.886197729245958,0.887115175306502,1.0823515985324
"Tnnt2",4.27956262531352,4.33986451757585,4.58079691154913,3.63290595676623,3.7201974858092,3.40546838118327
"Tnnt3",5.51180283505601,5.49038269880871,5.23827223315641,5.45101067834382,5.17514817454088,5.57589996021831
"Tp53",12.1486585083445,12.25094155867,12.0195952386405,12.0735334821889,12.060282411788,12.2471127418552
"Tph1",-0.220397195347234,-0.220442602113054,-0.187149205808566,-0.220376887473376,-0.156494268425867,-0.221706270871199
"Tpi1",12.7993653920527,12.836361445904,12.741399783884,13.2382792233606,12.8365672897699,13.1138868916596
"Tpm1",14.4378854890427,14.4187774800921,14.4967721504089,14.0661360376986,14.2659192457613,14.0975869758885
"Tpm4",13.4385887847016,13.3957139623709,13.2732482138405,13.3818690638901,13.4674534056396,13.5685643944606
"Clu",10.568450960624,10.7369578392012,10.1450157775493,10.6756595636307,10.1605666327105,10.9258017205339
"Tsc2",10.5977693593401,10.6099797886548,10.6479584554235,10.6929817028931,10.7553498647634,10.6800819024022
"Ugt1a1",0,0,0,0,0,0
"Vdr",9.07141671276017,9.07616326201331,9.01286541669238,8.53868982722549,8.35374687010345,8.50714291935884
"Vhl",9.98783592398253,10.0872886399846,9.96325773372822,9.73994051270822,9.84384480493805,9.86619720707846
"Vipr1",-1.01807755848993,-0.989027217612138,-0.986448505171131,-1.01806554148328,-0.985690060836951,-1.01898168404002
"Vsnl1",5.66906694340289,5.69531571224314,6.03930182572458,5.35679414255191,5.73600516480247,5.18928915577563
"Wt1",3.55154155570084,3.64452798244971,4.0772709539054,3.51786574057724,3.367756393911,2.96357488241399
"Yes1",9.80946812055957,9.6538986639836,9.93084491668644,9.53365699673241,9.79377692472177,9.46455543631224
"Tbxas1",-1.06125172361476,-1.00554099270729,-1.06116969667469,-1.06124065176332,-1.0597766402535,-1.03273530749474
"Bax",10.0695931339597,10.1168658616404,10.1566432634023,10.1544473750936,10.0942643348301,10.0609420893596
"Bcl2l1",10.6321139925812,10.6669392900941,11.0607594279334,11.123557803595,10.9845365190133,10.6428143747085
"Esr1",3.39654674290165,3.35778763101665,3.63243546500111,3.55846472159925,4.85750687817081,3.95271752184307
"Abcb4",3.30145202431505,3.24096356611958,3.21408844583642,3.86907647154993,3.53733331322655,3.76032424176913
"Gnas",13.0333058117175,13.1044776821408,13.0204157158917,13.059805963242,13.0705217661328,13.1136398957248
"Kng2",-1.97298679320815,-1.97307486185689,-1.97001535301733,-1.96239732658225,-1.97236989439864,-1.97039908500564
"Dmd",8.48151676814502,8.3563296967516,8.41688968673098,6.9155781833475,7.88741760787637,7.40353144132927
"Dnajb9",9.04439280112267,8.97583855016899,8.98963079899707,8.98390314498059,9.13994211813641,9.08240750820726
"Pla2g16",6.11475512111082,6.06800500882046,6.00028378708962,6.20570376764329,6.40378004285913,6.39583818312723
"Lox",15.633485306816,15.6005302016412,15.3900040521188,15.6170207565435,15.8068988842835,15.9389635225233
"Pdlim4",9.75471793117957,9.83298119987761,9.62758648731935,9.22691836181497,9.77688658051929,9.66816554937638
"Rnf112",0.499395564391285,0.418510598183227,0.395634037644586,0.331693992148054,0.332213491392353,0.395272785412874
"Kpnb1",12.35269837774,12.3323022757352,12.6953504294907,12.3962866606113,12.4582883459531,12.0744374005291
"Stat5a",8.826282162897,8.91964925974873,8.55919047787808,8.6413615177336,8.5619130600591,8.91541252234114
"Yy1",9.69605142584639,9.71566645515196,9.56866756564772,9.50300103794619,9.61663303224278,9.69700840994594
"Gabrb3",0,0,0,0,0,0
"Stx1b",5.10462075575244,5.05162759219847,4.98036570510942,4.45532522659476,4.47486029790091,4.56285123111387
"Ptn",6.97366389632726,6.76659197878211,6.07931550729626,4.49533227270999,4.42074550333515,5.24885131828099
"Adrb1",-1.97298679320815,-1.97307486185689,-1.97001535301733,-1.96239732658225,-1.97236989439864,-1.97039908500564
"Ptger3",2.52283519340341,2.55794577699482,2.82801568690016,2.35031022550952,3.76827799323239,2.77166890766991
"Cd8a",0.818088876276084,0.765321709040386,0.760515953540183,0.711649102400424,0.746164055944696,0.760095918290612
"Cd4",1.30251850072347,1.30234800470838,1.11510284574969,1.30259471196919,1.34172386664906,1.50948969627535
"Cd9",9.90279298724597,9.94662640266841,9.64265932350575,10.0830403178942,8.99793402860338,9.82253754470026
"Grpr",2.50568851219696,2.52815992678243,2.61839715990882,2.29914170933212,2.85506644172698,2.47563113511043
"Atp7a",9.81906956620868,9.62898032105396,9.57240140263943,9.33897635661305,9.61694427296183,9.62958385577933
"Chm",8.54338762008075,8.41841261505004,8.30663125000983,7.94051919364453,8.43808309170615,8.36357001023091
"Plp1",5.04522394769087,5.19105493032589,5.40127746640928,5.22891814363967,5.29973123764227,4.98118666324008
"Lamp2",12.3924874565666,12.4086917976034,12.2464686662271,12.4261184464998,12.4695465166256,12.6019534424206
"Gabra3",-1.96248844200724,-1.97305182812556,-1.97001392749359,-1.97292564389865,-1.97235183959823,-1.97039494932125
"Fmr1",9.84712168377168,9.72708266889689,9.79970246097783,9.58682856759925,9.68208041989982,9.62185420910599
"Syn1",5.25456913781249,5.19875174805294,5.6208618187138,5.27368123594934,5.13027217842378,4.80777533140548
"Srd5a1",6.27218380976578,6.16627107472305,6.30155490045717,6.39429375335603,6.19105279033588,6.2103458136332
"Gcgr",0,0,0,0,0,0
"Insr",8.27731947837619,8.24485002398381,8.51328067115332,8.12457614021084,8.39310803306424,8.00664616666422
"Glul",10.7238183822821,10.7387457651855,10.3525930067598,11.3534582060519,10.321371896871,11.2161041184355
"Pgam2",1.77285058266277,1.69461273915405,1.78558640739674,1.7738980583144,1.70598243457302,1.68808549995538
"Cth",7.78737955217545,7.9637220171817,8.7482248915595,7.97052425335211,8.4581388747617,7.34165745717598
"Hspa1l",3.55842577243817,3.62745383413698,3.73124402769391,4.02445559354143,3.99246471195465,3.8701559283417
"Psmb9",6.58403440939198,6.59166205470663,6.035719050205,6.88346106707231,6.11852671808761,7.05312307442426
"Psmb8",6.93181557352901,6.88830883833931,6.37153544866113,7.44237578589109,6.78352311980582,7.65147621012148
"RT1-A1",11.3886317226852,11.4927106531391,11.0638813136563,11.7836774565559,11.6304971703721,12.0838771877199
"RT1-A2",10.2903023146003,10.3251187861513,9.88369958323926,10.5667673024886,10.5155346305074,10.9651619336345
"RT1-S2",-1.96248844200724,-1.97305182812556,-1.97001392749359,-1.97292564389865,-1.97235183959823,-1.97039494932125
"Tacr2",-0.610216633876101,-0.61025143496538,-0.602634252314828,-0.580900237731198,-0.546701778672435,-0.57140079030773
"Lta",-1.49347066890491,-1.49364610676482,-1.49805994546045,-1.47237583676039,-1.49224177067079,-1.47780724609001
"Vars",12.0274296868478,12.1288991870525,12.404526766632,12.1924626211225,12.2510304096862,11.8953841857225
"Scgb2a1",-1.50090269856412,-1.50107177326019,-1.49013440540794,-1.46031815884596,-1.49971837269772,-1.49087109627606
"Snap25",2.08025063085621,2.04062862767526,2.30302763669416,2.93002098348496,2.24100339063971,2.3429241796339
"Acat1",10.0787087530783,10.0623709281552,9.97393019982017,9.85091580883825,9.90034290155279,9.97223899599214
"Myo5a",9.61237370451943,9.42277184617097,9.86731104958193,9.67701377888426,9.67155272523302,9.32454497782191
"Xrcc6",9.03395533990013,8.98330192987431,9.1303590401544,9.034692698338,8.889419930961,8.84032590938232
"Itgam",0.76817698524598,0.768072548141129,0.660731243487112,0.800432142874955,0.768947051655854,0.892083120471847
"Fgfr2",12.5358947274008,12.5096310712374,12.3066604984201,11.693053396118,11.9112435863972,12.0182508921565
"Prkcb",0.681800061188676,0.681690004645099,0.514897122020171,0.681849260588384,0.682610769450206,0.849077925916012
"Gipr",0.667576584215521,0.640178756299388,0.604688555928177,0.61478993790624,0.55797319187919,0.635570679221993
"Adm",8.05769095521352,8.09203608656444,7.53223597038966,9.11670845233441,8.4922938514293,9.34712870238117
"Slc16a1",9.59271704937415,9.73180525871164,9.99220383063061,10.3779867425117,9.73315762147838,9.72562950540731
"Ampd1",0.863875910721246,0.863355102404851,0.889492408119168,0.864108764686504,0.957807973636565,0.885081467605415
"Calcrl",4.87475728780245,4.74600318328638,5.06893162460761,6.0493676581365,5.24418633118443,5.38822560559727
"Plcb4",9.01293473079523,8.92922072321601,8.69582990001594,8.74585348385206,8.93731447923141,9.11683180853141
"Cyb5r3",12.3549899948516,12.4135998919032,12.1890896506355,12.2917618904327,12.4259369917608,12.5540547338387
"Mobp",-0.28274484819791,-0.226384566515076,-0.251372346681465,-0.282725580441936,-0.282426637127394,-0.285768469459693
"Gip",1.88573986623855,1.99878508009732,1.87047384762285,1.93576724906146,1.78280437287986,1.93107443651574
"P2rx6",2.38977249451272,2.36323676465887,2.37042981171855,2.41420213730068,2.30772557789333,2.36703867546425
"Eln",15.3575295360367,15.3429384104632,15.2740457613403,11.5717180034147,11.5951880874483,11.6596412573412
"Dbi",10.4342609615729,10.4454336072018,10.4048758276375,10.346661686215,10.3427378295649,10.3796712146398
"Atxn1",8.0746208333596,7.72897338746996,7.66299280305629,7.4600693955831,7.80634041358839,7.87200921194423
"Camk4",2.87515769039757,2.92557226002451,3.14423321773006,2.78815999666161,2.72998443098007,2.51520397130182
"Cyp2d2",-1.47191517801124,-1.49379882118303,-1.47665411095642,-1.49353741157776,-1.49234868966414,-1.49914593926167
"Ntrk2",6.03766179067441,5.91360131294621,6.21170325163589,6.57340454802939,5.87718015208414,5.98922065023119
"Lipa",10.7873332246367,10.7813856371951,10.6235026444907,10.5371175194669,10.7707035312319,10.8147673117746
"Rbp1",4.86528226273041,4.83823292639182,3.57774947015116,4.26061628065455,4.12983591920923,5.46923422434184
"Hk1",11.4549638346985,11.4801164676357,11.4578677460914,11.6027829340461,11.6180582589847,11.6200930015911
"Hk2",9.21831689183744,9.26087240471119,9.50731447959461,9.73799752023564,9.26715063957652,9.23485424858579
"Hk3",0.373193914211157,0.373115813381033,0.389936208379876,0.569515991911686,0.373770179846992,0.454861741295558
"Crabp1",3.83799864717508,3.87386749440339,3.69783415225329,3.17763136983921,3.43074882541456,3.46228901616283
"Gpd2",8.47336170099792,8.36018423235508,8.90153503308819,8.77972290288623,8.64813826132227,8.22916851569255
"Slc12a1",-1.96248844200724,-1.97305182812556,-1.97001392749359,-1.97292564389865,-1.97235183959823,-1.97039494932125
"PVR",10.3790695430133,10.3383623382961,10.9641574515639,10.2565938333801,10.4485739926919,9.74714240212683
"Tnfrsf8",-1.49347066890491,-1.49364610676482,-1.49805994546045,-1.47237583676039,-1.49224177067079,-1.47780724609001
"Scarb1",10.8629211591101,10.9376416092595,10.6317319256262,10.7132627711416,10.5911781784724,10.9207699333656
"Htr1b",4.71701089638804,4.59246398808714,4.99976598661872,4.48972291915065,4.89217972035733,4.34592277537286
"Apoa4",0,0,0,0,0,0
"Apoa1",1.38710570953457,1.38651927799202,1.51773360309717,1.44560089986882,1.42389130046669,1.30382499083388
"Adra2a",3.29163910922663,3.2647571123015,3.55948278728802,3.65775282433224,3.11196644314817,3.10357495721625
"Il4r",9.29771743420292,9.32623737594203,9.04722176348787,10.4521697603105,9.83812063886851,10.4099008411741
"Th",-1.96248844200724,-1.97305182812556,-1.97001392749359,-1.97292564389865,-1.97235183959823,-1.97039494932125
"Cyp2e1",0,0,0,0,0,0
"Mitf",7.60564348099671,7.53571033909806,7.12840540423847,8.21338267455679,7.65593984161196,8.37693276389329
"Ampd3",4.40582716467457,4.35462128924665,4.39112202388643,4.94742893086544,4.57583407748756,4.75073370725068
"Pld1",8.78565183269519,8.76455871742564,8.63538288883791,9.129008432687,9.1842596873346,9.29635644623331
"Pld2",8.93254893032497,8.84945340857265,8.8878732922884,9.03806026800017,8.91702540694773,8.98067071463437
"Foxa1",-0.693075605669022,-0.637040034126868,-0.663616798781919,-0.663916294814682,-0.6607517011526,-0.663775019099667
"Foxa2",3.5919039829112,3.41902773763481,4.30588701964441,3.42182328706757,3.43483730396018,2.62790913614247
"Foxa3",0.228131225986377,0.199534163030744,0.240813583030108,0.200236355685274,0.203597233343522,0.174935905992851
"Chrna5",0.415389682291631,0.444090915724809,0.433073907907395,0.444808098563369,0.41590087084854,0.42702087580678
"Chrnb4",1.08896333779246,1.11764003293703,1.15166606704271,1.1743585502382,1.15333074824734,1.1154802675648
"Pc",9.28756654980638,9.35222069195113,9.29580148677459,9.90350072173443,9.57519787715807,9.76344143355041
"Nppb",-0.161965300353003,-0.162017605470026,-0.108555244921798,-0.0190745658778566,-0.161579233315775,-0.143763107586532
"Rgn",2.24823527762645,2.2701011458418,2.20926804302374,2.32157031521093,2.23858545917253,2.32997805590211
"Avpr1a",11.1021044547366,11.0670188372173,10.8028360346753,10.9377457872457,11.4744728169032,11.4878349133761
"Cd1d1",6.55649153812446,6.53792475159175,6.20882011677423,7.38665826283654,6.64201227277735,7.35272329589083
"Chrm4",2.47997314779346,2.52290610496636,2.473181292322,2.29334164304957,2.29826334922713,2.32406083019626
"Gadd45a",9.24768778330162,9.28346560763062,9.50490085396609,9.97482497942046,9.86693801860339,9.68155734051195
"Ddn",1.85926825131532,1.80433177443966,1.89560584043059,1.8333412090333,1.95336906749001,1.82954931070855
"Fgfr4",3.95086955337888,3.79573285283267,4.01725080895691,3.69292377236371,3.70266585983517,3.5538452102483
"Hsd11b1",9.33501310981358,9.39368020205139,8.59567936126916,11.4784946914779,10.1890964898579,11.6024628853312
"Hsd11b2",2.37538881968329,2.42024430923164,2.43500449166023,2.27109579260318,2.27842491049873,2.23757242434819
"Itga1",10.9999420038349,10.7935992919616,10.4225907106804,10.8911205599411,11.5780603685618,11.7087704014692
"Mr1",5.781452173106,5.75364468713804,5.40490808998555,6.00523754750153,6.01829049394243,6.37440436085845
"Aanat",1.65258910694942,1.650886450849,1.67689958870456,1.72803979188424,1.60608948130312,1.64190282678832
"Pcsk2",4.22109352474063,4.12787625559959,4.38688458733777,5.29576584699319,4.56828538738006,4.71962592001897
"Scnn1a",5.17788884592716,5.18370461681392,5.20504096931956,5.41628133778131,5.15862102819455,5.26320694503891
"Tagln",16.1544126856514,16.1566426965505,16.3030872619647,15.9825176899159,16.2120396207023,15.9497190844454
"Stat1",10.9539006768424,10.8725180560571,10.9685330831708,10.6928471211509,10.6865014624499,10.6343505750793
"Stat3",12.2293722696597,12.2037501672135,11.9970596453818,12.2515717838615,12.2526899644436,12.4716324472073
"Stat5b",9.13493860503483,9.14116825007561,8.93686893602591,9.00147521493197,9.03169411445451,9.21776915622256
"Egr4",-0.624797975874157,-0.681709479688858,-0.675652395198112,-0.652522208802828,-0.681434896820709,-0.644579885395164
"Stx2",9.75281434165282,9.78429633779323,9.70333288308578,9.79627093915551,10.0372242132255,9.98197003282777
"Myo5b",2.69439164589375,2.69228336426613,3.16223685966129,2.6166762265821,2.57842878993194,2.12865315367567
"Pcdhb12",4.6708205952394,4.60229769644669,4.46371465737391,4.54586228010868,4.57039759050692,4.73097442377693
"Ncl",13.2004380022901,13.1675484752348,13.517743049029,13.2137714482425,13.1749856739744,12.8606287508419
"Gfra2",2.82507869519781,2.75594871872674,3.20905121671492,2.75882042408991,2.65008989788446,2.28591765123454
"Slc2a4",3.77819739498864,3.83871862861513,3.89468391636736,3.7451597416516,3.34416921147309,3.45843857199687
"Cd24",9.64440068060512,9.69350780234365,10.1884119576466,8.52291827022498,7.9872963496604,7.73564959377052
"Egr3",5.35638955175374,5.25263810642917,5.26302350632051,5.73042441505274,5.29935824425912,5.55638165242688
"Esr2",2.01519956917911,2.01376919066652,2.06165552875552,2.01583862472236,1.96258641950207,1.94204137327951
"Fyn",10.2462323401443,10.2465609739267,10.0807055134391,10.2820300674327,10.2003429524793,10.4068776535524
"Igf2r",12.509734980713,12.5198780268915,13.0640759470833,12.5637180535744,12.9651213988948,12.2151502829535
"Map1a",11.7496981542978,11.6475704963604,11.7396632392874,11.9552575149787,12.069873299174,11.9715364931181
"Pgr",8.39039686943468,8.25237474274563,8.15745939319294,8.10481612768935,9.11925108809075,8.77596002078726
"Syk",1.71912852002819,1.71849439583262,1.66161041176733,1.93360501075404,1.72379685989895,1.88590198148958
"Vav1",-0.995271333539674,-0.99529857911814,-1.04045826413271,-0.995259148461821,-0.994131474900732,-0.949522003877477
"Plagl1",9.85638106337527,9.73860349882756,10.3064004442899,7.20220843963805,6.8913566752722,6.53787439426669
"Gata2",6.3515517617932,6.42996609639953,6.25853478792873,6.54250192387129,7.17648385469723,6.9917170304519
"Sp4",7.63975816546492,7.55146406556812,7.47801229286603,7.40912710427518,7.55902446224499,7.60167460591057
"Cdkn2a",7.43264561366049,7.61664153892865,7.30261011330666,7.49541322744208,7.48087558893148,7.71017787117468
"Cdkn2b",9.47807058798814,9.57066772182148,9.44000696370887,9.57749348055552,9.30873264859252,9.52747525576996
"Zfp386",8.58517247443011,8.61287090676743,8.69435209370259,8.58729080263085,8.86607101713303,8.63135050677812
"Casp1",2.85429185699835,2.8267169176205,2.80686315192663,3.20212920395599,2.9752493738488,3.1223305242852
"Ptpra",11.0762298324302,11.1105676784939,10.8328149795717,11.1173041470729,11.1292916007772,11.3838816498154
"Slc25a5",11.5500893196861,11.5574555084876,11.7738585739995,11.737605069398,11.6630658027136,11.4802492761432
"Fhl1",14.8725378212886,14.8412422228429,14.5323544191093,14.1131009156783,14.9056283857652,14.8339002536783
"Idh3g",10.371967192104,10.4448485640327,10.3823055885398,10.4834863146314,10.3405509910295,10.438120942359
"Bgn",16.8744688706258,16.8829714050532,16.8124638904732,16.9398497358046,17.3960277682252,17.2341949993812
"Gdi1",11.8329683737361,11.8552676114087,11.7196592586805,11.7996738500588,12.0021086945405,12.0253500061916
"Efnb1",10.5122484467254,10.4796981972844,10.2353492722887,9.44631905005861,9.96427185631923,9.96591950290509
"Ccnd3",11.4973202611925,11.5150176436784,11.5129705595691,11.3012864069847,11.4298678826772,11.3587755376973
"Gnrh1",0.354678516392886,0.270447296962265,0.328778410999688,0.355239953280965,0.334120779473361,0.328464862055051
"Inhbb",9.14910292471526,9.16254140835657,8.7074621787718,10.7510480667729,10.1157571253925,10.8817625838469
"St6gal1",8.17962593189276,8.15867792418833,8.08276556748458,8.26328228899771,8.34054190801196,8.3882984590608
"Gucy1b1",7.37087966149195,7.40514566851304,6.94136073979806,5.95173065012646,6.81103600258663,6.82803525156098
"Ccnb1",9.9033741785493,9.87115169212575,10.405104451762,10.2881540006711,9.68349905470353,9.46798501126285
"Pcsk1",3.01947563551234,3.01608572884499,3.22849214407244,3.05207390894764,4.04452215984134,3.33758657250071
"Il6st",12.9675475699144,12.9244614170317,12.5428398971924,13.4078377360001,12.8145745736169,13.5143707510892
"Lyz2",3.73587517939683,3.81583666044232,3.17886667932419,3.77973820462107,3.65338984262438,4.3135532642181
"Sdc1",12.1176639968281,12.1505271427025,12.3407850869922,12.1282515423491,12.1308741046078,11.9228733062515
"Tapbp",9.76652187136354,9.78251040779699,9.31111676394053,10.0167203157879,9.76905766386928,10.3562883654683
"Vps52",10.3591009281783,10.3528591783279,10.3533968265554,10.3693976113809,10.5082041902935,10.4413841275348
"Tspy1",0,0,0,0,0,0
"Arsb",10.5705847934626,10.5517660970018,10.6263626957855,10.9442492111504,10.6596678729735,10.7367712915087
"Add3",8.83544694120376,8.85587893064456,8.49304252014368,9.93928503418362,8.09645103387117,9.37048844980788
"Onecut1",-0.982187040603188,-1.01118249603669,-1.01082464028411,-1.01114483549984,-0.979348671835638,-0.981106881703569
"Tyro3",8.87740148999107,8.93977380989671,8.9102626986746,8.87090669910411,8.6577054811494,8.76263104139604
"Akt2",11.779835374921,11.8055520812594,11.7911797294598,11.823591630179,11.7771274526597,11.8018735400497
"Ghr",8.06445618973423,7.97394728896826,7.87529177148713,8.1121674339137,7.67191867177188,8.03595302070691
"Gpc3",5.61433390542884,5.57873070532411,6.28768557009142,4.71509373251298,4.32482367018144,3.82880543663227
"Acvrl1",8.52575540747859,8.46178633069641,7.72083120847138,8.75853468692814,7.0943782466986,8.69939612742949
"Grk2",10.0123065312643,10.0482903214232,10.0707702676807,9.98654625843156,10.0196198705428,9.96261122315031
"Apod",-1.96890748399065,-1.96900927764493,-1.96242429084464,-1.96886239090508,-1.9681944449576,-1.97506250790449
"Aqp1",12.6044588307713,12.5897626227607,12.7211057340674,13.2293685746918,10.4122716850412,11.6968251225651
"Aqp5",-1.48522813904041,-1.48542234947634,-1.46122594464708,-1.48514210668537,-1.48386774361675,-1.50860422476235
"Arnt",9.99522938152853,9.86778370421915,9.8328916327245,9.68610940451061,9.76246261309692,9.82290091895311
"Arnt2",10.3264381662392,10.3312079610841,9.85188443761424,10.1769582720515,9.89424582321419,10.5125406736802
"Bckdha",9.75178286373326,9.82716329162063,9.38273571149163,10.1812884528944,9.58739062580243,10.2910769055338
"Bdkrb2",5.01739692814079,4.91725489237451,5.26520549683961,4.40777668538832,4.64653286157272,4.22927518689855
"Bsg",13.7224594803481,13.798231966958,13.7743470650579,13.9460053128797,13.8411687108398,13.8795856704549
"Nsg1",5.9394641557748,5.99484920614764,7.10990586138453,8.55990759225243,8.09538042091339,7.18489482615959
"Cnr1",3.74698588148848,3.83314695481162,3.85148255425178,4.00298598166974,3.62762749819046,3.75389060382837
"Coq7",6.58953370455292,6.52972190409219,6.89991775108724,6.72722423294099,6.61548415984591,6.33106424962876
"Dlg1",9.89080859628642,9.78816554983866,9.75981484204885,9.64359208522484,10.0330829742795,9.91800976076584
"Dpp4",3.50819746124248,3.47675476726593,3.7971906983186,3.32562873079343,3.37324914945931,3.04472435606198
"Dyrk1a",10.3463726955212,10.3290050741927,10.4422903733754,10.2530513714279,10.3851925893059,10.2145204918484
"Fmo1",4.42264281141663,4.23432281443274,4.31786267650068,4.16444393859806,3.84278239942228,4.01423330543418
"Gamt",7.19709237038265,7.07873311344981,6.66962786297253,6.74567608796476,6.83651220180238,7.25937902382727
"Gstt1",6.02443300010918,5.97791691007074,5.80408959992711,6.12215522172131,6.10018195165557,6.3082539418513
"Id1",10.0443346383468,10.1292897076925,10.6144824451089,9.91767305989569,10.1761099132167,9.51922121446692
"Itpr1",10.7606519580416,10.6553137695243,10.6895980811601,10.2664371501037,10.7134474367051,10.5083270760273
"Mal",-1.96896873395618,-1.96906370753062,-1.97429755893791,-1.96892666206527,-1.96830346787297,-1.96333372677461
"Nmbr",1.4249060434794,1.49361192606104,1.430822371047,1.28859504148215,1.32171050844046,1.33358938868452
"P2ry1",3.0547800871544,2.93672347119758,2.84402862055118,3.0778737814078,2.87343210681417,3.1273761027358
"Pdgfa",10.1732892923817,10.2205868163499,10.4649585530556,10.2189393732075,10.6100138476802,10.146456111754
"Pdgfra",12.5770397416834,12.4726010081052,12.047647928168,12.7204488039043,12.1530531394667,12.9139234184118
"Proc",0.114635935909406,0.197532055455457,0.174698040361796,0.172108282900869,0.147230518924872,0.141055356233505
"Pvalb",0.169685585986818,0.140554507788257,0.10318197369245,0.198153837494767,0.141036971441873,0.221533477663407
"Abcd3",9.31529606963169,9.32543318586045,9.21576464536469,9.36618888523533,9.24844457673163,9.41191671336486
"Rxra",9.07920503805951,9.01090358437249,9.04901195411189,8.9537359533618,8.92908372752736,8.93745219754869
"Mapk10",-1.97291433037752,-1.96269081076754,-1.97001073072517,-1.97287620796964,-1.97231151589909,-1.97038570178172
"Smo",10.26337207679,10.2576186077309,10.1828896590562,9.82747107354446,9.92891921941494,9.95580082968393
"Tst",7.37413114690805,7.27990196560446,6.91564040413841,7.69746032671048,6.97013432161144,7.74517347627881
"Cnp",9.92613127561737,9.98749179690969,9.2375574961434,10.0820423168894,9.77252807736656,10.6465392372481
"Mfge8",13.780475780633,13.8089382442654,13.682709371977,14.25736301091,14.270762215445,14.3760602536498
"Cox6a2",4.97400595574645,4.92258602853514,5.85505819519044,5.34138957200268,5.81608878867953,4.67197697729146
"Nup153",10.6238803560967,10.5496478288334,10.8619095318837,10.3727999947916,10.6934745436933,10.2579918298238
"Cox6a1",12.2937369639942,12.3282684471208,12.3447879949507,12.4706786755444,12.281886626184,12.3424973614711
"Gclc",9.7757222727478,9.76755571973816,10.04501254677,9.67480121907091,9.90982420621468,9.51893916211575
"Amacr",7.35129810163469,7.50500761448692,7.32835791095684,7.46152191766489,7.38947824152819,7.52529502670051
"Igfbp5",7.6878053401593,7.76630220531579,6.73784386923654,5.52977266350729,5.3710834335092,6.43963795200925
"Acadl",9.62815558150257,9.63370806782516,9.69326003901414,9.72100426329527,9.55770063694716,9.57702423577095
"Acsl1",9.33817359769629,9.29027156604828,9.10598871783872,9.37932392709586,9.6980727411648,9.7469321981639
"Adcy6",10.9551895847546,11.0081594879983,10.878798806167,10.9254320419181,11.098975770121,11.115079636229
"Alox5",1.31732803915064,1.24189260890289,1.2311458493006,1.16214100248479,1.13370109260112,1.19638552226911
"Anxa3",11.2401380488531,11.2327867816965,11.6528571679942,10.8976437449415,11.5453700153295,10.8051121274161
"Aqp4",-1.01380140703374,-1.01425291699544,-1.01241084191202,-1.04286766104006,-1.0416224325375,-1.04386136689135
"Azgp1",0.797640851812705,0.768441857304573,0.767638527145667,0.905503533766964,0.769190825230617,0.852750006911763
"Bglap",0.459656207602929,0.374952407289509,0.460718841006641,0.375052126106485,0.439001064344909,0.363612061665275
"Bmp4",11.0610398299649,11.1206225057247,10.7200794022003,11.5251919188873,11.3873322897405,11.8270138699584
"Cacnb3",9.76171527219172,9.82683258345109,9.72761466993427,10.3787223732644,10.0706897511349,10.2913653200868
"Cebpg",10.4039610180325,10.4376380220673,10.6465506799612,10.5330084922268,10.7367974626128,10.4091518175085
"Chrna7",0,0,0,0,0,0
"Abcc2",-1.48076720355085,-1.48093385144514,-1.4901175672449,-1.50065747590534,-1.49956397173322,-1.49084368407238
"Comp",9.30371390077044,9.41979435258046,9.89535625028377,8.74757509392336,8.64469847104575,8.16253465887623
"Cpd",11.4540491027847,11.3088834647779,11.273248574982,11.4965617061342,11.8672526866592,11.790124905196
"Cst3",12.2897106696731,12.4093082174932,12.1153157835799,12.4287482988553,12.1759838397106,12.5365597292863
"Cstb",10.3297086198103,10.3813967458376,10.2502655274541,10.5535769137037,10.4182893323777,10.5912202784106
"Cycs",10.8899405779042,10.9169578446176,11.2066205717359,10.8429724096607,10.8245922753536,10.5306109820321
"Dcc",-1.48522813904041,-1.48542234947634,-1.46122594464708,-1.48514210668537,-1.48386774361675,-1.50860422476235
"Dmp1",0.664411314038476,0.716198359848314,0.689108768095976,0.607229579523696,0.700956460436543,0.655289088827539
"Egf",2.50003608877161,2.44730176305083,2.41736741207477,2.33822162731012,2.68635411714253,2.56858938606278
"Emp1",13.7369976935768,13.772389681395,13.9529820273467,13.580114050097,13.8244080553575,13.5039727128665
"Ephx1",9.31894754988893,9.38466744583356,8.86719434054231,9.41389945217289,9.27180069185211,9.82746322933143
"Fgf1",7.70879760783177,7.63186000353602,7.84128008419917,7.85666090664336,8.59673065563983,8.05574450262632
"Fnta",9.94504674193294,10.0259592207567,9.99146053974906,9.96072745366238,10.0589836805632,10.0038980087085
"Fth1",13.9546450109831,14.0733303431493,13.7427454918337,14.9440807068231,14.3704756537388,14.9285203655135
"Gast",0,0,0,0,0,0
"Ghrhr",-0.31409634135425,-0.257813623140787,-0.259766638910516,-0.284805337492026,-0.313783331231222,-0.325482677698627
"Hsd17b1",2.60644444883788,2.46078957264742,2.52278044307874,2.58567856009684,2.47594566283167,2.54164867912817
"Htr1d",-0.011619200059784,-0.0116720486341105,0.0203140080769287,0.0177885728534015,0.0821432085833064,0.018006258294478
"Htr4",-1.96890748399065,-1.96900927764493,-1.96242429084464,-1.96886239090508,-1.9681944449576,-1.97506250790449
"Jak3",8.32425046680984,8.4649251469608,8.29231632377897,8.7434999088383,8.50408598042624,8.72606442773863
"Kcnc1",1.76136959865756,1.83596779506158,1.67492704574334,1.7060899598519,1.71017326161107,1.83187326184772
"Lamp1",13.8025130031108,13.8192871264545,13.6064397952656,14.1684276563391,13.9261159734225,14.2517320843978
"Lhb",-0.118688673178289,-0.0930052876273583,-0.133189404393746,-0.146375850423971,-0.175141238498199,-0.133416120470163
"Lipe",5.83031538176387,5.93842214210521,5.71538124990131,5.87930888313527,5.55663950892401,5.88696170806288
"Mat1a",4.252635274478,4.36330108938963,4.31654750608842,4.89128307932555,4.146907155144,4.51051579308017
"Mgmt",9.62994223759507,9.72862325853339,9.06659728063191,9.75423868211229,9.65051978745819,10.3150647022176
"Mgp",13.1734387986122,13.1461616527924,11.8184572739889,13.7604395901562,12.894326647816,14.6687260706995
"Bhlha15",-0.2407240530893,-0.241193630584031,-0.238117552300492,-0.269833080612981,-0.269531275296599,-0.272523467490964
"Nfyb",9.17959207053156,9.15833786523043,9.17099265185717,8.85351013257525,9.12166857104338,8.98556166783315
"Nfyc",9.99996699870927,10.0171551829941,9.9793701413941,9.79539240362651,9.7407643271223,9.79726931483199
"Ninj1",10.4533092666184,10.4754094642854,10.7276932635748,11.0246266366307,10.9742391449165,10.7360989926507
"Npr3",12.3892612384122,12.3540460192004,12.0342719993243,11.3975490117951,11.4884536603991,11.7803829655791
"Npy5r",0.0104137222828407,0.0391955786431238,0.0893077946728005,0.0104374467537918,0.0432200657110811,-0.0376743879773818
"Tnfrsf11b",12.5077415372732,12.4532119701303,11.6737884890629,11.5310081306944,12.6792589932054,12.9118218265887
"Oxtr",2.46491559041261,2.28457687870551,2.30235688727853,2.12611235728852,2.06568857326038,2.16828981255498
"Phb",10.9160788587623,10.8515314734299,10.9642095790291,10.892584314817,10.7498999160341,10.7408377024926
"Ros1",-0.318166292080086,-0.318633136774918,-0.309535866964554,-0.31795755804618,-0.283791968526533,-0.309738610749304
"Rps29",12.5538879816615,12.5790077507797,12.6831677752055,12.4050007357347,12.4461748266047,12.3088678721848
"Scn2b",4.85967608527083,4.71114599567943,4.65203261477766,4.47670375543254,4.6692634638411,4.70636203533429
"Sod3",12.1578167832,12.1909205843906,11.5856012659478,13.2175938370603,12.6767081433933,13.5359184080743
"Spp1",14.3411070790175,14.3648825503272,14.5004540181449,14.4229202449907,14.7507637316824,14.4393827848641
"Cntn2",4.2208378580381,4.0922992196839,4.53626060026948,4.43083797194481,4.37073588303594,4.02109486608189
"Timp3",11.3530657156661,11.3450534313691,11.6131833004605,11.1748809724492,10.8012319799874,10.7239327492754
"Tmpo",11.5022025114576,11.5106225681123,12.0286998322535,11.2335060610237,11.2765132451107,10.7327223605987
"Tshr",1.350930214742,1.23971735097806,1.31388018130923,1.35167601508202,1.24075374773705,1.27765848296034
"Vcam1",6.73379774206336,6.56841122250294,5.69620628778829,5.44734693117932,5.02152101486208,6.18933216751556
"Slc30a2",-0.649880182011457,-0.621338770265628,-0.665994054540774,-0.620676039836278,-0.649634010821755,-0.604770446926785
"Acadvl",9.46974888072533,9.50084645159016,9.31329676271613,9.62655838805099,9.45800317776734,9.71428168635079
"Asic2",-1.48522813904041,-1.48542234947634,-1.46122594464708,-1.48514210668537,-1.48386774361675,-1.50860422476235
"Actg2",11.2332530281716,11.0913553783259,11.1269653639451,9.9741355104793,8.99878689421267,9.52180004164959
"Acvr2b",5.09215687893591,5.10616823178214,5.11514171934354,4.82346343024739,4.98222605751899,4.88686557989867
"Adarb1",11.4996269193954,11.4828726911264,11.0674215231105,10.4506921778671,10.8852960154826,11.0918223788252
"Adk",9.56653686843673,9.57124531150973,9.50986156208256,9.57528507713274,9.53322003972067,9.61328208631738
"Adora2a",6.48346209166096,6.53584028202232,5.59900982798699,7.57397688691438,6.57454175970003,7.98490068216186
"Adora3",-1.97291433037752,-1.96269081076754,-1.97001073072517,-1.97287620796964,-1.97231151589909,-1.97038570178172
"Adprh",9.7411452686455,9.75163708548838,9.53569649886309,9.57199879930644,9.55486315921825,9.77412565746619
"Grk3",0,0,0,0,0,0
"Alad",9.01893085096512,9.13692313118618,9.32568760111637,9.02509638086453,8.94010436520401,8.73483976299356
"Aldh3a1",3.51748142841209,3.48983111979247,3.77303948283443,3.62921992212306,3.25321056273321,3.17183203369598
"Ambp",-0.970482021717308,-1.00057993938061,-0.960262439367857,-1.00053935696412,-0.99950727308719,-1.02529185620675
"Amh",2.08218898647176,2.28924541681642,2.31145335491087,2.16757092280753,2.20653736377949,2.06131799002673
"Anp32a",10.4120110472736,10.4901668057647,10.5506586046561,10.2641799697326,10.2288576467021,10.1469491300805
"Anxa1",13.3194717150725,13.3429515101888,13.422940306059,13.8497829181089,13.379875450201,13.5231004907266
"Apobec1",-1.97291433037752,-1.96269081076754,-1.97001073072517,-1.97287620796964,-1.97231151589909,-1.97038570178172
"Faslg",2.73327198834129,2.70147632784374,2.97557483265847,2.63995937253992,2.78021248954559,2.4518852564768
"Arrb1",9.08518479149187,9.01928815720637,8.84493308315796,9.35893873437097,7.87376336027683,8.82365443851506
"Arrb2",6.67410404387103,6.59623353433165,6.59329702704699,6.78246980577466,6.47310484725451,6.66965908856894
"Atf3",7.33650186243049,7.43509842112827,7.73443297517146,7.66254811943833,7.61104922273706,7.28816583769562
"Atp1b3",11.1817240850528,11.2107410806101,11.3507834376451,11.6128843637888,11.6877940538986,11.49578835403
"Atp2a3",3.88869412802518,3.88586981711191,4.15626520234974,4.47800751387407,4.56258167806391,4.25131136618779
"Atp5if1",10.2414604743725,10.2606309968642,10.2826724051649,10.3992681894977,10.4259119444221,10.3809633974134
"Bcan",0.925225104743052,0.891183066465218,1.0767960986149,0.891366939142631,0.892246103939188,0.72321450853015
"Bfsp1",4.79205014130753,4.7016209643101,4.51721817717023,4.71293895566695,4.32709685070218,4.74963527882315
"Cacna1a",6.62793030092969,6.80827063127156,6.26920290872184,7.20891181879205,7.04367135666239,7.57518914510601
"Cacna2d1",9.86672282182389,9.78143638247339,9.81564574666154,9.38278151441199,9.86143724147346,9.63054323342983
"Camk2a",2.53971933154351,2.56228300993592,2.49493093211561,2.68115023347034,2.49823538160063,2.64576304615959
"Alx1",-0.572250701811178,-0.543495862522351,-0.516536107595275,-0.572234877892065,-0.571989370470133,-0.613449298752589
"Casp3",9.53872015975275,9.45651178484158,9.29291319933107,9.44064156178328,9.31911492388262,9.58458101579905
"Cast",11.7789764847883,11.7115166873,11.6966654404473,11.6163052724965,11.9555615075379,11.834514535614
"Cav1",13.5809121739707,13.5497556859967,13.573166509142,13.2141750772493,13.2640868270905,13.2312983730116
"Ccng1",12.5618885943194,12.5725558230458,12.5178550408854,12.6981358035891,12.555259688407,12.6760649137952
"Cd44",11.9646353097766,11.9560979162837,11.7119643670641,12.6039076050689,12.5051640276598,12.8029380623304
"Cd59",9.19083547926777,9.14682424406894,8.62292396044529,9.06231884314145,8.88886211150828,9.52149637854793
"Cd80",7.70159184268533,7.54812182486878,7.55214632071144,7.8262647552246,8.07788162689578,8.02478370412581
"Cdh6",3.8416661362627,3.83529229111743,4.20420106513712,3.36326108445697,3.41277945758238,3.02229841957261
"Cebpe",0,0,0,0,0,0
"Col2a1",15.4999085064957,15.58543706437,16.3286938471464,13.104454322205,13.0974730664368,12.3149426326073
"Cpt2",8.69611983807977,8.82397935720588,8.67485359292755,8.638136799998,8.63118784643582,8.71985832793218
"Bcar1",12.0922582578077,12.1773544261227,12.2438612226886,12.1842019238399,12.1772244993381,12.0716583308656
"Crmp1",2.3990394841938,2.33272264509359,2.16604433144855,2.5183808604519,2.44225744488618,2.68015588586418
"Dpysl2",12.0985775623321,12.0400041306097,11.733177480585,12.0237461874447,11.8829889775513,12.289480948384
"Dpysl4",0.48243002968606,0.534003081740149,0.498132086295827,0.482828651589654,0.425942183647848,0.464469887036028
"Dpysl3",9.6259404965297,9.52239775692848,9.23628753235115,9.21438406437961,10.0287625503721,9.95945490175383
"Cryab",11.482742883376,11.536406588409,11.8320695830563,10.734145144743,11.2319544141111,10.6605549322632
"Crybb1",1.98370157493279,2.13838675150972,1.94841211150357,1.81816009960771,1.91839356348672,1.9809088832649
"Ctsc",5.25864505865865,5.1855923616889,5.09053882555187,5.13585554783558,4.25729394270783,4.82815462989361
"Ctsh",11.2638744409237,11.2914161958988,10.7799635109454,11.1171437580798,11.1417417004842,11.6271245367479
"Cyp1b1",12.9626988668966,12.8897623594105,12.5851895828171,14.0073751805296,13.7205887320148,14.2050229866087
"Cyp51",12.4425011775867,12.4161723690662,12.3012481290205,11.697925525486,12.2533613606282,12.103732087363
"Cyp7b1",8.20493603300165,8.21497788631972,7.21074967484629,9.23933751127846,8.12409644391891,9.68092426241308
"Dlx5",6.97147455672393,7.06618426600031,6.76804246722674,6.50930824274735,6.0610272414119,6.53595468621501
"Drd4",0.213715649026051,0.24238849513529,0.215875970573962,0.243092412785348,0.214161313890554,0.24080296484466
"Hbegf",10.2242356509034,10.2712529083956,10.2019051849074,10.2416198665881,10.6583344031142,10.4958162295932
"Sparcl1",1.99045535844567,1.96207381895839,1.92496288522334,2.0686997620682,2.05791792710531,2.11461054806545
"Eef2k",9.77103818907125,9.75427155991715,9.50791666099568,9.52394858190616,9.36231826080524,9.69787163485422
"Emd",11.0774737152868,11.1725715126522,11.2701436155036,10.8204615256066,11.0684483249931,10.7993339237657
"Eno3",9.25041809980731,9.28775661387828,10.0454893568396,9.71494914079017,10.1345668657822,9.14835600328937
"F2r",11.490903634009,11.4361938730035,11.3643558758703,11.3801402716293,11.8545659715117,11.7165459992064
"Fcer1g",3.33028125902561,3.18980264668904,3.07362932508293,3.29832269310184,3.2360075995451,3.45357777409786
"Fgf10",6.36511413800202,6.45944647862954,6.38401953821784,7.35054386046968,7.0954536554031,7.25125952803434
"Fgf9",3.07696916559615,3.13689622073412,2.86734499952214,2.87683436008792,3.13002429101842,3.24301701919617
"Fosl1",8.41166945283763,8.3874624554142,8.45133572005694,9.07963499065335,8.55729032692533,8.76669289285832
"Fosl2",8.58529955644388,8.46750397147055,8.31055450892126,8.74279021632957,8.75294485912993,8.9637147927657
"Fshb",-1.97298679320815,-1.97307486185689,-1.97001535301733,-1.96239732658225,-1.97236989439864,-1.97039908500564
"Cenpi",8.00365864818044,8.02513419591082,8.54739677634469,8.25082061281602,8.01728855403342,7.60105422912566
"Gabrb2",-0.350468510614191,-0.296760493379361,-0.334703188662412,-0.379428088965701,-0.379146867279415,-0.368198791456922
"Gdnf",5.65505831712049,5.67775410114676,5.90247803113922,5.98440410275858,6.23825750682409,5.87525898278574
"Gfra1",8.93462119061284,8.88671104145172,9.27479350684442,8.62582015741186,9.10099081493098,8.49927809535927
"Ggh",6.80801858371206,6.90268659394046,6.87402620006173,7.03594151567022,6.74687293816865,6.87273361568397
"Glrb",5.55537206197806,5.74319064985377,5.86183919001925,5.49954363526715,6.34447754399566,5.70945275552807
"Gss",9.71892714349575,9.7042905848867,9.9120812531602,9.6396806804658,9.6566018881312,9.44766889532953
"Hmgb1",11.2448902942121,11.1996224041518,11.4029918512888,11.118395980231,11.21232281732,10.9846238966687
"Hmmr",9.12265707609674,9.01149134564837,9.56587150725848,9.45544680840602,9.06637142365395,8.76211181964405
"Hrh2",0,0,0,0,0,0
"Hspe1",9.48149569402529,9.55721238491664,9.72791401887205,9.64957571529229,9.41293111984548,9.3226934381678
"Icam1",12.6550334704731,12.6595131300898,11.8351856539496,13.0001524965242,13.0997221405082,13.872024964848
"Il1rap",7.239442773163,7.33193301074311,7.14269403333701,7.52063556964117,7.20849186747604,7.50755757717465
"Irs1",8.67497797052242,8.61621631092137,8.89169841185531,7.81829561303754,8.44366366944082,7.88487837010577
"Kcna2",-1.97291433037752,-1.96269081076754,-1.97001073072517,-1.97287620796964,-1.97231151589909,-1.97038570178172
"Kcna4",1.17615248461963,1.17600276257243,1.30726396217756,1.32549015171075,1.47690299015299,1.27001023235035
"Kcnj8",3.66915881615209,3.54785817286409,3.72241306657757,3.83244789888814,4.24196700690663,3.92330288082791
"Lamb2",12.6010638045818,12.6863927554263,12.5855665868391,12.6055387914867,13.0691807580144,12.8955214679155
"Lgals4",-1.47191517801124,-1.49379882118303,-1.47665411095642,-1.49353741157776,-1.49234868966414,-1.49914593926167
"Lgals9",5.30655951980932,5.22083646931478,5.30551409602708,6.64947942253209,5.0567407292849,5.81129397444346
"Man2a1",11.8020224563683,11.7464287417308,11.90032447969,11.5990047340454,11.9170594402126,11.6319332064886
"Vps35",11.4572045560668,11.4510897544446,11.5344413178218,11.4063351528992,11.510669483127,11.378208155447
"Mip",4.86178214874591,4.83973965571058,5.15018526205068,4.95759753676829,5.01710882209089,4.68792881960716
"Mmp11",5.42858791403421,5.42448998797788,5.61891525116799,5.43041033196179,5.45790372723465,5.25178072943628
"Mras",11.3628909180324,11.39840469383,11.3721864571696,11.4381000189549,11.1901257368243,11.3225742266512
"Msx2",4.28069675384039,4.18555475576546,4.34029039702304,4.28358521811972,4.47680563491547,4.27303078429748
"Myo1e",10.1771119297982,10.0673214159979,10.1475790349511,10.1340563814808,10.3530229975316,10.2181773274532
"Myo1d",12.14444500464,12.1186289323198,12.0054799821537,12.2270762210436,12.4741190918334,12.4766546427647
"Myo9b",11.4055083807581,11.3793272063337,11.4019898561001,11.2309983938413,11.5938726342738,11.4028634515033
"Ndufa5",9.44833832136794,9.33235046060006,9.57664492223313,9.57679598221956,9.37714525382818,9.29067008677475
"Nedd4",14.9716970525843,14.9164809279625,14.9277087058009,14.7447059204964,14.9093836147386,14.8434250520899
"Nedd8",10.8007396237104,10.8501179739386,10.9548497617565,10.9128470550004,10.8274956007798,10.7407503649581
"Nes",8.72865780026715,8.37714538123515,8.85312288096085,8.55464957695395,8.87713197901501,8.41566948777479
"Nfia",9.76297204227102,9.68287476392344,9.18546031846862,9.65246272355655,9.64708781262174,10.1872383527178
"Nfkbia",9.88345607126259,9.85553285748408,8.86034237371634,9.94526022082487,9.65780686600484,10.8106856340718
"Nid1",13.9355305655094,13.8928137619073,14.0573014932744,13.4886898218186,14.1350846293035,13.6687578959949
"Nog",7.53648826837698,7.5074221886772,7.60625730326736,6.46033536584942,6.74914935983077,6.52044028809983
"Notch1",8.63098067307608,8.58827543038488,8.46386406480224,8.21216775682623,8.63705286154319,8.57037429611295
"Nup50",10.0879502333034,10.0283338296259,10.2110141894997,10.2011446226939,10.0686456750778,9.98202299085091
"Npm1",13.4980637563874,13.5504900048215,13.7052446454217,13.5027560305278,13.3448249568764,13.2428227288848
"Nrdc",10.6011123883596,10.5742851014397,10.6471804918181,10.698005122177,10.6514801683046,10.6152608983224
"Nxph1",3.31481302894163,3.31233671414446,3.23405306477794,3.55353052523277,3.23899488662146,3.47578451269222
"Oaz1",13.0386707335664,13.1256106319826,12.9904321422679,13.0910121475345,12.9043893971904,13.089409312869
"Ocm2",0,0,0,0,0,0
"P4hb",15.0770078039084,15.0734014291512,15.0644625008929,15.3422255911022,15.3077953618575,15.3357525921168
"Pcsk6",10.2932013349506,10.3474888022224,10.5491366841374,9.7860540791249,9.61454117479977,9.47150601141146
"Pam",14.5727087657292,14.5429529284218,14.4181720952191,14.2700637110346,14.9573867076481,14.7533839611977
"Pax6",3.46916012358328,3.54478908370446,3.58073170907451,3.52411204727413,3.42546559515111,3.40103171578198
"Pcp4",1.93089968517193,1.81623934543313,2.07077168432774,2.66894954296675,1.86326961478748,2.06890740985191
"Pemt",5.13344949603537,5.31566319327965,5.23691345542323,5.43363268577274,5.20291395963156,5.30591621193643
"Phex",2.75095554364417,2.8245565421041,2.69541921783231,2.42761621010329,2.43610406046103,2.52419696032399
"Pik3r1",10.7398403182268,10.6295648795029,10.3063631395963,10.9150461830223,10.4969471327766,11.084336117168
"Lypla1",10.3058527473322,10.309385522634,10.3566922965996,10.2252752510858,10.3606156211666,10.2438722745097
"Plk1",10.5552085245162,10.5248566487828,11.1342657411222,10.891035105469,10.3503801323179,10.0264744644207
"Pnoc",-0.997044278696306,-0.997072375080403,-0.956652854983688,-0.96677290056265,-0.996032769874662,-1.02180830712332
"Ppia",14.3658293620167,14.3605723032345,14.4810038165426,14.490239369223,14.2880724331022,14.2713529172456
"Prkag1",10.0765730782411,10.1330175982853,10.0672590218115,10.145661493931,10.1215740968784,10.1711541118564
"Prkar1b",7.70238156138117,7.94354208104352,7.86470334051149,7.93706949711427,8.48820952741914,8.17089799296756
"Prkcz",5.92251616307734,5.99099104858669,6.0942469675842,6.51914205735203,5.53038398352091,5.88726965868429
"Prkg2",2.94006445138423,2.89084222445281,2.81632647265668,2.73909488752663,2.86394721093987,2.90064791449509
"Psap",13.923121199807,13.9725734392933,13.8682855368561,14.161959934739,14.1964897746072,14.2587866373672
"Pspn",1.6022481526458,1.57498970690216,1.50268319769063,1.49502100090824,1.49896265101555,1.58292755804525
"Ptgds",0.189658599528796,0.189585338163135,0.30607317049983,0.189691354890273,0.190198718601664,0.0734938350921041
"Ptgis",6.87420402041,6.87713638144619,6.3130930472509,5.62296211038003,5.21401406690473,5.98106524231957
"Sirpa",10.4311868555765,10.5582097588429,10.4242919735845,10.846656560755,10.5751268856383,10.7812980568219
"Ptprs",11.7458941863754,11.7375756798225,11.6481743856032,11.5969764042822,11.85737912091,11.8207383100918
"Rab12",8.03478686248761,7.94027578574235,7.68068165759065,7.89928351523945,7.89462866629436,8.20380575729124
"Rab3a",6.94844946296637,7.04327342159646,6.87795713333521,6.71336891540514,6.92300586618889,6.93609169974322
"Rab4a",8.35483104375615,8.32323891054501,8.34217794004418,8.33512258138472,8.29206643242993,8.31045154401374
"Rabggtb",9.67657959945931,9.71018300394542,9.84765577536065,9.62968908808687,9.75647145354579,9.53880579715804
"Rock2",12.6417422697011,12.4672747815951,12.4416892276745,12.3085147000557,12.8490843807945,12.6916188383987
"Rps5",12.9644791884005,12.9334275233744,12.9523859102211,12.7957203229269,12.7596315257618,12.7742433700107
"Scp2",10.4759111893755,10.5482200671855,10.2964522279672,10.7124051288605,10.4051239118285,10.7743779206578
"Ccl3",2.01423379979957,2.01391520638631,1.74359104722796,2.014376150072,2.01657376045702,2.28595841112948
"Sele",-1.96248844200724,-1.97305182812556,-1.97001392749359,-1.97292564389865,-1.97235183959823,-1.97039494932125
"Selenow",10.4542234607481,10.478177726589,10.6601583431514,10.6192725864477,10.5722207630708,10.4017889252764
"Shox2",9.46653589540772,9.43497893372838,9.50313630852515,8.76812396019223,8.68094349653104,8.67215483440453
"Slc18a2",1.21125208816573,1.05059908674478,1.07497300739008,1.10865556320647,1.05521576699155,1.13788824516419
"Slc1a1",3.63309525925108,3.55862053311184,3.45892492566677,3.7218516756053,3.34189263550957,3.66880512607212
"Slc2a3",6.52404016696556,6.17104713463997,6.78572098604331,6.10033110715147,6.7049615809074,5.96446900878889
"Slc5a1",-1.04778383289457,-1.04780948352991,-1.01723468264179,-0.990173993213441,-1.04662250721696,-1.04896022578566
"Slc6a4",5.4715014600349,5.64412586416894,6.08379640951835,5.73185228156379,4.98934762917272,4.83461720795183
"Snai2",10.0254613387069,10.0351270307311,10.1964143303174,9.37452567957605,10.2419585764593,9.64212198241931
"Sstr4",1.77168942801992,1.69564367261288,1.75767364778962,1.74876144248564,1.6197955297507,1.66027138864495
"Il1rl1",11.2373596453737,11.1565818638969,10.6136328045959,10.2107985591638,11.0346933181567,11.2060838886996
"Star",1.69836116853081,1.72656047305707,1.74428125730524,1.93189348522149,1.79608094408059,1.83216677813974
"Stxbp1",9.59985299962343,9.57148477148425,9.54835650834093,9.63300209605785,9.67930505978026,9.69346595513197
"Abcc8",-1.97291433037752,-1.96269081076754,-1.97001073072517,-1.97287620796964,-1.97231151589909,-1.97038570178172
"Abcc9",6.34432872347691,6.21584709646794,6.30198316572117,6.4176989558154,8.61728703002808,7.49559773717299
"Eloa",10.9083439257082,10.8536425319834,10.8515166633906,10.8310268586262,10.8811822833742,10.8855811364554
"Tle4",7.69021464535253,7.63305513790149,7.68287311921123,7.26547171564771,7.28332044324924,7.25315785186426
"Tmod1",4.89540158845711,4.84144434569462,4.5895024512713,4.91388558933718,4.67177367357709,5.0717501472617
"Tnr",2.16466653296646,2.13858004996105,2.11161554693575,2.11819406541436,2.07943487545164,2.138822214961
"Ttpa",4.56554341180896,4.43721552610605,4.57573623374617,4.32593803463884,4.09656237610678,4.13689344058415
"Tnfrsf4",2.32795177990185,2.32721474161135,2.41123959138103,2.32828117792643,2.43086591974715,2.29591721821236
"Ube2i",11.8131544531543,11.8459103733639,11.8527959668629,11.8380149104093,11.7408616566156,11.7661747299087
"Ubtf",11.5033870548554,11.5686052673829,11.6244021471118,11.5190012102916,11.4706603733959,11.4064248058511
"Scgb1a1",0,0,0,0,0,0
"Ywhah",12.2570779010656,12.2308173371371,12.6297806672573,12.2787139546618,12.3386926343949,11.9228702463724
"Ywhaq",12.791303609392,12.8509013231972,13.0099462971223,12.7887505027106,12.7536721084954,12.5823674747754
"Ywhaz",13.8216423769914,13.8079510828583,13.9202298795099,13.7694007724088,13.9180022521681,13.7382683627033
"Map3k12",8.86370902458079,8.93141949103582,8.71848761245248,8.9373575818886,8.87105492565724,9.08328289912875
"Psmc2",11.011323903071,11.0465520318182,11.078092085571,11.0352510272484,11.0194178961981,10.9781803435969
"Agrp",1.245742485747,1.19269096764446,1.21606734624286,1.22105124634668,1.20364052492634,1.21549526608938
"F3",12.5158937509049,12.4867264250014,12.3310013780302,13.5094932830973,13.6763124427961,13.7632115728696
"Id3",12.4263336389154,12.424126474543,12.159922088202,12.3696162235977,12.2480571111987,12.5741446359254
"Alpl",9.23282991503724,9.3606290423933,9.83509647116693,9.41041984691013,9.34594333098682,8.83981459649682
"Id2",9.74024929324109,9.78041799900157,9.64779901351453,9.35115756751552,9.42261970144236,9.49942326708575
"Kdr",-1.96248844200724,-1.97305182812556,-1.97001392749359,-1.97292564389865,-1.97235183959823,-1.97039494932125
"Chrna4",-1.49358521802109,-1.47221391544261,-1.47673991775075,-1.4935055267264,-1.49232509126349,-1.49907495797605
"Parp1",10.5370940753806,10.5742309999346,10.7555266309094,10.6743921713997,10.5177368471007,10.3962004159984
"Agrn",9.96491128785414,10.0470707693662,10.7134763232876,9.79639379036924,10.1010891322154,9.24125616661492
"Hcrtr1",0,0,0,0,0,0
"Ppp1cb",11.7846715417636,11.760232066891,11.948329742146,11.7536847880653,11.7520726487703,11.5770007805991
"Map2",8.7266389731804,8.59757641179317,8.40382862540529,7.19656686794355,6.81922588917895,7.26617544564275
"Rpn1",13.342577186918,13.3862959483887,13.2931115919461,13.3768920840338,13.4472696966193,13.4834058660338
"Rasa2",7.01158682288385,6.89156213128307,7.04903432792053,6.71666062707046,6.8818622646674,6.70180159503186
"Cd74",3.64638584005715,3.73871673468805,3.4514488821234,3.51423558657131,3.65641058808157,3.82642549257564
"Utrn",10.6286522022404,10.4795185505312,10.6816949272527,10.2203203071681,10.8208890043941,10.3929951049142
"Marcks",11.2808502455063,11.3240630014874,10.8433858931018,10.9097729163896,11.2254151568733,11.5266647670265
"Pcmt1",9.36477869027932,9.32234580995848,9.36559323472898,9.40299092548582,9.3385541843131,9.34874157028938
"Hcrtr2",0.214688709411095,0.132966943649878,0.164095863092788,0.104429041116576,0.137002307803305,0.130447637897639
"Lep",-1.50090269856412,-1.50107177326019,-1.49013440540794,-1.46031815884596,-1.49971837269772,-1.49087109627606
"Tub",5.67288024635228,5.74575971633718,5.95991137544693,5.22287650451177,5.22321476732172,4.97245424181455
"Csf3",3.17594333567651,3.25022661507543,3.14436319594353,4.30042498241997,3.41161726888279,3.92474290508382
"Otc",2.31319019750503,2.15372981208986,2.23312343608169,2.4483609737636,2.19438290339783,2.32170850729647
"Asns",11.6799466990589,11.7118193342643,11.9839894850163,11.7706100384012,11.9835946621197,11.5889958819057
"Ptprz1",5.48146837800382,5.22340991764448,5.59504481546323,6.90832502413625,6.28418885147593,6.35365127016701
"Ptk2",11.0892158019013,11.0727837237706,11.0159229373608,11.0409699324232,11.088173015388,11.1296482993807
"Sdc2",14.132892000807,14.1388756025363,13.8962634025335,13.7118881469542,13.9789738899913,14.0850514176109
"Rln1",1.5893682745439,1.58767305165458,1.62642829730616,1.53600547614927,1.54271832908258,1.501454268409
"Hspa5",14.7381948428193,14.7089099602354,14.5990630740097,14.39157730535,14.899488204914,14.7700220826496
"Acadsb",9.82835128460893,9.77153654377521,9.5850351530778,9.74923144946723,9.67826026619922,9.9286546189475
"Plau",6.86214795537602,6.89036733611624,6.45889862710126,7.41711538727758,6.46410079567588,7.3579671101216
"Crem",7.87631468053198,7.90462306765307,7.97403922621473,8.32499253448766,8.09911774959388,8.12848478991856
"Cd81",13.5858493511272,13.6611632949851,13.1539330165381,13.2752316443567,13.4346177993085,13.8244980283506
"Ptpn11",11.5489905659668,11.5655360086543,11.660823711049,11.5396701999659,11.6316313710745,11.4820903617817
"Gys2",0,0,0,0,0,0
"Vamp1",5.8067414138901,5.73767779660073,5.69413373935165,6.08354670111913,6.08981380916628,6.16475612103647
"Tnfrsf1a",12.0851773915341,12.1248476416535,11.9584088527837,12.3189072371905,12.1790181380657,12.3955663514383
"Krt8",6.89354710091397,6.88267762495976,6.82773552427569,6.95610484648804,6.83980616905542,6.95833234643291
"Nkx2-1",0,0,0,0,0,0
"Plin1",-1.96896873395618,-1.96906370753062,-1.97429755893791,-1.96892666206527,-1.96830346787297,-1.96333372677461
"Pkm",14.6453406507265,14.6897301524472,14.6084332311243,15.2330018634142,15.040836831637,15.1960215179881
"Smad3",11.8424245101141,11.8473603173229,11.42340845406,11.9139265855222,11.8095754549655,12.2832349799024
"Dnase1",1.25560955156856,1.43348586804008,1.314986667864,1.33907464566606,1.2304244082314,1.31431056888905
"G6pc",0.110610537072514,0.0266844515125803,0.075575811072623,0.137344123123902,0.0271397592980215,0.0753136244308856
"Mc4r",-1.04441612743048,-1.04444134445851,-1.04422245432827,-0.987299708676246,-1.04307737722461,-1.01539482456666
"Prkaca",10.6423059943359,10.6502452467884,10.6509641054815,10.532058497987,10.5730840557655,10.5478827919569
"Ptger1",5.16839051460603,5.19818764958103,4.93383163481829,5.14546175490578,5.34589990442988,5.49513827694308
"Pde4a",7.9081345844438,7.93055489596481,7.77746222493822,7.95646952757122,8.10587638842816,8.17305547326578
"Fkbp1a",12.3875508528068,12.437145962759,12.5816428690143,12.4360506234307,12.3907789589305,12.2441203299492
"Hnf1b",3.7969182561469,4.01937181486398,3.93846237519977,3.93402173290001,5.21474472118274,4.54406588734704
"Igfbp6",9.40027891343721,9.4107589864411,9.06470671580563,8.74615087689803,7.65277129623056,8.54027332069782
"Gnai3",11.8383117905964,11.7949601209486,11.7902432846782,11.6448779120417,11.8605780964856,11.779120675358
"Bmp6",7.35752214488509,7.44051335250396,6.76969681038219,8.69876522067802,8.24888044456091,9.1031437709318
"Adrb3",-0.0902146599379918,-0.0364776746884904,-0.0671136266110228,-0.0900032833008681,-0.118839356360208,-0.100653860532757
"Otx1",0.716739020446438,0.7454174714184,0.727491161608231,0.774549844400087,0.717367420741977,0.74954571689522
"Il7",5.82481460985431,5.81402871621263,5.43132639511835,5.98601670443341,5.68577116468603,6.22398920247484
"Slc7a1",10.9915632429739,10.9747642592608,11.6056653530613,10.8883198352324,11.4935912503458,10.5684539408452
"Atp1b1",8.92101270268492,8.83280283614073,10.0853046714021,8.6361729477237,10.0757887368747,8.14758394030988
"Selp",0.579512324305519,0.635829918483509,0.652258784335052,0.690870482290004,0.702038133056286,0.651866644732607
"Ptgfr",8.69508940315236,8.55098218898324,8.61140919921839,8.58139201488193,9.18779594037875,8.89622057447975
"Col11a1",14.6413212826943,14.6767625474109,15.2001650796689,14.046321496939,15.1046397342436,14.034357450975
"Gja4",4.08627836881363,4.12555995891907,4.19028931756128,4.97282289720654,4.58054986410084,4.69231622695876
"Guca2a",-1.50077185398187,-1.48090619250586,-1.4901215518913,-1.48066489348587,-1.49960050509046,-1.49085017064072
"Gckr",0,0,0,0,0,0
"Khk",4.19268592154851,4.02211226585667,4.10994255230406,4.24440892387554,4.1042383106316,4.17178015865211
"Cd28",5.22649343988786,5.15531164361017,5.54797708749984,6.50541780917453,6.78911003755933,6.29018937761611
"Fn1",17.6466528845392,17.6929962582651,18.2600882625136,18.6656311597086,18.6711661197109,18.0781349485983
"Igfbp2",9.95191510771526,10.1194078359432,10.1016942662385,8.98983840420731,9.41874104699666,9.13825693119277
"Il1r1",9.28681337372396,9.27805910237145,9.52942723577476,9.93032751101311,9.09540335255261,9.2658744340558
"Pparg",6.36904549485313,6.43897965786268,6.08147545367573,5.77130190491519,6.19306576674126,6.3047209585104
"Scn5a",-0.252096878328824,-0.252140958380377,-0.181211949623782,-0.222620898393265,-0.251771311955624,-0.308103073905263
"Dgkg",5.21307425518686,4.99809956251071,5.13158905424826,5.25881594055725,5.27006739658146,5.23843952316988
"Bmp3",8.18229420280549,8.22006459163288,8.16480208422352,7.74115996506982,8.58428469406387,8.19909964256252
"Cd38",7.99108249559499,7.93302934059023,8.05638435361642,8.46007636297467,8.66571035065719,8.46856492129212
"Cpe",13.5400036064891,13.5650682631072,13.3936523804566,13.2803785956324,13.8980926318418,13.7481191680787
"Il15",6.06751584823473,6.03158923471112,5.52079258258786,6.23776260590444,5.8320309567952,6.56365674023489
"Smad1",10.4722660049787,10.5348908408963,10.404887312361,10.390522720193,10.362999444856,10.475452193101
"Nr3c2",7.40790003271088,7.42800390424522,7.05573078169687,6.91355398732505,7.84050150278404,7.73924893183572
"Anxa5",12.4538351628389,12.4431964236359,12.5652892701475,12.5015530227017,12.5545558824023,12.4112809756419
"Glra1",5.66235597353393,5.54740893006635,5.77062854046708,5.98750553423033,5.65118304240413,5.6535981996503
"Hmgcr",10.8237294696826,10.7025692667194,10.8746238049326,10.0491904550522,10.6168999846251,10.2215707831071
"Rasa1",10.0765726239082,10.0452054512399,10.202066812323,9.91120331659991,10.2225203696393,9.92568406837072
"Mak",0.721820579282004,0.747795830686058,0.777596466053525,0.664466313878807,0.665044058650761,0.62196692519529
"Ddr1",11.5193153058247,11.5917752352339,11.7270012378021,11.651679116375,11.7473775560546,11.528072368942
"Itpr3",9.59539596367396,9.56139842305427,10.0196394784842,9.86307391010623,10.0659200589878,9.52325469942695
"Col10a1",2.4445296749865,2.3506354002426,2.6795171598708,2.24908637599813,2.29112326737353,1.98817019942958
"Ppard",10.8239562195053,10.8766208756291,10.6996658455654,10.7463444365003,10.7913165492686,10.9194531948862
"Col12a1",12.3808148417541,12.2838311194521,12.6989046563384,11.1622728082741,11.9786193951363,11.2038644259699
"Gnai1",10.1380855746526,10.087235574917,9.85942900593936,9.77814125693192,9.83208023086426,10.0583423127435
"Cald1",15.288850254173,15.1956774766919,15.0843264170874,15.2520604092592,15.5812136578101,15.5745744818797
"Clcn1",2.30989226386027,2.13867408762127,2.23234394258838,2.11318865283976,2.17962154296232,2.13834433105344
"Ahr",9.78806648766828,9.76522592266445,10.1376680003905,9.94067316935436,10.0568141650565,9.63772187198132
"Plat",11.5165226526941,11.3897515492249,10.4497773319422,12.6249378027479,12.0908289176824,13.3612431292325
"Slc18a1",-1.49358521802109,-1.47221391544261,-1.47673991775075,-1.4935055267264,-1.49232509126349,-1.49907495797605
"Has2",9.2520137513928,9.11859756849073,9.06354097792203,9.36350249212204,9.31277816195296,9.45990500905725
"Cebpd",11.6468735695519,11.7727975009497,10.623081033476,11.9838095940045,11.4319427408466,12.7946306692003
"Vldlr",10.4095604715237,10.4232307888804,10.6099948041902,10.3571913093524,11.0149654927249,10.4924792270505
"Ctsl",12.3021741819486,12.3336226215346,12.175384318987,12.4063684212193,12.4033288046905,12.5473626957095
"Ass1",5.82693922029365,6.06477457481757,5.5714812400634,6.29040675967886,5.93095256283072,6.485055318747
"Dbh",-0.568040160923553,-0.597199343078577,-0.549611144465727,-0.567834004160486,-0.596907150690486,-0.615379184960824
"Ide",10.7814136934509,10.7507073325351,10.9945527112829,10.7357166070762,10.9925434721822,10.6356378413392
"Mxi1",8.79689282466735,8.90040025648312,8.37803859591712,9.00764468498298,8.7688199951177,9.35884028470845
"Rbp4",5.81095029281291,5.84287351622237,5.70644844619188,5.85622446933593,5.13105430685156,5.6141028464195
"Zeb1",10.2840492567931,10.3004187609144,10.4184782992434,9.78993291507207,10.1075977824651,9.82252105837891
"Cntf",4.6893437282968,4.69691973567071,4.76614686138608,4.88310652437882,4.94009710942109,4.83858668749764
"Hmbs",8.95170962540145,8.96221483938174,8.88330768379704,9.10154201178852,8.82966608605167,9.03925859751466
"Gucy2c",-0.637271595962078,-0.608707672975272,-0.630294007998876,-0.608043623415111,-0.60486495778934,-0.599149917072024
"Itgb7",-1.5015355191017,-1.50171355443984,-1.49019652658685,-1.48012836345281,-1.47896013756037,-1.4909722606905
"Myf6",0,0,0,0,0,0
"Slc11a2",10.7435042332258,10.7549548176183,10.5126719363226,10.9281915690561,10.7246877207745,11.0629972340148
"Syt1",2.90360074370906,3.03896378334339,2.92903823500214,2.97778205103285,3.11856300912288,3.09041655860195
"Tgfb3",14.2789197142367,14.2304814504523,14.0414796767435,13.8373611422411,14.5004748787875,14.3821389161153
"Igf1r",11.3308772550071,11.3142489164209,11.4587734459358,11.4993860485767,11.7187891360405,11.4728772320868
"Scg5",1.37781176320886,1.53677631715697,1.45699546289971,1.48958117233738,1.41106881576674,1.45062357133527
"Tcf12",11.0872169786758,10.9559511295799,10.9569528673363,10.7219211849013,11.0272883768638,10.9392359676741
"Got2",11.4952880650121,11.5564643465352,11.7360935674714,11.9720024306095,11.6333513290329,11.5924595181234
"Scn4a",3.53986214991538,3.66893399199048,3.5974342939116,3.75524328822959,3.88840879841899,3.82878982036563
"Itgb4",4.4628599176565,4.4012949306787,4.36587005091591,4.68939340363077,4.52586668847997,4.67383741930706
"Prkar1a",12.3868065495048,12.3582280352303,12.2907915732041,12.3150035469296,12.3696754673694,12.424065226313
"Mc5r",0.0397788765135096,-0.0177088951051679,0.0601899867442293,-0.0176338458380306,-0.0172740385788137,-0.0666089382484806
"Apoe",6.42846862194298,6.48267444698292,5.49325324104098,5.77745135865427,5.25794580557249,6.48001687553535
"Ccne1",9.12337239053393,9.17279499850479,9.36835814361365,9.12334653934887,8.87949703678875,8.78114733897453
"Ntf4",2.38766201327308,2.30681365328195,2.46471230480596,2.41381806214178,2.50735921095817,2.34311416502153
"Syt3",3.68582126922447,3.74864746701467,3.43070880019104,3.77692759621729,3.66299531278451,4.00648702242943
"Acp5",8.01244109017851,8.05859929989334,7.83560433085382,8.62911610428563,7.86437483904986,8.44666133584985
"Hck",0.686462292905699,0.686377844581798,0.710142584086211,0.798083066362733,0.71938584272751,0.735011939202659
"Kcnb1",4.81738553426036,4.72898945015178,4.5952096102988,4.63664462603776,4.24802351304518,4.62031195144875
"Pcna",9.76206251299023,9.81505833873584,10.2262042082602,9.84488338137638,9.81216864209912,9.39088222934063
"Plcg1",11.4996275000279,11.5049265251907,11.3401148148405,11.4628325934035,11.4687343095422,11.6279456492416
"Pygb",10.5941524278505,10.5990448839026,10.63880899322,10.5747318473316,10.5619139818165,10.5261125772306
"Gnaz",2.55040187288185,2.62043338602598,2.6870073809646,2.57657773540851,2.64572620274402,2.50956221756558
"Pfkl",11.4291052944824,11.4347584538566,11.2593464001783,11.7610991242515,11.3706706088591,11.7384703405465
"S100b",10.2006948783966,10.3265796589158,9.87428287527499,10.1464031530168,9.53172720833173,10.2284195740555
"Nf2",11.0598273174437,11.0436251952832,11.0840077074628,11.1996771976595,11.0384247432677,11.0867695193643
"Myh9l1",8.7872826799926,8.78441750362211,8.84913513659296,8.78856128315079,8.80818127892348,8.73508623625154
"Il2rb",-1.05146431300176,-1.02505648398616,-1.05804685198062,-1.07963439637062,-1.07812257905141,-1.05909203422436
"Ppara",5.88559071316391,5.8009029910933,5.73618652699263,5.99247899627284,5.81058617160614,6.00859290907547
"Clcn5",7.5970594892028,7.56849175233343,7.90170290995546,7.41930816707512,7.51258075426617,7.1470171714833
"Maob",5.41269095040661,5.30517992221363,5.3961930465185,6.30027386088105,5.0966568985324,5.66120776949834
"Dnm2",10.9604742386722,11.0014545446183,10.8766346606872,11.1320988756813,11.1542016570024,11.2474799972999
"Cd6",1.07123043241345,1.01534642299137,0.950591221186243,1.07181050414043,0.987545909813217,1.12237541349299
"Cpt1b",5.38352908168984,5.24515603346373,5.40877389704939,5.35401481425488,5.42816032095342,5.29665622813155
"Cpt1a",8.90950593077897,8.9195967159812,8.63946763298656,8.9027608195391,8.56021379549098,9.00657099790857
"Ogt",10.3386618562572,10.2273603866743,10.3862541114857,10.218424118344,10.5981929542164,10.3050655462603
"Tfec",2.87580416549363,2.67394370059332,2.83053231705914,3.16240103596966,2.59737288645053,2.82422857719444
"Acot7",9.7396421462515,9.69049317353147,9.95403301841558,9.89839482843237,9.69586429032386,9.55816420085402
"Akr7a3",1.87654406497196,1.95117677959348,1.8926039691578,1.92960876435163,1.85661306723955,1.9143673689205
"Rheb",9.99218474354991,9.99829572257764,10.1062773026911,10.0264043796487,9.95282103049531,9.8785756354447
"Afdn",9.01164376941942,8.97658165230862,9.19453105047375,9.63737752066078,9.2627922554581,9.24966654844971
"Ak3",10.4849447813755,10.5213069530001,10.2143699566678,10.5389493998077,10.4595325939806,10.7879969074142
"Rpl8",13.0918136075848,13.1170444098902,13.1167118956548,13.0695987699629,12.9188578060937,12.981945401111
"Ankrd1",6.87727303002187,6.73644844185433,7.40826157514162,7.45627769994161,9.53055867108539,7.89201734630998
"Hbp1",10.7816979689565,10.7651783895048,10.3708427147881,10.668757025055,10.464681471081,10.9693147125106
"Gfer",8.79325501379661,8.89757354397339,8.87603876840892,8.90409027566458,8.66816689126912,8.75550409394294
